lut/FujiFilm/gfx-eterna-55-F-Log2/ACROS.cube
#title:FLog2_to_ACROS
#model:GFX ETERNA 55
#FUJIFILM Corporation
#Gamma:F-Log2 to ACROS
#Gamut:F-Gamut to ITU-R BT.709
#Version:1.00
LUT_3D_SIZE 65
0.000000 0.000000 0.000000
0.000000 0.000000 0.000000
0.000000 0.000000 0.000000
0.000000 0.000000 0.000000
0.000000 0.000000 0.000000
0.000000 0.000000 0.000000
0.000977 0.000977 0.000977
0.001953 0.001953 0.001953
0.003906 0.003906 0.003906
0.005859 0.005859 0.005859
0.007813 0.007813 0.007813
0.009766 0.009766 0.009766
0.012695 0.012695 0.012695
0.017578 0.017578 0.017578
0.020508 0.020508 0.020508
0.023438 0.023438 0.023438
0.026367 0.026367 0.026367
0.030273 0.030273 0.030273
0.035156 0.035156 0.035156
0.040039 0.040039 0.040039
0.048828 0.048828 0.048828
0.055664 0.055664 0.055664
0.064453 0.064453 0.064453
0.073242 0.073242 0.073242
0.083984 0.083984 0.083984
0.093750 0.093750 0.093750
0.103516 0.103516 0.103516
0.115234 0.115234 0.115234
0.127930 0.127930 0.127930
0.142578 0.142578 0.142578
0.158203 0.158203 0.158203
0.175781 0.175781 0.175781
0.192383 0.192383 0.192383
0.211914 0.211914 0.211914
0.231445 0.231445 0.231445
0.251953 0.251953 0.251953
0.275391 0.275391 0.275391
0.299805 0.299805 0.299805
0.321289 0.321289 0.321289
0.341797 0.341797 0.341797
0.350586 0.350586 0.350586
0.360352 0.360352 0.360352
0.372070 0.372070 0.372070
0.386719 0.386719 0.386719
0.395508 0.395508 0.395508
0.395508 0.395508 0.395508
0.395508 0.395508 0.395508
0.395508 0.395508 0.395508
0.395508 0.395508 0.395508
0.395508 0.395508 0.395508
0.395508 0.395508 0.395508
0.395508 0.395508 0.395508
0.395508 0.395508 0.395508
0.395508 0.395508 0.395508
0.395508 0.395508 0.395508
0.395508 0.395508 0.395508
0.395508 0.395508 0.395508
0.395508 0.395508 0.395508
0.395508 0.395508 0.395508
0.395508 0.395508 0.395508
0.395508 0.395508 0.395508
0.395508 0.395508 0.395508
0.395508 0.395508 0.395508
0.395508 0.395508 0.395508
0.395508 0.395508 0.395508
0.000000 0.000000 0.000000
0.000000 0.000000 0.000000
0.000000 0.000000 0.000000
0.000000 0.000000 0.000000
0.000000 0.000000 0.000000
0.000000 0.000000 0.000000
0.000977 0.000977 0.000977
0.001953 0.001953 0.001953
0.003906 0.003906 0.003906
0.005859 0.005859 0.005859
0.007813 0.007813 0.007813
0.009766 0.009766 0.009766
0.012695 0.012695 0.012695
0.016602 0.016602 0.016602
0.019531 0.019531 0.019531
0.023438 0.023438 0.023438
0.026367 0.026367 0.026367
0.029297 0.029297 0.029297
0.034180 0.034180 0.034180
0.039063 0.039063 0.039063
0.047852 0.047852 0.047852
0.054688 0.054688 0.054688
0.063477 0.063477 0.063477
0.072266 0.072266 0.072266
0.083008 0.083008 0.083008
0.091797 0.091797 0.091797
0.104492 0.104492 0.104492
0.118164 0.118164 0.118164
0.131836 0.131836 0.131836
0.146484 0.146484 0.146484
0.163086 0.163086 0.163086
0.179688 0.179688 0.179688
0.199219 0.199219 0.199219
0.217773 0.217773 0.217773
0.239258 0.239258 0.239258
0.259766 0.259766 0.259766
0.283203 0.283203 0.283203
0.307617 0.307617 0.307617
0.330078 0.330078 0.330078
0.345703 0.345703 0.345703
0.354492 0.354492 0.354492
0.365234 0.365234 0.365234
0.377930 0.377930 0.377930
0.394531 0.394531 0.394531
0.395508 0.395508 0.395508
0.395508 0.395508 0.395508
0.395508 0.395508 0.395508
0.395508 0.395508 0.395508
0.395508 0.395508 0.395508
0.395508 0.395508 0.395508
0.395508 0.395508 0.395508
0.395508 0.395508 0.395508
0.395508 0.395508 0.395508
0.395508 0.395508 0.395508
0.395508 0.395508 0.395508
0.395508 0.395508 0.395508
0.395508 0.395508 0.395508
0.395508 0.395508 0.395508
0.395508 0.395508 0.395508
0.395508 0.395508 0.395508
0.395508 0.395508 0.395508
0.395508 0.395508 0.395508
0.395508 0.395508 0.395508
0.395508 0.395508 0.395508
0.395508 0.395508 0.395508
0.000000 0.000000 0.000000
0.000000 0.000000 0.000000
0.000000 0.000000 0.000000
0.000000 0.000000 0.000000
0.000000 0.000000 0.000000
0.000000 0.000000 0.000000
0.000000 0.000000 0.000000
0.001953 0.001953 0.001953
0.003906 0.003906 0.003906
0.004883 0.004883 0.004883
0.007813 0.007813 0.007813
0.009766 0.009766 0.009766
0.011719 0.011719 0.011719
0.016602 0.016602 0.016602
0.019531 0.019531 0.019531
0.022461 0.022461 0.022461
0.025391 0.025391 0.025391
0.029297 0.029297 0.029297
0.033203 0.033203 0.033203
0.039063 0.039063 0.039063
0.046875 0.046875 0.046875
0.054688 0.054688 0.054688
0.062500 0.062500 0.062500
0.072266 0.072266 0.072266
0.083984 0.083984 0.083984
0.094727 0.094727 0.094727
0.108398 0.108398 0.108398
0.121094 0.121094 0.121094
0.135742 0.135742 0.135742
0.151367 0.151367 0.151367
0.168945 0.168945 0.168945
0.185547 0.185547 0.185547
0.204102 0.204102 0.204102
0.224609 0.224609 0.224609
0.245117 0.245117 0.245117
0.267578 0.267578 0.267578
0.291992 0.291992 0.291992
0.316406 0.316406 0.316406
0.336914 0.336914 0.336914
0.348633 0.348633 0.348633
0.358398 0.358398 0.358398
0.371094 0.371094 0.371094
0.384766 0.384766 0.384766
0.395508 0.395508 0.395508
0.395508 0.395508 0.395508
0.395508 0.395508 0.395508
0.395508 0.395508 0.395508
0.395508 0.395508 0.395508
0.395508 0.395508 0.395508
0.395508 0.395508 0.395508
0.395508 0.395508 0.395508
0.395508 0.395508 0.395508
0.395508 0.395508 0.395508
0.395508 0.395508 0.395508
0.395508 0.395508 0.395508
0.395508 0.395508 0.395508
0.395508 0.395508 0.395508
0.395508 0.395508 0.395508
0.395508 0.395508 0.395508
0.395508 0.395508 0.395508
0.395508 0.395508 0.395508
0.395508 0.395508 0.395508
0.395508 0.395508 0.395508
0.395508 0.395508 0.395508
0.395508 0.395508 0.395508
0.000000 0.000000 0.000000
0.000000 0.000000 0.000000
0.000000 0.000000 0.000000
0.000000 0.000000 0.000000
0.000000 0.000000 0.000000
0.000000 0.000000 0.000000
0.000000 0.000000 0.000000
0.000977 0.000977 0.000977
0.003906 0.003906 0.003906
0.004883 0.004883 0.004883
0.006836 0.006836 0.006836
0.008789 0.008789 0.008789
0.011719 0.011719 0.011719
0.014648 0.014648 0.014648
0.018555 0.018555 0.018555
0.022461 0.022461 0.022461
0.025391 0.025391 0.025391
0.029297 0.029297 0.029297
0.033203 0.033203 0.033203
0.039063 0.039063 0.039063
0.044922 0.044922 0.044922
0.053711 0.053711 0.053711
0.062500 0.062500 0.062500
0.073242 0.073242 0.073242
0.084961 0.084961 0.084961
0.097656 0.097656 0.097656
0.110352 0.110352 0.110352
0.124023 0.124023 0.124023
0.138672 0.138672 0.138672
0.155273 0.155273 0.155273
0.172852 0.172852 0.172852
0.190430 0.190430 0.190430
0.210938 0.210938 0.210938
0.230469 0.230469 0.230469
0.251953 0.251953 0.251953
0.275391 0.275391 0.275391
0.300781 0.300781 0.300781
0.324219 0.324219 0.324219
0.344727 0.344727 0.344727
0.351563 0.351563 0.351563
0.363281 0.363281 0.363281
0.376953 0.376953 0.376953
0.391602 0.391602 0.391602
0.395508 0.395508 0.395508
0.395508 0.395508 0.395508
0.395508 0.395508 0.395508
0.395508 0.395508 0.395508
0.395508 0.395508 0.395508
0.395508 0.395508 0.395508
0.395508 0.395508 0.395508
0.395508 0.395508 0.395508
0.395508 0.395508 0.395508
0.395508 0.395508 0.395508
0.395508 0.395508 0.395508
0.395508 0.395508 0.395508
0.395508 0.395508 0.395508
0.395508 0.395508 0.395508
0.395508 0.395508 0.395508
0.395508 0.395508 0.395508
0.395508 0.395508 0.395508
0.395508 0.395508 0.395508
0.395508 0.395508 0.395508
0.395508 0.395508 0.395508
0.395508 0.395508 0.395508
0.395508 0.395508 0.395508
0.000000 0.000000 0.000000
0.000000 0.000000 0.000000
0.000000 0.000000 0.000000
0.000000 0.000000 0.000000
0.000000 0.000000 0.000000
0.000000 0.000000 0.000000
0.000000 0.000000 0.000000
0.000977 0.000977 0.000977
0.002930 0.002930 0.002930
0.004883 0.004883 0.004883
0.006836 0.006836 0.006836
0.008789 0.008789 0.008789
0.010742 0.010742 0.010742
0.014648 0.014648 0.014648
0.018555 0.018555 0.018555
0.021484 0.021484 0.021484
0.025391 0.025391 0.025391
0.028320 0.028320 0.028320
0.032227 0.032227 0.032227
0.038086 0.038086 0.038086
0.044922 0.044922 0.044922
0.054688 0.054688 0.054688
0.064453 0.064453 0.064453
0.074219 0.074219 0.074219
0.087891 0.087891 0.087891
0.099609 0.099609 0.099609
0.113281 0.113281 0.113281
0.126953 0.126953 0.126953
0.141602 0.141602 0.141602
0.158203 0.158203 0.158203
0.176758 0.176758 0.176758
0.196289 0.196289 0.196289
0.215820 0.215820 0.215820
0.236328 0.236328 0.236328
0.258789 0.258789 0.258789
0.283203 0.283203 0.283203
0.308594 0.308594 0.308594
0.332031 0.332031 0.332031
0.346680 0.346680 0.346680
0.355469 0.355469 0.355469
0.367188 0.367188 0.367188
0.381836 0.381836 0.381836
0.395508 0.395508 0.395508
0.395508 0.395508 0.395508
0.395508 0.395508 0.395508
0.395508 0.395508 0.395508
0.395508 0.395508 0.395508
0.395508 0.395508 0.395508
0.395508 0.395508 0.395508
0.395508 0.395508 0.395508
0.395508 0.395508 0.395508
0.395508 0.395508 0.395508
0.395508 0.395508 0.395508
0.395508 0.395508 0.395508
0.395508 0.395508 0.395508
0.395508 0.395508 0.395508
0.395508 0.395508 0.395508
0.395508 0.395508 0.395508
0.395508 0.395508 0.395508
0.395508 0.395508 0.395508
0.395508 0.395508 0.395508
0.395508 0.395508 0.395508
0.395508 0.395508 0.395508
0.395508 0.395508 0.395508
0.395508 0.395508 0.395508
0.000000 0.000000 0.000000
0.000000 0.000000 0.000000
0.000000 0.000000 0.000000
0.000000 0.000000 0.000000
0.000000 0.000000 0.000000
0.000000 0.000000 0.000000
0.000000 0.000000 0.000000
0.000977 0.000977 0.000977
0.002930 0.002930 0.002930
0.004883 0.004883 0.004883
0.006836 0.006836 0.006836
0.008789 0.008789 0.008789
0.010742 0.010742 0.010742
0.013672 0.013672 0.013672
0.017578 0.017578 0.017578
0.021484 0.021484 0.021484
0.024414 0.024414 0.024414
0.028320 0.028320 0.028320
0.032227 0.032227 0.032227
0.039063 0.039063 0.039063
0.046875 0.046875 0.046875
0.055664 0.055664 0.055664
0.065430 0.065430 0.065430
0.076172 0.076172 0.076172
0.089844 0.089844 0.089844
0.101563 0.101563 0.101563
0.116211 0.116211 0.116211
0.130859 0.130859 0.130859
0.145508 0.145508 0.145508
0.162109 0.162109 0.162109
0.181641 0.181641 0.181641
0.201172 0.201172 0.201172
0.221680 0.221680 0.221680
0.243164 0.243164 0.243164
0.266602 0.266602 0.266602
0.291016 0.291016 0.291016
0.316406 0.316406 0.316406
0.337891 0.337891 0.337891
0.349609 0.349609 0.349609
0.360352 0.360352 0.360352
0.374023 0.374023 0.374023
0.389648 0.389648 0.389648
0.395508 0.395508 0.395508
0.395508 0.395508 0.395508
0.395508 0.395508 0.395508
0.395508 0.395508 0.395508
0.395508 0.395508 0.395508
0.395508 0.395508 0.395508
0.395508 0.395508 0.395508
0.395508 0.395508 0.395508
0.395508 0.395508 0.395508
0.395508 0.395508 0.395508
0.395508 0.395508 0.395508
0.395508 0.395508 0.395508
0.395508 0.395508 0.395508
0.395508 0.395508 0.395508
0.395508 0.395508 0.395508
0.395508 0.395508 0.395508
0.395508 0.395508 0.395508
0.395508 0.395508 0.395508
0.395508 0.395508 0.395508
0.395508 0.395508 0.395508
0.395508 0.395508 0.395508
0.395508 0.395508 0.395508
0.395508 0.395508 0.395508
0.000000 0.000000 0.000000
0.000000 0.000000 0.000000
0.000000 0.000000 0.000000
0.000000 0.000000 0.000000
0.000000 0.000000 0.000000
0.000000 0.000000 0.000000
0.000000 0.000000 0.000000
0.000977 0.000977 0.000977
0.002930 0.002930 0.002930
0.004883 0.004883 0.004883
0.005859 0.005859 0.005859
0.007813 0.007813 0.007813
0.009766 0.009766 0.009766
0.013672 0.013672 0.013672
0.017578 0.017578 0.017578
0.020508 0.020508 0.020508
0.024414 0.024414 0.024414
0.028320 0.028320 0.028320
0.033203 0.033203 0.033203
0.039063 0.039063 0.039063
0.048828 0.048828 0.048828
0.056641 0.056641 0.056641
0.067383 0.067383 0.067383
0.077148 0.077148 0.077148
0.091797 0.091797 0.091797
0.103516 0.103516 0.103516
0.118164 0.118164 0.118164
0.132813 0.132813 0.132813
0.147461 0.147461 0.147461
0.167969 0.167969 0.167969
0.185547 0.185547 0.185547
0.205078 0.205078 0.205078
0.226563 0.226563 0.226563
0.249023 0.249023 0.249023
0.274414 0.274414 0.274414
0.299805 0.299805 0.299805
0.323242 0.323242 0.323242
0.344727 0.344727 0.344727
0.352539 0.352539 0.352539
0.364258 0.364258 0.364258
0.379883 0.379883 0.379883
0.395508 0.395508 0.395508
0.395508 0.395508 0.395508
0.395508 0.395508 0.395508
0.395508 0.395508 0.395508
0.395508 0.395508 0.395508
0.395508 0.395508 0.395508
0.395508 0.395508 0.395508
0.395508 0.395508 0.395508
0.395508 0.395508 0.395508
0.395508 0.395508 0.395508
0.395508 0.395508 0.395508
0.395508 0.395508 0.395508
0.395508 0.395508 0.395508
0.395508 0.395508 0.395508
0.395508 0.395508 0.395508
0.395508 0.395508 0.395508
0.395508 0.395508 0.395508
0.395508 0.395508 0.395508
0.395508 0.395508 0.395508
0.395508 0.395508 0.395508
0.395508 0.395508 0.395508
0.395508 0.395508 0.395508
0.395508 0.395508 0.395508
0.395508 0.395508 0.395508
0.002930 0.002930 0.002930
0.002930 0.002930 0.002930
0.002930 0.002930 0.002930
0.002930 0.002930 0.002930
0.002930 0.002930 0.002930
0.002930 0.002930 0.002930
0.002930 0.002930 0.002930
0.003906 0.003906 0.003906
0.005859 0.005859 0.005859
0.006836 0.006836 0.006836
0.009766 0.009766 0.009766
0.011719 0.011719 0.011719
0.013672 0.013672 0.013672
0.016602 0.016602 0.016602
0.019531 0.019531 0.019531
0.023438 0.023438 0.023438
0.026367 0.026367 0.026367
0.030273 0.030273 0.030273
0.037109 0.037109 0.037109
0.043945 0.043945 0.043945
0.050781 0.050781 0.050781
0.059570 0.059570 0.059570
0.070313 0.070313 0.070313
0.081055 0.081055 0.081055
0.092773 0.092773 0.092773
0.104492 0.104492 0.104492
0.120117 0.120117 0.120117
0.135742 0.135742 0.135742
0.152344 0.152344 0.152344
0.170898 0.170898 0.170898
0.189453 0.189453 0.189453
0.210938 0.210938 0.210938
0.231445 0.231445 0.231445
0.253906 0.253906 0.253906
0.280273 0.280273 0.280273
0.306641 0.306641 0.306641
0.331055 0.331055 0.331055
0.346680 0.346680 0.346680
0.356445 0.356445 0.356445
0.369141 0.369141 0.369141
0.383789 0.383789 0.383789
0.395508 0.395508 0.395508
0.395508 0.395508 0.395508
0.395508 0.395508 0.395508
0.395508 0.395508 0.395508
0.395508 0.395508 0.395508
0.395508 0.395508 0.395508
0.395508 0.395508 0.395508
0.395508 0.395508 0.395508
0.395508 0.395508 0.395508
0.395508 0.395508 0.395508
0.395508 0.395508 0.395508
0.395508 0.395508 0.395508
0.395508 0.395508 0.395508
0.395508 0.395508 0.395508
0.395508 0.395508 0.395508
0.395508 0.395508 0.395508
0.395508 0.395508 0.395508
0.395508 0.395508 0.395508
0.395508 0.395508 0.395508
0.395508 0.395508 0.395508
0.395508 0.395508 0.395508
0.395508 0.395508 0.395508
0.395508 0.395508 0.395508
0.395508 0.395508 0.395508
0.005859 0.005859 0.005859
0.005859 0.005859 0.005859
0.005859 0.005859 0.005859
0.005859 0.005859 0.005859
0.005859 0.005859 0.005859
0.005859 0.005859 0.005859
0.005859 0.005859 0.005859
0.006836 0.006836 0.006836
0.008789 0.008789 0.008789
0.009766 0.009766 0.009766
0.012695 0.012695 0.012695
0.014648 0.014648 0.014648
0.016602 0.016602 0.016602
0.020508 0.020508 0.020508
0.023438 0.023438 0.023438
0.027344 0.027344 0.027344
0.030273 0.030273 0.030273
0.035156 0.035156 0.035156
0.040039 0.040039 0.040039
0.046875 0.046875 0.046875
0.055664 0.055664 0.055664
0.064453 0.064453 0.064453
0.074219 0.074219 0.074219
0.084961 0.084961 0.084961
0.099609 0.099609 0.099609
0.112305 0.112305 0.112305
0.125977 0.125977 0.125977
0.141602 0.141602 0.141602
0.157227 0.157227 0.157227
0.174805 0.174805 0.174805
0.192383 0.192383 0.192383
0.214844 0.214844 0.214844
0.236328 0.236328 0.236328
0.260742 0.260742 0.260742
0.288086 0.288086 0.288086
0.313477 0.313477 0.313477
0.336914 0.336914 0.336914
0.349609 0.349609 0.349609
0.360352 0.360352 0.360352
0.371094 0.371094 0.371094
0.381836 0.381836 0.381836
0.395508 0.395508 0.395508
0.395508 0.395508 0.395508
0.395508 0.395508 0.395508
0.395508 0.395508 0.395508
0.395508 0.395508 0.395508
0.395508 0.395508 0.395508
0.395508 0.395508 0.395508
0.395508 0.395508 0.395508
0.395508 0.395508 0.395508
0.395508 0.395508 0.395508
0.395508 0.395508 0.395508
0.395508 0.395508 0.395508
0.395508 0.395508 0.395508
0.395508 0.395508 0.395508
0.395508 0.395508 0.395508
0.395508 0.395508 0.395508
0.395508 0.395508 0.395508
0.395508 0.395508 0.395508
0.395508 0.395508 0.395508
0.395508 0.395508 0.395508
0.395508 0.395508 0.395508
0.395508 0.395508 0.395508
0.395508 0.395508 0.395508
0.395508 0.395508 0.395508
0.008789 0.008789 0.008789
0.008789 0.008789 0.008789
0.008789 0.008789 0.008789
0.008789 0.008789 0.008789
0.008789 0.008789 0.008789
0.008789 0.008789 0.008789
0.008789 0.008789 0.008789
0.009766 0.009766 0.009766
0.011719 0.011719 0.011719
0.013672 0.013672 0.013672
0.015625 0.015625 0.015625
0.017578 0.017578 0.017578
0.022461 0.022461 0.022461
0.025391 0.025391 0.025391
0.028320 0.028320 0.028320
0.031250 0.031250 0.031250
0.036133 0.036133 0.036133
0.040039 0.040039 0.040039
0.045898 0.045898 0.045898
0.051758 0.051758 0.051758
0.059570 0.059570 0.059570
0.069336 0.069336 0.069336
0.080078 0.080078 0.080078
0.092773 0.092773 0.092773
0.104492 0.104492 0.104492
0.118164 0.118164 0.118164
0.132813 0.132813 0.132813
0.147461 0.147461 0.147461
0.165039 0.165039 0.165039
0.184570 0.184570 0.184570
0.203125 0.203125 0.203125
0.222656 0.222656 0.222656
0.244141 0.244141 0.244141
0.269531 0.269531 0.269531
0.294922 0.294922 0.294922
0.320313 0.320313 0.320313
0.342773 0.342773 0.342773
0.349609 0.349609 0.349609
0.358398 0.358398 0.358398
0.368164 0.368164 0.368164
0.380859 0.380859 0.380859
0.394531 0.394531 0.394531
0.395508 0.395508 0.395508
0.395508 0.395508 0.395508
0.395508 0.395508 0.395508
0.395508 0.395508 0.395508
0.395508 0.395508 0.395508
0.395508 0.395508 0.395508
0.395508 0.395508 0.395508
0.395508 0.395508 0.395508
0.395508 0.395508 0.395508
0.395508 0.395508 0.395508
0.395508 0.395508 0.395508
0.395508 0.395508 0.395508
0.395508 0.395508 0.395508
0.395508 0.395508 0.395508
0.395508 0.395508 0.395508
0.395508 0.395508 0.395508
0.395508 0.395508 0.395508
0.395508 0.395508 0.395508
0.395508 0.395508 0.395508
0.395508 0.395508 0.395508
0.395508 0.395508 0.395508
0.395508 0.395508 0.395508
0.395508 0.395508 0.395508
0.014648 0.014648 0.014648
0.014648 0.014648 0.014648
0.014648 0.014648 0.014648
0.014648 0.014648 0.014648
0.014648 0.014648 0.014648
0.014648 0.014648 0.014648
0.013672 0.013672 0.013672
0.013672 0.013672 0.013672
0.016602 0.016602 0.016602
0.018555 0.018555 0.018555
0.020508 0.020508 0.020508
0.022461 0.022461 0.022461
0.025391 0.025391 0.025391
0.028320 0.028320 0.028320
0.031250 0.031250 0.031250
0.035156 0.035156 0.035156
0.040039 0.040039 0.040039
0.043945 0.043945 0.043945
0.049805 0.049805 0.049805
0.057617 0.057617 0.057617
0.066406 0.066406 0.066406
0.074219 0.074219 0.074219
0.087891 0.087891 0.087891
0.099609 0.099609 0.099609
0.111328 0.111328 0.111328
0.125000 0.125000 0.125000
0.140625 0.140625 0.140625
0.156250 0.156250 0.156250
0.172852 0.172852 0.172852
0.192383 0.192383 0.192383
0.211914 0.211914 0.211914
0.234375 0.234375 0.234375
0.257813 0.257813 0.257813
0.281250 0.281250 0.281250
0.305664 0.305664 0.305664
0.326172 0.326172 0.326172
0.342773 0.342773 0.342773
0.349609 0.349609 0.349609
0.356445 0.356445 0.356445
0.368164 0.368164 0.368164
0.379883 0.379883 0.379883
0.391602 0.391602 0.391602
0.395508 0.395508 0.395508
0.395508 0.395508 0.395508
0.395508 0.395508 0.395508
0.395508 0.395508 0.395508
0.395508 0.395508 0.395508
0.395508 0.395508 0.395508
0.395508 0.395508 0.395508
0.395508 0.395508 0.395508
0.395508 0.395508 0.395508
0.395508 0.395508 0.395508
0.395508 0.395508 0.395508
0.395508 0.395508 0.395508
0.395508 0.395508 0.395508
0.395508 0.395508 0.395508
0.395508 0.395508 0.395508
0.395508 0.395508 0.395508
0.395508 0.395508 0.395508
0.395508 0.395508 0.395508
0.395508 0.395508 0.395508
0.395508 0.395508 0.395508
0.395508 0.395508 0.395508
0.395508 0.395508 0.395508
0.395508 0.395508 0.395508
0.018555 0.018555 0.018555
0.018555 0.018555 0.018555
0.017578 0.017578 0.017578
0.017578 0.017578 0.017578
0.017578 0.017578 0.017578
0.017578 0.017578 0.017578
0.017578 0.017578 0.017578
0.017578 0.017578 0.017578
0.019531 0.019531 0.019531
0.022461 0.022461 0.022461
0.024414 0.024414 0.024414
0.027344 0.027344 0.027344
0.030273 0.030273 0.030273
0.033203 0.033203 0.033203
0.036133 0.036133 0.036133
0.040039 0.040039 0.040039
0.045898 0.045898 0.045898
0.050781 0.050781 0.050781
0.056641 0.056641 0.056641
0.064453 0.064453 0.064453
0.071289 0.071289 0.071289
0.081055 0.081055 0.081055
0.093750 0.093750 0.093750
0.105469 0.105469 0.105469
0.119141 0.119141 0.119141
0.132813 0.132813 0.132813
0.147461 0.147461 0.147461
0.164063 0.164063 0.164063
0.182617 0.182617 0.182617
0.201172 0.201172 0.201172
0.222656 0.222656 0.222656
0.245117 0.245117 0.245117
0.267578 0.267578 0.267578
0.290039 0.290039 0.290039
0.310547 0.310547 0.310547
0.329102 0.329102 0.329102
0.347656 0.347656 0.347656
0.357422 0.357422 0.357422
0.365234 0.365234 0.365234
0.374023 0.374023 0.374023
0.384766 0.384766 0.384766
0.395508 0.395508 0.395508
0.397461 0.397461 0.397461
0.397461 0.397461 0.397461
0.395508 0.395508 0.395508
0.395508 0.395508 0.395508
0.395508 0.395508 0.395508
0.395508 0.395508 0.395508
0.395508 0.395508 0.395508
0.395508 0.395508 0.395508
0.395508 0.395508 0.395508
0.395508 0.395508 0.395508
0.395508 0.395508 0.395508
0.395508 0.395508 0.395508
0.395508 0.395508 0.395508
0.395508 0.395508 0.395508
0.395508 0.395508 0.395508
0.395508 0.395508 0.395508
0.395508 0.395508 0.395508
0.395508 0.395508 0.395508
0.395508 0.395508 0.395508
0.395508 0.395508 0.395508
0.395508 0.395508 0.395508
0.395508 0.395508 0.395508
0.395508 0.395508 0.395508
0.025391 0.025391 0.025391
0.025391 0.025391 0.025391
0.023438 0.023438 0.023438
0.023438 0.023438 0.023438
0.023438 0.023438 0.023438
0.025391 0.025391 0.025391
0.025391 0.025391 0.025391
0.025391 0.025391 0.025391
0.026367 0.026367 0.026367
0.028320 0.028320 0.028320
0.030273 0.030273 0.030273
0.032227 0.032227 0.032227
0.037109 0.037109 0.037109
0.040039 0.040039 0.040039
0.043945 0.043945 0.043945
0.046875 0.046875 0.046875
0.050781 0.050781 0.050781
0.056641 0.056641 0.056641
0.061523 0.061523 0.061523
0.070313 0.070313 0.070313
0.080078 0.080078 0.080078
0.088867 0.088867 0.088867
0.100586 0.100586 0.100586
0.113281 0.113281 0.113281
0.126953 0.126953 0.126953
0.142578 0.142578 0.142578
0.157227 0.157227 0.157227
0.173828 0.173828 0.173828
0.192383 0.192383 0.192383
0.212891 0.212891 0.212891
0.233398 0.233398 0.233398
0.253906 0.253906 0.253906
0.272461 0.272461 0.272461
0.291992 0.291992 0.291992
0.314453 0.314453 0.314453
0.333984 0.333984 0.333984
0.352539 0.352539 0.352539
0.365234 0.365234 0.365234
0.373047 0.373047 0.373047
0.382813 0.382813 0.382813
0.393555 0.393555 0.393555
0.404297 0.404297 0.404297
0.408203 0.408203 0.408203
0.406250 0.406250 0.406250
0.405273 0.405273 0.405273
0.402344 0.402344 0.402344
0.400391 0.400391 0.400391
0.397461 0.397461 0.397461
0.395508 0.395508 0.395508
0.395508 0.395508 0.395508
0.395508 0.395508 0.395508
0.395508 0.395508 0.395508
0.395508 0.395508 0.395508
0.395508 0.395508 0.395508
0.395508 0.395508 0.395508
0.395508 0.395508 0.395508
0.395508 0.395508 0.395508
0.395508 0.395508 0.395508
0.395508 0.395508 0.395508
0.395508 0.395508 0.395508
0.395508 0.395508 0.395508
0.395508 0.395508 0.395508
0.395508 0.395508 0.395508
0.395508 0.395508 0.395508
0.395508 0.395508 0.395508
0.030273 0.030273 0.030273
0.030273 0.030273 0.030273
0.030273 0.030273 0.030273
0.032227 0.032227 0.032227
0.032227 0.032227 0.032227
0.032227 0.032227 0.032227
0.032227 0.032227 0.032227
0.032227 0.032227 0.032227
0.033203 0.033203 0.033203
0.035156 0.035156 0.035156
0.037109 0.037109 0.037109
0.040039 0.040039 0.040039
0.043945 0.043945 0.043945
0.047852 0.047852 0.047852
0.049805 0.049805 0.049805
0.053711 0.053711 0.053711
0.059570 0.059570 0.059570
0.062500 0.062500 0.062500
0.071289 0.071289 0.071289
0.078125 0.078125 0.078125
0.087891 0.087891 0.087891
0.097656 0.097656 0.097656
0.111328 0.111328 0.111328
0.123047 0.123047 0.123047
0.135742 0.135742 0.135742
0.151367 0.151367 0.151367
0.167969 0.167969 0.167969
0.184570 0.184570 0.184570
0.203125 0.203125 0.203125
0.219727 0.219727 0.219727
0.239258 0.239258 0.239258
0.256836 0.256836 0.256836
0.277344 0.277344 0.277344
0.298828 0.298828 0.298828
0.318359 0.318359 0.318359
0.339844 0.339844 0.339844
0.360352 0.360352 0.360352
0.374023 0.374023 0.374023
