lut/FujiFilm/gfx-eterna-55-F-Log2/ASTIA.cube
#title:FLog2_to_ASTIA
#model:GFX ETERNA 55
#FUJIFILM Corporation
#Gamma:F-Log2 to ASTIA
#Gamut:F-Gamut to ITU-R BT.709
#Version:1.00
LUT_3D_SIZE 65
0.000000 0.000000 0.000000
0.000000 0.000000 0.000000
0.000000 0.000000 0.000000
0.000000 0.000000 0.000000
0.000000 0.000000 0.000000
0.000000 0.000000 0.000000
0.000977 0.001313 0.000000
0.010752 0.001091 0.000445
0.016813 0.001624 0.000000
0.028934 0.002019 0.000000
0.037339 0.002494 0.000582
0.048485 0.001576 0.001780
0.058260 0.001692 0.001250
0.070381 0.002421 0.000000
0.086217 0.002733 0.000000
0.102054 0.003045 0.000000
0.118865 0.004333 0.000016
0.142131 0.004145 0.000000
0.171457 0.003817 0.001797
0.195699 0.005276 0.000000
0.228741 0.004867 0.000340
0.258066 0.004876 0.000476
0.297168 0.004999 0.000082
0.337639 0.004425 0.000000
0.369310 0.005048 0.000000
0.408804 0.003161 0.000000
0.447906 0.003285 0.000000
0.492092 0.002293 0.000000
0.546053 0.001079 0.001399
0.602359 0.000145 0.004157
0.650844 0.000376 0.012859
0.702066 0.000000 0.019833
0.756219 0.000308 0.036657
0.814086 0.000312 0.056188
0.869214 0.000030 0.084371
0.921606 0.000000 0.121207
0.980641 0.000735 0.165410
0.999205 0.000230 0.222122
1.000000 0.000000 0.292230
1.000000 0.000000 0.365047
0.999960 0.000628 0.380843
0.998984 0.000000 0.378137
0.998984 0.000000 0.378137
1.000000 0.000000 0.376406
1.000000 0.000299 0.372945
1.000000 0.000299 0.372945
1.000000 0.000299 0.372945
1.000000 0.000299 0.372945
1.000000 0.000299 0.372945
1.000000 0.000299 0.372945
1.000000 0.000299 0.372945
1.000000 0.000299 0.372945
1.000000 0.000299 0.372945
1.000000 0.000299 0.372945
1.000000 0.000299 0.372945
1.000000 0.000299 0.372945
1.000000 0.000299 0.372945
1.000000 0.000299 0.372945
1.000000 0.000299 0.372945
1.000000 0.000299 0.372945
1.000000 0.000299 0.372945
1.000000 0.000299 0.372945
1.000000 0.000299 0.372945
1.000000 0.000299 0.372945
1.000000 0.000299 0.372945
0.000000 0.000000 0.000000
0.000000 0.000000 0.000000
0.000000 0.000000 0.000000
0.000000 0.000000 0.000000
0.000000 0.000000 0.000000
0.000000 0.000000 0.000000
0.000977 0.001313 0.000000
0.010752 0.001091 0.000445
0.016813 0.001624 0.000000
0.028934 0.002019 0.000000
0.034995 0.002215 0.000000
0.044769 0.001994 0.000803
0.058260 0.001692 0.001250
0.068035 0.002141 0.000000
0.083871 0.002117 0.000411
0.102054 0.003045 0.000000
0.118865 0.004333 0.000016
0.138416 0.004226 0.000683
0.167741 0.004235 0.000820
0.191008 0.004382 0.000000
0.222680 0.004670 0.000116
0.254352 0.005294 0.000000
0.294822 0.004719 0.000000
0.331579 0.004228 0.000000
0.364619 0.004154 0.000000
0.402743 0.002965 0.000000
0.451621 0.002867 0.000013
0.506952 0.001292 0.000062
0.560912 0.000079 0.001844
0.614481 0.000000 0.008063
0.666680 0.000016 0.016012
0.719856 0.000470 0.028398
0.775770 0.000000 0.040784
0.830898 0.000255 0.063778
0.884658 0.000000 0.095421
0.943110 0.000000 0.134211
0.999407 0.000617 0.185336
0.999396 0.000185 0.247546
0.999971 0.000388 0.322093
0.999960 0.000628 0.380843
0.999960 0.000628 0.380843
0.998984 0.000000 0.378137
1.000000 0.000000 0.376406
1.000000 0.000299 0.372945
1.000000 0.000299 0.372945
1.000000 0.000299 0.372945
1.000000 0.000299 0.372945
1.000000 0.000299 0.372945
1.000000 0.000299 0.372945
1.000000 0.000299 0.372945
1.000000 0.000299 0.372945
1.000000 0.000299 0.372945
1.000000 0.000299 0.372945
1.000000 0.000299 0.372945
1.000000 0.000299 0.372945
1.000000 0.000299 0.372945
1.000000 0.000299 0.372945
1.000000 0.000299 0.372945
1.000000 0.000299 0.372945
1.000000 0.000299 0.372945
1.000000 0.000299 0.372945
1.000000 0.000299 0.372945
1.000000 0.000299 0.372945
1.000000 0.000299 0.372945
1.000000 0.000299 0.372945
0.000000 0.000000 0.000000
0.000000 0.000000 0.000000
0.000000 0.000000 0.000000
0.000000 0.000000 0.000000
0.000000 0.000000 0.000000
0.000000 0.000000 0.000000
0.000000 0.000000 0.000000
0.010752 0.001091 0.000445
0.016813 0.001624 0.000000
0.024243 0.001124 0.000000
0.034995 0.002215 0.000000
0.044769 0.001994 0.000803
0.054545 0.002109 0.000273
0.068035 0.002141 0.000000
0.083871 0.002117 0.000411
0.094622 0.003545 0.000000
0.116520 0.003717 0.000769
0.138416 0.004226 0.000683
0.157967 0.004457 0.000000
0.191008 0.004382 0.000000
0.218965 0.005088 0.000000
0.254352 0.005294 0.000000
0.291108 0.004802 0.000000
0.326495 0.005007 0.000218
0.369310 0.005048 0.000000
0.413496 0.004057 0.000000
0.466481 0.002202 0.000000
0.519072 0.001686 0.000507
0.575772 0.000000 0.002289
0.627972 0.000000 0.006778
0.681147 0.000689 0.017434
0.737061 0.000000 0.029820
0.791214 0.000171 0.048375
0.851426 0.000000 0.072343
0.904792 0.000191 0.110157
0.961876 0.000000 0.150676
0.999990 0.000000 0.208055
0.999588 0.000141 0.272972
1.000000 0.000343 0.347520
0.999960 0.000628 0.380843
0.998984 0.000000 0.378137
0.998984 0.000000 0.378137
1.000000 0.000000 0.376406
1.000000 0.000299 0.372945
1.000000 0.000299 0.372945
1.000000 0.000299 0.372945
1.000000 0.000299 0.372945
1.000000 0.000299 0.372945
1.000000 0.000299 0.372945
1.000000 0.000299 0.372945
1.000000 0.000299 0.372945
1.000000 0.000299 0.372945
1.000000 0.000299 0.372945
1.000000 0.000299 0.372945
1.000000 0.000299 0.372945
1.000000 0.000299 0.372945
1.000000 0.000299 0.372945
1.000000 0.000299 0.372945
1.000000 0.000299 0.372945
1.000000 0.000299 0.372945
1.000000 0.000299 0.372945
1.000000 0.000299 0.372945
1.000000 0.000299 0.372945
1.000000 0.000299 0.372945
1.000000 0.000299 0.372945
0.000000 0.000000 0.000000
0.000000 0.000000 0.000000
0.000000 0.000000 0.000000
0.000000 0.000000 0.000000
0.000000 0.000000 0.000000
0.000000 0.000000 0.000000
0.000000 0.000000 0.000000
0.006061 0.000197 0.000222
0.016813 0.001624 0.000000
0.024243 0.001124 0.000000
0.030303 0.001322 0.000000
0.042424 0.001715 0.000000
0.054545 0.002109 0.000273
0.065297 0.002864 0.002449
0.078788 0.003233 0.000000
0.094622 0.003545 0.000000
0.116520 0.003717 0.000769
0.134702 0.004309 0.001437
0.157967 0.004457 0.000000
0.187293 0.004129 0.001488
0.215251 0.005171 0.000000
0.249660 0.004399 0.000000
0.291108 0.004802 0.000000
0.337639 0.004425 0.000000
0.374395 0.003933 0.000047
0.424641 0.003473 0.000000
0.475863 0.003655 0.000902
0.532562 0.001718 0.000000
0.582810 0.000251 0.003488
0.641068 0.000261 0.013389
0.696006 0.000000 0.017880
0.751528 0.000000 0.034703
0.809395 0.000000 0.055966
0.864523 0.000000 0.084148
0.921606 0.000000 0.119477
0.982010 0.000038 0.165410
1.000000 0.000198 0.228288
0.999780 0.000000 0.300129
1.000000 0.000000 0.376406
0.999960 0.000628 0.380843
0.998984 0.000000 0.378137
1.000000 0.000000 0.376406
1.000000 0.000000 0.376406
1.000000 0.000299 0.372945
1.000000 0.000299 0.372945
1.000000 0.000299 0.372945
1.000000 0.000299 0.372945
1.000000 0.000299 0.372945
1.000000 0.000299 0.372945
1.000000 0.000299 0.372945
1.000000 0.000299 0.372945
1.000000 0.000299 0.372945
1.000000 0.000299 0.372945
1.000000 0.000299 0.372945
1.000000 0.000299 0.372945
1.000000 0.000299 0.372945
1.000000 0.000299 0.372945
1.000000 0.000299 0.372945
1.000000 0.000299 0.372945
1.000000 0.000299 0.372945
1.000000 0.000299 0.372945
1.000000 0.000299 0.372945
1.000000 0.000299 0.372945
1.000000 0.000299 0.372945
1.000000 0.000299 0.372945
0.000000 0.000000 0.000000
0.000000 0.000000 0.000000
0.000000 0.000000 0.000000
0.000000 0.000000 0.000000
0.000000 0.000000 0.000000
0.000000 0.000000 0.000000
0.000000 0.000000 0.000000
0.006061 0.000197 0.000222
0.014467 0.001009 0.000000
0.024243 0.001124 0.000000
0.030303 0.001322 0.000000
0.042424 0.001715 0.000000
0.050830 0.002528 0.000000
0.065297 0.002864 0.002449
0.078788 0.003233 0.000000
0.093254 0.003570 0.002586
0.111829 0.002823 0.000547
0.133725 0.003332 0.000460
0.155621 0.003841 0.000374
0.183578 0.004547 0.000511
0.215251 0.005171 0.000000
0.254352 0.005294 0.000000
0.297168 0.004999 0.000082
0.339009 0.003728 0.000000
0.386515 0.004663 0.000000
0.434416 0.003253 0.000320
0.487009 0.003072 0.000371
0.540969 0.002195 0.000422
0.598645 0.000227 0.004910
0.653582 0.000000 0.011129
0.709104 0.000051 0.024492
0.765994 0.000000 0.039585
0.826207 0.000000 0.061825
0.882313 0.000056 0.092715
0.939394 0.000000 0.133234
0.999407 0.000617 0.185336
0.999396 0.000185 0.247546
0.999971 0.000000 0.325556
0.999960 0.000628 0.380843
0.998984 0.000000 0.378137
0.998984 0.000000 0.378137
1.000000 0.000000 0.376406
1.000000 0.000299 0.372945
1.000000 0.000299 0.372945
1.000000 0.000299 0.372945
1.000000 0.000299 0.372945
1.000000 0.000299 0.372945
1.000000 0.000299 0.372945
1.000000 0.000299 0.372945
1.000000 0.000299 0.372945
1.000000 0.000299 0.372945
1.000000 0.000299 0.372945
1.000000 0.000299 0.372945
1.000000 0.000299 0.372945
1.000000 0.000299 0.372945
1.000000 0.000299 0.372945
1.000000 0.000299 0.372945
1.000000 0.000299 0.372945
1.000000 0.000299 0.372945
1.000000 0.000299 0.372945
1.000000 0.000299 0.372945
1.000000 0.000299 0.372945
1.000000 0.000299 0.372945
1.000000 0.000299 0.372945
1.000000 0.000299 0.372945
0.000000 0.000000 0.000000
0.000000 0.000000 0.000000
0.000000 0.000000 0.000000
0.000000 0.000000 0.000000
0.000000 0.000000 0.000000
0.000000 0.000000 0.000000
0.000000 0.000000 0.000000
0.006061 0.000197 0.000222
0.014467 0.001009 0.000000
0.021896 0.000509 0.000000
0.030303 0.001322 0.000000
0.042424 0.001715 0.000000
0.050830 0.002528 0.000000
0.061974 0.001609 0.000496
0.076441 0.002618 0.000187
0.093254 0.003570 0.002586
0.109483 0.002208 0.001301
0.133725 0.003332 0.000460
0.155621 0.003841 0.000374
0.187293 0.004129 0.001488
0.218965 0.005088 0.000000
0.258066 0.004876 0.000476
0.304598 0.004498 0.000305
0.346044 0.005237 0.000000
0.390230 0.004245 0.000000
0.444192 0.003368 0.000000
0.495806 0.002211 0.000000
0.554852 0.000217 0.000000
0.609790 0.000000 0.006110
0.665703 0.000000 0.011574
0.721224 0.000109 0.026669
0.780461 0.000000 0.044468
0.841651 0.000675 0.067685
0.897756 0.000025 0.103766
0.957183 0.000000 0.145262
0.999990 0.000000 0.204595
0.999588 0.000141 0.272972
1.000000 0.000000 0.350980
0.999960 0.000628 0.380843
0.998984 0.000000 0.378137
0.998984 0.000000 0.378137
1.000000 0.000000 0.376406
1.000000 0.000299 0.372945
1.000000 0.000299 0.372945
1.000000 0.000299 0.372945
1.000000 0.000299 0.372945
1.000000 0.000299 0.372945
1.000000 0.000299 0.372945
1.000000 0.000299 0.372945
1.000000 0.000299 0.372945
1.000000 0.000299 0.372945
1.000000 0.000299 0.372945
1.000000 0.000299 0.372945
1.000000 0.000299 0.372945
1.000000 0.000299 0.372945
1.000000 0.000299 0.372945
1.000000 0.000299 0.372945
1.000000 0.000299 0.372945
1.000000 0.000299 0.372945
1.000000 0.000299 0.372945
1.000000 0.000299 0.372945
1.000000 0.000299 0.372945
1.000000 0.000299 0.372945
1.000000 0.000299 0.372945
1.000000 0.000299 0.372945
0.000000 0.000000 0.000000
0.000000 0.000000 0.000000
0.000000 0.000000 0.000000
0.000000 0.000000 0.000000
0.000000 0.000000 0.000000
0.000000 0.000000 0.000000
0.000000 0.000000 0.000000
0.000977 0.001313 0.000000
0.014467 0.001009 0.000000
0.021896 0.000509 0.000000
0.028934 0.002019 0.000000
0.037339 0.002494 0.000582
0.048485 0.001576 0.001780
0.061974 0.001609 0.000496
0.076441 0.002618 0.000187
0.088563 0.003011 0.000633
0.109483 0.002208 0.001301
0.133725 0.003332 0.000460
0.157967 0.004457 0.000000
0.187293 0.004129 0.001488
0.228741 0.004867 0.000340
0.265495 0.004711 0.000000
0.309682 0.003720 0.000000
0.351129 0.004122 0.000133
0.400005 0.004359 0.000000
0.450253 0.003564 0.000013
0.506952 0.001292 0.000062
0.564627 0.000000 0.001089
0.620540 0.000063 0.008285
0.676456 0.000131 0.015481
0.737061 0.000000 0.029820
0.793558 0.000450 0.049351
0.856117 0.000000 0.077757
0.914568 0.000000 0.113087
0.975949 0.000514 0.161727
0.999205 0.000230 0.222122
0.999780 0.000000 0.300129
0.998984 0.000000 0.378137
0.999960 0.000628 0.380843
0.998984 0.000000 0.378137
1.000000 0.000000 0.376406
1.000000 0.000299 0.372945
1.000000 0.000299 0.372945
1.000000 0.000299 0.372945
1.000000 0.000299 0.372945
1.000000 0.000299 0.372945
1.000000 0.000299 0.372945
1.000000 0.000299 0.372945
1.000000 0.000299 0.372945
1.000000 0.000299 0.372945
1.000000 0.000299 0.372945
1.000000 0.000299 0.372945
1.000000 0.000299 0.372945
1.000000 0.000299 0.372945
1.000000 0.000299 0.372945
1.000000 0.000299 0.372945
1.000000 0.000299 0.372945
1.000000 0.000299 0.372945
1.000000 0.000299 0.372945
1.000000 0.000299 0.372945
1.000000 0.000299 0.372945
1.000000 0.000299 0.372945
1.000000 0.000299 0.372945
1.000000 0.000299 0.372945
1.000000 0.000299 0.372945
0.000775 0.007984 0.000000
0.000775 0.007984 0.000000
0.000775 0.007984 0.000000
0.000775 0.007984 0.000000
0.000775 0.007984 0.000000
0.000775 0.007984 0.000000
0.000775 0.007984 0.000000
0.003513 0.006589 0.000000
0.013289 0.006368 0.000892
0.019350 0.006565 0.001113
0.029517 0.005006 0.000000
0.039292 0.005120 0.000000
0.049068 0.004899 0.000273
0.060213 0.004317 0.000000
0.074096 0.002339 0.000000
0.092278 0.002930 0.000000
0.111829 0.002823 0.000547
0.134702 0.004645 0.000000
0.160312 0.004735 0.000598
0.193354 0.004662 0.000000
0.227765 0.003891 0.000000
0.267842 0.004991 0.000000
0.315743 0.003916 0.000000
0.358558 0.003957 0.000000
0.405090 0.003244 0.000184
0.455336 0.002784 0.000000
0.513987 0.002801 0.000000
0.575772 0.000000 0.002289
0.631686 0.000000 0.007754
0.688576 0.000525 0.015927
0.747813 0.000167 0.033726
0.808026 0.000115 0.055966
0.869214 0.000030 0.084371
0.928643 0.000300 0.124136
0.995107 0.000000 0.177214
1.000000 0.000159 0.244086
0.999971 0.000000 0.325556
0.999960 0.000628 0.380843
0.998984 0.000000 0.378137
0.998984 0.000000 0.378137
1.000000 0.000000 0.376406
1.000000 0.000299 0.372945
1.000000 0.000299 0.372945
1.000000 0.000299 0.372945
1.000000 0.000299 0.372945
1.000000 0.000299 0.372945
1.000000 0.000299 0.372945
1.000000 0.000299 0.372945
1.000000 0.000299 0.372945
1.000000 0.000299 0.372945
1.000000 0.000299 0.372945
1.000000 0.000299 0.372945
1.000000 0.000299 0.372945
1.000000 0.000299 0.372945
1.000000 0.000299 0.372945
1.000000 0.000299 0.372945
1.000000 0.000299 0.372945
1.000000 0.000299 0.372945
1.000000 0.000299 0.372945
1.000000 0.000299 0.372945
1.000000 0.000299 0.372945
1.000000 0.000299 0.372945
1.000000 0.000299 0.372945
1.000000 0.000299 0.372945
1.000000 0.000299 0.372945
0.000575 0.014654 0.000136
0.000575 0.014654 0.000136
0.000575 0.014654 0.000136
0.000575 0.014654 0.000136
0.000575 0.014654 0.000136
0.000575 0.014654 0.000136
0.000575 0.014654 0.000136
0.004290 0.014236 0.001113
0.011719 0.013735 0.001337
0.018171 0.012594 0.000000
0.026579 0.013070 0.000051
0.038115 0.010478 0.000273
0.046522 0.011290 0.000000
0.060405 0.009313 0.000000
0.075848 0.011299 0.000000
0.096184 0.007508 0.000324
0.114759 0.006425 0.000016
0.136261 0.008944 0.000000
0.161481 0.011045 0.000000
0.196284 0.008264 0.000000
0.237540 0.004005 0.000000
0.278986 0.004409 0.000000
0.322779 0.005089 0.000972
0.364619 0.004154 0.000000
0.414472 0.005033 0.000629
0.468826 0.002482 0.000000
0.525133 0.001882 0.000731
0.582810 0.000587 0.001759
0.641462 0.000000 0.008953
0.698352 0.000000 0.018857
0.762280 0.000168 0.038609
0.823862 0.000000 0.060849
0.882313 0.000056 0.092715
0.944087 0.000270 0.135188
1.000000 0.000000 0.194965
0.999981 0.000147 0.263345
0.999186 0.000000 0.344812
0.999960 0.000628 0.380843
0.998984 0.000000 0.378137
0.998984 0.000000 0.378137
1.000000 0.000000 0.376406
1.000000 0.000299 0.372945
1.000000 0.000299 0.372945
1.000000 0.000299 0.372945
1.000000 0.000299 0.372945
1.000000 0.000299 0.372945
1.000000 0.000299 0.372945
1.000000 0.000299 0.372945
1.000000 0.000299 0.372945
1.000000 0.000299 0.372945
1.000000 0.000299 0.372945
1.000000 0.000299 0.372945
1.000000 0.000299 0.372945
1.000000 0.000299 0.372945
1.000000 0.000299 0.372945
1.000000 0.000299 0.372945
1.000000 0.000299 0.372945
1.000000 0.000299 0.372945
1.000000 0.000299 0.372945
1.000000 0.000299 0.372945
1.000000 0.000299 0.372945
1.000000 0.000299 0.372945
1.000000 0.000299 0.372945
1.000000 0.000299 0.372945
1.000000 0.000299 0.372945
0.000000 0.020348 0.000000
0.000000 0.020348 0.000000
0.000000 0.020348 0.000000
0.000000 0.020348 0.000000
0.000000 0.020348 0.000000
0.000000 0.020348 0.000000
0.000000 0.020348 0.000000
0.000373 0.021324 0.000582
0.009172 0.020126 0.000803
0.017578 0.020939 0.000273
0.026377 0.019741 0.000496
0.036544 0.017846 0.000718
0.046904 0.020947 0.000411
0.060394 0.020980 0.000000
0.078969 0.019561 0.000547
0.093829 0.018560 0.000993
0.114749 0.018092 0.000000
0.141729 0.017485 0.000820
0.171448 0.015820 0.000000
0.198821 0.013540 0.000000
0.240660 0.012269 0.000000
0.282892 0.008987 0.000000
0.325709 0.008691 0.000442
0.375371 0.005245 0.000000
0.421902 0.004532 0.000851
0.477233 0.003293 0.000000
0.536277 0.001300 0.000200
0.592583 0.000702 0.001227
0.653582 0.000000 0.009398
0.712818 0.000304 0.022008
0.772056 0.000283 0.038079
0.834613 0.000000 0.066484
0.897756 0.000025 0.103766
0.959529 0.000000 0.149699
0.999598 0.000236 0.212492
1.000000 0.000438 0.287038
0.999377 0.000000 0.370239
0.999960 0.000628 0.380843
0.998984 0.000000 0.378137
0.998984 0.000000 0.378137
1.000000 0.000000 0.376406
1.000000 0.000299 0.372945
1.000000 0.000299 0.372945
1.000000 0.000299 0.372945
1.000000 0.000299 0.372945
1.000000 0.000299 0.372945
1.000000 0.000299 0.372945
1.000000 0.000299 0.372945
1.000000 0.000299 0.372945
1.000000 0.000299 0.372945
1.000000 0.000299 0.372945
1.000000 0.000299 0.372945
1.000000 0.000299 0.372945
1.000000 0.000299 0.372945
1.000000 0.000299 0.372945
1.000000 0.000299 0.372945
1.000000 0.000299 0.372945
1.000000 0.000299 0.372945
1.000000 0.000299 0.372945
1.000000 0.000299 0.372945
1.000000 0.000299 0.372945
1.000000 0.000299 0.372945
1.000000 0.000299 0.372945
1.000000 0.000299 0.372945
1.000000 0.000299 0.372945
0.000172 0.028332 0.000000
0.000172 0.028332 0.000000
0.000172 0.028332 0.000000
0.000172 0.028332 0.000000
0.000172 0.028332 0.000000
0.000172 0.028332 0.000000
0.000000 0.027019 0.000051
0.000000 0.027019 0.000051
0.004863 0.029226 0.000000
0.016008 0.028306 0.000718
0.025784 0.028421 0.000187
0.036928 0.027839 0.000000
0.047095 0.025944 0.000000
0.060585 0.025641 0.000324
0.074076 0.025337 0.000769
0.094996 0.024870 0.000000
0.117870 0.026354 0.000598
0.140158 0.025190 0.000000
0.167138 0.024583 0.000425
0.204287 0.022417 0.000000
0.246128 0.021146 0.000000
0.286990 0.018562 0.000000
0.332153 0.018882 0.000000
0.380837 0.014123 0.000000
0.430893 0.008331 0.000543
0.488377 0.002375 0.000371
0.549768 0.000997 0.000645
0.605097 0.000000 0.000000
0.667072 0.000000 0.008114
0.724941 0.000363 0.024183
0.787890 0.000000 0.041230
0.850450 0.000000 0.066175
0.912223 0.000026 0.108649
0.977319 0.000152 0.159996
0.999205 0.000000 0.223851
1.000000 0.000438 0.287038
0.999770 0.000337 0.357149
0.999960 0.000628 0.380843
0.998984 0.000000 0.378137
0.998984 0.000000 0.378137
1.000000 0.000000 0.376406
1.000000 0.000000 0.376406
1.000000 0.000299 0.372945
1.000000 0.000299 0.372945
1.000000 0.000299 0.372945
1.000000 0.000299 0.372945
1.000000 0.000299 0.372945
1.000000 0.000299 0.372945
1.000000 0.000299 0.372945
1.000000 0.000299 0.372945
1.000000 0.000299 0.372945
1.000000 0.000299 0.372945
1.000000 0.000299 0.372945
1.000000 0.000299 0.372945
1.000000 0.000299 0.372945
1.000000 0.000299 0.372945
1.000000 0.000299 0.372945
1.000000 0.000299 0.372945
1.000000 0.000299 0.372945
1.000000 0.000299 0.372945
1.000000 0.000299 0.372945
1.000000 0.000299 0.372945
1.000000 0.000299 0.372945
1.000000 0.000299 0.372945
1.000000 0.000299 0.372945
0.000555 0.037988 0.000000
0.000555 0.037988 0.000000
0.000000 0.034025 0.000000
0.000000 0.034025 0.000000
0.000000 0.034025 0.000000
0.000000 0.034025 0.000000
0.000000 0.034025 0.000000
0.000000 0.034025 0.000000
0.008769 0.033804 0.000000
0.013069 0.036708 0.000000
0.025189 0.037103 0.000000
0.035358 0.035207 0.000102
0.047478 0.035601 0.000547
0.057646 0.034042 0.000000
0.074852 0.033656 0.000000
0.095772 0.032853 0.000000
0.116299 0.034060 0.000000
0.144256 0.034765 0.000000
0.175344 0.032065 0.000340
0.209754 0.031295 0.000000
0.250225 0.030720 0.000000
0.294802 0.027718 0.000663
0.340358 0.026365 0.000000
0.388650 0.023280 0.000098
0.442813 0.015732 0.000000
0.496775 0.014854 0.000000
0.553674 0.005911 0.000000
0.614873 0.000000 0.000164
0.675479 0.000162 0.009313
0.737454 0.000000 0.020191
0.798643 0.000679 0.043407
0.863547 0.000513 0.071058
0.926690 0.000000 0.115261
0.981033 0.000405 0.157511
0.999598 0.000236 0.212492
0.999588 0.000000 0.276434
0.999186 0.000039 0.343083
1.000000 0.000000 0.376406
1.000000 0.000000 0.376406
1.000000 0.000000 0.376406
1.000000 0.000299 0.372945
1.000000 0.000299 0.372945
1.000000 0.000299 0.372945
1.000000 0.000299 0.372945
1.000000 0.000299 0.372945
1.000000 0.000299 0.372945
1.000000 0.000299 0.372945
1.000000 0.000299 0.372945
1.000000 0.000299 0.372945
1.000000 0.000299 0.372945
1.000000 0.000299 0.372945
1.000000 0.000299 0.372945
1.000000 0.000299 0.372945
1.000000 0.000299 0.372945
1.000000 0.000299 0.372945
1.000000 0.000299 0.372945
1.000000 0.000299 0.372945
1.000000 0.000299 0.372945
1.000000 0.000299 0.372945
1.000000 0.000299 0.372945
1.000000 0.000299 0.372945
1.000000 0.000299 0.372945
1.000000 0.000299 0.372945
1.000000 0.000299 0.372945
1.000000 0.000299 0.372945
0.000000 0.046669 0.000000
0.000000 0.046669 0.000000
0.000000 0.041672 0.000187
0.000000 0.041672 0.000187
0.000000 0.041672 0.000187
0.000000 0.046669 0.000000
0.000000 0.046669 0.000000
0.000000 0.046669 0.000000
0.003676 0.046250 0.000633
0.012475 0.045052 0.000854
0.021273 0.044192 0.000000
0.033786 0.042911 0.000000
0.045124 0.046653 0.001215
0.058614 0.046686 0.000000
0.076210 0.044290 0.000374
0.095762 0.044520 0.000000
0.120396 0.043633 0.000000
0.149724 0.043642 0.000000
0.174357 0.042420 0.001007
0.208376 0.043659 0.000000
0.254323 0.040295 0.000000
0.295186 0.037712 0.000000
0.344455 0.035939 0.000000
0.392748 0.032855 0.000013
0.448864 0.027596 0.000000
0.505564 0.025324 0.000000
0.564809 0.016996 0.000000
0.623662 0.010006 0.000302
0.686623 0.000253 0.005321
0.747228 0.000000 0.021391
0.811156 0.000000 0.042875
0.866285 0.000000 0.069329
0.917306 0.000000 0.104434
0.973019 0.000000 0.148413
0.999013 0.000000 0.198426
0.999981 0.000483 0.261614
0.999971 0.000000 0.327285
1.000000 0.000299 0.372945
1.000000 0.000299 0.372945
1.000000 0.000299 0.372945
0.999377 0.000000 0.370239
0.999377 0.000000 0.370239
0.999377 0.000000 0.370239
0.999377 0.000000 0.370239
0.999377 0.000000 0.370239
1.000000 0.000299 0.372945
1.000000 0.000299 0.372945
1.000000 0.000299 0.372945
1.000000 0.000299 0.372945
1.000000 0.000299 0.372945
1.000000 0.000299 0.372945
1.000000 0.000299 0.372945
1.000000 0.000299 0.372945
1.000000 0.000299 0.372945
1.000000 0.000299 0.372945
1.000000 0.000299 0.372945
1.000000 0.000299 0.372945
1.000000 0.000299 0.372945
1.000000 0.000299 0.372945
1.000000 0.000299 0.372945
1.000000 0.000299 0.372945
1.000000 0.000299 0.372945
1.000000 0.000299 0.372945
1.000000 0.000299 0.372945
1.000000 0.000299 0.372945
0.000000 0.053339 0.000102
0.000000 0.053339 0.000102
0.000000 0.053339 0.000102
0.000000 0.058336 0.000000
0.000000 0.058336 0.000000
0.000000 0.058336 0.000000
0.000000 0.058336 0.000000
0.000000 0.058336 0.000000
0.000000 0.057023 0.000324
0.012465 0.057056 0.000000
0.021265 0.055859 0.000000
0.029670 0.056334 0.000460
0.044137 0.057344 0.000153
0.057627 0.057376 0.000000
0.072486 0.056376 0.000000
0.092037 0.056269 0.000000
0.121363 0.056278 0.000116
0.143652 0.054776 0.000785
0.178062 0.054006 0.000167
0.208758 0.053316 0.000305
0.254313 0.051626 0.000887
0.303975 0.048181 0.000000
0.350506 0.047804 0.000000
0.402513 0.044637 0.000000
0.454915 0.039460 0.000000
0.515721 0.035096 0.000027
0.575159 0.031429 0.000078
0.635774 0.022403 0.000000
0.696388 0.012370 0.002973
0.750943 0.000796 0.013716
0.805096 0.000546 0.035730
0.859249 0.000000 0.059477
0.911638 0.000065 0.092851
0.965006 0.000000 0.135855
0.999407 0.000281 0.187067
0.999396 0.000521 0.245817
0.999386 0.000000 0.311488
0.999377 0.000330 0.366776
