lut/FujiFilm/gfx-eterna-55-F-Log2/CLASSIC-CHROME.cube
#title:FLog2_to_CLASSIC-CHROME
#model:GFX ETERNA 55
#FUJIFILM Corporation
#Gamma:F-Log2 to CLASSIC CHROME
#Gamut:F-Gamut to ITU-R BT.709
#Version:1.00
LUT_3D_SIZE 65
0.000000 0.000000 0.000000
0.000000 0.000000 0.000000
0.000000 0.000000 0.000000
0.000000 0.000000 0.000000
0.000000 0.000000 0.000000
0.000000 0.000000 0.000000
0.000000 0.000000 0.000000
0.002347 0.000616 0.000000
0.006061 0.000197 0.000222
0.013490 0.000000 0.000445
0.020528 0.001206 0.000000
0.030303 0.001322 0.000000
0.040077 0.001100 0.000582
0.052200 0.001494 0.001028
0.066666 0.002166 0.002449
0.079180 0.000887 0.001918
0.097362 0.001477 0.002586
0.116912 0.001372 0.003254
0.142524 0.001462 0.004144
0.162074 0.001356 0.004812
0.188662 0.002759 0.004950
0.220333 0.003047 0.006063
0.254352 0.003278 0.009882
0.287393 0.002867 0.010996
0.326102 0.004330 0.013309
0.367549 0.004395 0.015621
0.403912 0.005578 0.016958
0.452397 0.006481 0.022199
0.509680 0.006187 0.027664
0.567547 0.008879 0.033352
0.627760 0.010844 0.045207
0.680936 0.012305 0.052403
0.737434 0.014015 0.066742
0.789039 0.021166 0.083035
0.835954 0.027084 0.100837
0.879737 0.035065 0.124806
0.922736 0.046392 0.150727
0.966316 0.059363 0.183794
0.973727 0.073795 0.227106
0.970968 0.090458 0.268465
0.971160 0.093774 0.276585
0.969982 0.099469 0.276054
0.969782 0.106475 0.274770
0.970949 0.113120 0.271753
0.969772 0.118814 0.271222
0.969772 0.118814 0.271222
0.969772 0.118814 0.271222
0.969772 0.118814 0.271222
0.969772 0.118814 0.271222
0.969772 0.118814 0.271222
0.969772 0.118814 0.271222
0.969772 0.118814 0.271222
0.969772 0.118814 0.271222
0.969772 0.118814 0.271222
0.969772 0.118814 0.271222
0.969772 0.118814 0.271222
0.969772 0.118814 0.271222
0.969772 0.118814 0.271222
0.969772 0.118814 0.271222
0.969772 0.118814 0.271222
0.969772 0.118814 0.271222
0.969772 0.118814 0.271222
0.969772 0.118814 0.271222
0.969772 0.118814 0.271222
0.969772 0.118814 0.271222
0.000000 0.000000 0.000000
0.000000 0.000000 0.000000
0.000000 0.000000 0.000000
0.000000 0.000000 0.000000
0.000000 0.000000 0.000000
0.000000 0.000000 0.000000
0.000000 0.000000 0.000000
0.002347 0.000616 0.000000
0.006061 0.000197 0.000222
0.013490 0.000000 0.000445
0.018181 0.000591 0.000667
0.027957 0.000706 0.000136
0.040077 0.001100 0.000582
0.049853 0.001215 0.000051
0.064321 0.001888 0.001473
0.079180 0.000887 0.001918
0.097362 0.001477 0.002586
0.113197 0.001790 0.002277
0.138808 0.001881 0.003168
0.158359 0.001774 0.003835
0.186316 0.002144 0.005703
0.216619 0.003129 0.006816
0.250637 0.003696 0.008905
0.285047 0.002589 0.010020
0.323756 0.004050 0.012332
0.360511 0.003222 0.014421
0.409973 0.005774 0.017180
0.465888 0.006178 0.022645
0.522777 0.007894 0.027357
0.585729 0.009134 0.035750
0.643597 0.010819 0.046630
0.697748 0.012922 0.056531
0.753854 0.016641 0.070118
0.805852 0.021445 0.088894
0.850611 0.031410 0.108649
0.895763 0.038357 0.134347
0.938369 0.051023 0.162977
0.973152 0.064855 0.197551
0.971763 0.080148 0.242371
0.971554 0.091429 0.279070
0.972137 0.095087 0.275833
0.969197 0.103489 0.274547
0.971735 0.109100 0.273261
0.969772 0.118814 0.271222
0.969772 0.118814 0.271222
0.969772 0.118814 0.271222
0.969772 0.118814 0.271222
0.969772 0.118814 0.271222
0.969772 0.118814 0.271222
0.969772 0.118814 0.271222
0.969772 0.118814 0.271222
0.969772 0.118814 0.271222
0.969772 0.118814 0.271222
0.969772 0.118814 0.271222
0.969772 0.118814 0.271222
0.969772 0.118814 0.271222
0.969772 0.118814 0.271222
0.969772 0.118814 0.271222
0.969772 0.118814 0.271222
0.969772 0.118814 0.271222
0.969772 0.118814 0.271222
0.969772 0.118814 0.271222
0.969772 0.118814 0.271222
0.969772 0.118814 0.271222
0.969772 0.118814 0.271222
0.000000 0.000000 0.000000
0.000000 0.000000 0.000000
0.000000 0.000000 0.000000
0.000000 0.000000 0.000000
0.000000 0.000000 0.000000
0.000000 0.000000 0.000000
0.000000 0.000000 0.000000
0.002347 0.000616 0.000000
0.006061 0.000197 0.000222
0.012120 0.000394 0.000445
0.018181 0.000591 0.000667
0.027957 0.000706 0.000136
0.037733 0.000484 0.001337
0.049853 0.001215 0.000051
0.064321 0.001888 0.001473
0.076441 0.002282 0.001918
0.093646 0.001560 0.003341
0.113197 0.001790 0.002277
0.131379 0.002045 0.004676
0.158359 0.001774 0.003835
0.184947 0.002841 0.005703
0.216619 0.003129 0.006816
0.248290 0.003080 0.009660
0.282309 0.003648 0.011750
0.326102 0.004330 0.013309
0.372240 0.005290 0.015843
0.424440 0.006448 0.018602
0.478008 0.006236 0.024819
0.540959 0.008149 0.029753
0.597458 0.011202 0.037171
0.655323 0.012887 0.048051
0.713192 0.014236 0.060660
0.770665 0.017258 0.074245
0.819534 0.025130 0.094001
0.866055 0.032052 0.116238
0.910422 0.042683 0.142160
0.951659 0.055036 0.175981
0.974905 0.070789 0.213793
0.971170 0.085468 0.259367
0.971160 0.093438 0.278316
0.969005 0.098492 0.275077
0.970174 0.104802 0.273794
0.971342 0.111111 0.272508
0.969772 0.118814 0.271222
0.969772 0.118814 0.271222
0.969772 0.118814 0.271222
0.969772 0.118814 0.271222
0.969772 0.118814 0.271222
0.969772 0.118814 0.271222
0.969772 0.118814 0.271222
0.969772 0.118814 0.271222
0.969772 0.118814 0.271222
0.969772 0.118814 0.271222
0.969772 0.118814 0.271222
0.969772 0.118814 0.271222
0.969772 0.118814 0.271222
0.969772 0.118814 0.271222
0.969772 0.118814 0.271222
0.969772 0.118814 0.271222
0.969772 0.118814 0.271222
0.969772 0.118814 0.271222
0.969772 0.118814 0.271222
0.969772 0.118814 0.271222
0.969772 0.118814 0.271222
0.969772 0.118814 0.271222
0.000000 0.000000 0.000000
0.000000 0.000000 0.000000
0.000000 0.000000 0.000000
0.000000 0.000000 0.000000
0.000000 0.000000 0.000000
0.000000 0.000000 0.000000
0.000000 0.000000 0.000000
0.002347 0.000616 0.000000
0.006061 0.000197 0.000222
0.012120 0.000394 0.000445
0.015837 0.000312 0.000000
0.024243 0.001124 0.000000
0.037733 0.000484 0.001337
0.047508 0.000599 0.000803
0.059629 0.000994 0.001250
0.076441 0.002282 0.001918
0.093646 0.001560 0.003341
0.110853 0.001175 0.003032
0.131379 0.002045 0.004676
0.156014 0.001160 0.004590
0.180256 0.001947 0.005481
0.214274 0.002849 0.005839
0.248290 0.003080 0.009660
0.287393 0.002867 0.010996
0.333532 0.003828 0.013532
0.382016 0.005405 0.015312
0.434215 0.005889 0.021531
0.491498 0.005932 0.025265
0.550735 0.007928 0.030954
0.613293 0.010842 0.040324
0.671160 0.012526 0.051203
0.729028 0.013874 0.063812
0.785324 0.021919 0.080329
0.832238 0.027503 0.099860
0.879737 0.035065 0.124806
0.922736 0.046392 0.150727
0.969639 0.060282 0.187476
0.973333 0.075133 0.229812
0.971160 0.094110 0.274856
0.971160 0.093774 0.276585
0.970567 0.102455 0.276278
0.970759 0.108124 0.272285
0.970557 0.114795 0.272730
0.969772 0.118814 0.271222
0.969772 0.118814 0.271222
0.969772 0.118814 0.271222
0.969772 0.118814 0.271222
0.969772 0.118814 0.271222
0.969772 0.118814 0.271222
0.969772 0.118814 0.271222
0.969772 0.118814 0.271222
0.969772 0.118814 0.271222
0.969772 0.118814 0.271222
0.969772 0.118814 0.271222
0.969772 0.118814 0.271222
0.969772 0.118814 0.271222
0.969772 0.118814 0.271222
0.969772 0.118814 0.271222
0.969772 0.118814 0.271222
0.969772 0.118814 0.271222
0.969772 0.118814 0.271222
0.969772 0.118814 0.271222
0.969772 0.118814 0.271222
0.969772 0.118814 0.271222
0.969772 0.118814 0.271222
0.000000 0.000000 0.000000
0.000000 0.000000 0.000000
0.000000 0.000000 0.000000
0.000000 0.000000 0.000000
0.000000 0.000000 0.000000
0.000000 0.000000 0.000000
0.000000 0.000000 0.000000
0.002347 0.000616 0.000000
0.004691 0.000895 0.000222
0.012120 0.000394 0.000445
0.015837 0.000312 0.000000
0.024243 0.001124 0.000000
0.034018 0.000902 0.000360
0.047508 0.000599 0.000803
0.059629 0.000994 0.001250
0.074096 0.001667 0.002672
0.089931 0.001978 0.002364
0.107136 0.001593 0.002055
0.129034 0.001765 0.003699
0.152298 0.001241 0.005343
0.180256 0.001947 0.005481
0.216619 0.003129 0.006816
0.254352 0.003278 0.009882
0.294822 0.002367 0.011218
0.345653 0.004222 0.013977
0.391791 0.005183 0.016512
0.446336 0.006283 0.021977
0.505965 0.006269 0.028418
0.565201 0.008600 0.032375
0.629130 0.010146 0.045207
0.685627 0.012864 0.054356
0.744078 0.017198 0.067188
0.797446 0.021305 0.085964
0.847682 0.028481 0.105720
0.892049 0.039111 0.131642
0.938369 0.051023 0.162977
0.974128 0.065495 0.200257
0.971763 0.079476 0.245831
0.971554 0.091764 0.277340
0.969005 0.098492 0.275077
0.969197 0.103489 0.274547
0.971342 0.110775 0.274238
0.969772 0.118814 0.271222
0.969772 0.118814 0.271222
0.969772 0.118814 0.271222
0.969772 0.118814 0.271222
0.969772 0.118814 0.271222
0.969772 0.118814 0.271222
0.969772 0.118814 0.271222
0.969772 0.118814 0.271222
0.969772 0.118814 0.271222
0.969772 0.118814 0.271222
0.969772 0.118814 0.271222
0.969772 0.118814 0.271222
0.969772 0.118814 0.271222
0.969772 0.118814 0.271222
0.969772 0.118814 0.271222
0.969772 0.118814 0.271222
0.969772 0.118814 0.271222
0.969772 0.118814 0.271222
0.969772 0.118814 0.271222
0.969772 0.118814 0.271222
0.969772 0.118814 0.271222
0.969772 0.118814 0.271222
0.969772 0.118814 0.271222
0.000000 0.000000 0.000000
0.000000 0.000000 0.000000
0.000000 0.000000 0.000000
0.000000 0.000000 0.000000
0.000000 0.000000 0.000000
0.000000 0.000000 0.000000
0.000000 0.000000 0.000000
0.002347 0.000616 0.000000
0.004691 0.000895 0.000222
0.009776 0.000115 0.000000
0.015837 0.000312 0.000000
0.024243 0.001124 0.000000
0.034018 0.000902 0.000360
0.043793 0.000682 0.001559
0.055914 0.001411 0.000273
0.074096 0.001667 0.002672
0.087587 0.001699 0.001388
0.107136 0.001593 0.002055
0.129034 0.001765 0.003699
0.156014 0.001160 0.004590
0.184947 0.002841 0.005703
0.220333 0.003047 0.006063
0.260413 0.003474 0.010106
0.301860 0.003540 0.012419
0.349367 0.003804 0.014953
0.400197 0.005659 0.017711
0.456112 0.006063 0.023175
0.516717 0.007696 0.027132
0.579668 0.008938 0.035527
0.641250 0.010540 0.045653
0.701070 0.014513 0.056753
0.758545 0.017199 0.072071
0.812889 0.022619 0.090095
0.859995 0.032191 0.114285
0.906707 0.043436 0.139454
0.951659 0.055372 0.174250
0.974905 0.070789 0.213793
0.971170 0.085131 0.261098
0.971160 0.093774 0.276585
0.969982 0.099469 0.276054
0.969782 0.106475 0.274770
0.970557 0.114795 0.272730
0.969772 0.118814 0.271222
0.969772 0.118814 0.271222
0.969772 0.118814 0.271222
0.969772 0.118814 0.271222
0.969772 0.118814 0.271222
0.969772 0.118814 0.271222
0.969772 0.118814 0.271222
0.969772 0.118814 0.271222
0.969772 0.118814 0.271222
0.969772 0.118814 0.271222
0.969772 0.118814 0.271222
0.969772 0.118814 0.271222
0.969772 0.118814 0.271222
0.969772 0.118814 0.271222
0.969772 0.118814 0.271222
0.969772 0.118814 0.271222
0.969772 0.118814 0.271222
0.969772 0.118814 0.271222
0.969772 0.118814 0.271222
0.969772 0.118814 0.271222
0.969772 0.118814 0.271222
0.969772 0.118814 0.271222
0.969772 0.118814 0.271222
0.000000 0.000000 0.000000
0.000000 0.000000 0.000000
0.000000 0.000000 0.000000
0.000000 0.000000 0.000000
0.000000 0.000000 0.000000
0.000000 0.000000 0.000000
0.000000 0.000000 0.000000
0.000000 0.000000 0.000000
0.004691 0.000895 0.000222
0.009776 0.000115 0.000000
0.013490 0.000000 0.000445
0.020528 0.001206 0.000000
0.030303 0.001322 0.000000
0.043793 0.000682 0.001559
0.055914 0.001411 0.000273
0.069404 0.001108 0.000718
0.087587 0.001699 0.001388
0.107136 0.001593 0.002055
0.131379 0.002045 0.004676
0.156014 0.001160 0.004590
0.188662 0.002759 0.004950
0.227765 0.002547 0.006285
0.264127 0.003056 0.011082
0.306944 0.002762 0.011665
0.356797 0.003641 0.013445
0.407626 0.005159 0.017934
0.465888 0.006178 0.022645
0.526493 0.007475 0.028333
0.589444 0.008716 0.036727
0.652979 0.012272 0.048804
0.713192 0.014236 0.060660
0.773012 0.017537 0.075222
0.823248 0.024711 0.094977
0.872699 0.034563 0.120144
0.919019 0.047147 0.148019
0.966316 0.059363 0.183794
0.973727 0.073123 0.230567
0.971160 0.093438 0.278316
0.971160 0.093774 0.276585
0.970567 0.102455 0.276278
0.971342 0.110775 0.274238
0.969772 0.118814 0.271222
0.969772 0.118814 0.271222
0.969772 0.118814 0.271222
0.969772 0.118814 0.271222
0.969772 0.118814 0.271222
0.969772 0.118814 0.271222
0.969772 0.118814 0.271222
0.969772 0.118814 0.271222
0.969772 0.118814 0.271222
0.969772 0.118814 0.271222
0.969772 0.118814 0.271222
0.969772 0.118814 0.271222
0.969772 0.118814 0.271222
0.969772 0.118814 0.271222
0.969772 0.118814 0.271222
0.969772 0.118814 0.271222
0.969772 0.118814 0.271222
0.969772 0.118814 0.271222
0.969772 0.118814 0.271222
0.969772 0.118814 0.271222
0.969772 0.118814 0.271222
0.969772 0.118814 0.271222
0.969772 0.118814 0.271222
0.969772 0.118814 0.271222
0.000583 0.002987 0.000222
0.000583 0.002987 0.000222
0.000583 0.002987 0.000222
0.000583 0.002987 0.000222
0.000583 0.002987 0.000222
0.000583 0.002987 0.000222
0.000583 0.002987 0.000222
0.000583 0.002987 0.000222
0.004300 0.002904 0.000000
0.008014 0.002486 0.000445
0.014073 0.002683 0.000667
0.023849 0.002798 0.000136
0.031279 0.002298 0.000360
0.043400 0.002691 0.000803
0.056891 0.002388 0.001250
0.072727 0.002701 0.000942
0.088563 0.002675 0.002364
0.109483 0.002208 0.001301
0.132355 0.003693 0.002191
0.161682 0.003365 0.004059
0.189638 0.003735 0.005926
0.229718 0.004835 0.006509
0.268818 0.004286 0.009574
0.312611 0.004632 0.012862
0.361488 0.004199 0.015398
0.412318 0.006053 0.018156
0.474294 0.006318 0.025575
0.540959 0.008149 0.029753
0.602541 0.010088 0.038148
0.662755 0.012051 0.050005
0.727658 0.014572 0.063812
0.782979 0.021639 0.079352
0.835954 0.027084 0.100837
0.884036 0.037296 0.127735
0.931333 0.050856 0.156586
0.974522 0.064157 0.197551
0.971763 0.079811 0.244102
0.971554 0.091764 0.277340
0.969005 0.098492 0.275077
0.970174 0.104466 0.275524
0.971342 0.111111 0.272508
0.969772 0.118814 0.271222
0.969772 0.118814 0.271222
0.969772 0.118814 0.271222
0.969772 0.118814 0.271222
0.969772 0.118814 0.271222
0.969772 0.118814 0.271222
0.969772 0.118814 0.271222
0.969772 0.118814 0.271222
0.969772 0.118814 0.271222
0.969772 0.118814 0.271222
0.969772 0.118814 0.271222
0.969772 0.118814 0.271222
0.969772 0.118814 0.271222
0.969772 0.118814 0.271222
0.969772 0.118814 0.271222
0.969772 0.118814 0.271222
0.969772 0.118814 0.271222
0.969772 0.118814 0.271222
0.969772 0.118814 0.271222
0.969772 0.118814 0.271222
0.969772 0.118814 0.271222
0.969772 0.118814 0.271222
0.969772 0.118814 0.271222
0.969772 0.118814 0.271222
0.000192 0.004997 0.000000
0.000192 0.004997 0.000000
0.000192 0.004997 0.000000
0.000192 0.004997 0.000000
0.000192 0.004997 0.000000
0.000192 0.004997 0.000000
0.000192 0.004997 0.000000
0.000192 0.004997 0.000000
0.001560 0.004300 0.000000
0.006253 0.005194 0.000000
0.013682 0.004693 0.000000
0.021111 0.004193 0.000136
0.029517 0.005006 0.000000
0.044377 0.003668 0.001780
0.057867 0.003700 0.000496
0.073703 0.004013 0.000187
0.091884 0.004267 0.002586
0.111042 0.006171 0.002500
0.135285 0.006960 0.003390
0.164612 0.006967 0.003528
0.198629 0.007534 0.005617
0.234015 0.007740 0.005975
0.276833 0.006773 0.010020
0.322971 0.007733 0.012555
0.374193 0.007915 0.014335
0.426393 0.009073 0.017095
0.484652 0.009419 0.025265
0.549949 0.011612 0.031176
0.613293 0.010842 0.040324
0.676828 0.014398 0.052403
0.738411 0.014992 0.067719
0.796076 0.022002 0.085964
0.847682 0.028481 0.105720
0.895763 0.038357 0.134347
0.942275 0.054929 0.166883
0.974320 0.068475 0.210110
0.971170 0.085468 0.259367
0.971160 0.093774 0.276585
0.969982 0.099469 0.276054
0.970174 0.104802 0.273794
0.971342 0.110775 0.274238
0.969772 0.118814 0.271222
0.969772 0.118814 0.271222
0.969772 0.118814 0.271222
0.969772 0.118814 0.271222
0.969772 0.118814 0.271222
0.969772 0.118814 0.271222
0.969772 0.118814 0.271222
0.969772 0.118814 0.271222
0.969772 0.118814 0.271222
0.969772 0.118814 0.271222
0.969772 0.118814 0.271222
0.969772 0.118814 0.271222
0.969772 0.118814 0.271222
0.969772 0.118814 0.271222
0.969772 0.118814 0.271222
0.969772 0.118814 0.271222
0.969772 0.118814 0.271222
0.969772 0.118814 0.271222
0.969772 0.118814 0.271222
0.969772 0.118814 0.271222
0.969772 0.118814 0.271222
0.969772 0.118814 0.271222
0.969772 0.118814 0.271222
0.969772 0.118814 0.271222
0.000775 0.007984 0.000000
0.000775 0.007984 0.000000
0.000775 0.007984 0.000000
0.000775 0.007984 0.000000
0.000775 0.007984 0.000000
0.000775 0.007984 0.000000
0.000775 0.007984 0.000000
0.000775 0.007984 0.000000
0.002145 0.007286 0.000000
0.008206 0.007482 0.000000
0.011921 0.007401 0.000000
0.020326 0.007876 0.000360
0.031078 0.009304 0.000000
0.040854 0.009083 0.000273
0.058059 0.008697 0.000000
0.071157 0.010068 0.001388
0.090707 0.009961 0.002055
0.110258 0.009856 0.002723
0.141929 0.010143 0.003835
0.167933 0.008895 0.002020
0.202928 0.010439 0.005087
0.239683 0.009611 0.007176
0.284453 0.011268 0.009710
0.334307 0.012147 0.011491
0.379469 0.011795 0.014781
0.436751 0.011837 0.018516
0.498334 0.014112 0.025179
0.566370 0.014910 0.031090
0.627558 0.018522 0.040461
0.690117 0.020765 0.053292
0.751308 0.023369 0.067856
0.807020 0.027754 0.087608
0.859602 0.034537 0.111801
0.910030 0.044691 0.141407
0.955957 0.057605 0.177180
0.975097 0.074105 0.221915
0.971945 0.091099 0.271171
0.971160 0.093774 0.276585
0.969005 0.098492 0.275077
0.969197 0.103489 0.274547
0.971342 0.111111 0.272508
0.969772 0.118814 0.271222
0.969772 0.118814 0.271222
0.969772 0.118814 0.271222
0.969772 0.118814 0.271222
0.969772 0.118814 0.271222
0.969772 0.118814 0.271222
0.969772 0.118814 0.271222
0.969772 0.118814 0.271222
0.969772 0.118814 0.271222
0.969772 0.118814 0.271222
0.969772 0.118814 0.271222
0.969772 0.118814 0.271222
0.969772 0.118814 0.271222
0.969772 0.118814 0.271222
0.969772 0.118814 0.271222
0.969772 0.118814 0.271222
0.969772 0.118814 0.271222
0.969772 0.118814 0.271222
0.969772 0.118814 0.271222
0.969772 0.118814 0.271222
0.969772 0.118814 0.271222
0.969772 0.118814 0.271222
0.969772 0.118814 0.271222
0.969772 0.118814 0.271222
0.000000 0.011667 0.000000
0.000000 0.011667 0.000000
0.000000 0.011667 0.000000
0.000000 0.011667 0.000000
0.000000 0.011667 0.000000
0.000000 0.011667 0.000000
0.000000 0.010690 0.000000
0.000000 0.010690 0.000000
0.000000 0.011667 0.000000
0.006051 0.011864 0.000136
0.012112 0.012061 0.000360
0.020518 0.012874 0.000000
0.030294 0.012989 0.000000
0.043784 0.012685 0.000000
0.057274 0.012381 0.000187
0.073110 0.012357 0.001609
0.093637 0.013563 0.001524
0.113187 0.013457 0.002191
0.140168 0.012851 0.003083
0.170471 0.014171 0.002464
0.204489 0.014739 0.004556
0.243589 0.014189 0.007621
0.290704 0.016463 0.009402
0.341928 0.016644 0.011184
0.390411 0.018220 0.012964
0.447695 0.017925 0.018429
0.511623 0.020816 0.024340
0.576920 0.023008 0.030249
0.639872 0.023577 0.042105
0.703407 0.027132 0.054184
0.765179 0.032723 0.068968
0.818739 0.041153 0.090676
0.868582 0.048994 0.116598
0.920379 0.058116 0.147934
0.966308 0.070694 0.185438
0.970787 0.082868 0.222360
0.971554 0.094117 0.265227
0.972137 0.094751 0.277562
0.969005 0.098492 0.275077
0.969197 0.103489 0.274547
0.971342 0.110775 0.274238
0.970557 0.114795 0.272730
0.969772 0.118814 0.271222
0.969772 0.118814 0.271222
0.969772 0.118814 0.271222
0.969772 0.118814 0.271222
0.969772 0.118814 0.271222
0.969772 0.118814 0.271222
0.969772 0.118814 0.271222
0.969772 0.118814 0.271222
0.969772 0.118814 0.271222
0.969772 0.118814 0.271222
0.969772 0.118814 0.271222
0.969772 0.118814 0.271222
0.969772 0.118814 0.271222
0.969772 0.118814 0.271222
0.969772 0.118814 0.271222
0.969772 0.118814 0.271222
0.969772 0.118814 0.271222
0.969772 0.118814 0.271222
0.969772 0.118814 0.271222
0.969772 0.118814 0.271222
0.969772 0.118814 0.271222
0.969772 0.118814 0.271222
0.969772 0.118814 0.271222
0.000000 0.018338 0.000360
0.000000 0.018338 0.000360
0.000000 0.015351 0.000136
0.000000 0.015351 0.000136
0.000000 0.015351 0.000136
0.000000 0.015351 0.000136
0.000000 0.015351 0.000136
0.000000 0.015351 0.000136
0.001552 0.015966 0.000000
0.004873 0.017559 0.000000
0.009957 0.016778 0.000000
0.018363 0.017255 0.000051
0.029509 0.016672 0.000000
0.040259 0.017764 0.000000
0.057465 0.017042 0.001388
0.075646 0.017633 0.002055
0.094805 0.019536 0.001969
0.119047 0.020325 0.002859
0.146027 0.019718 0.003750
0.175354 0.019726 0.003886
0.209371 0.020629 0.004246
0.254533 0.020277 0.007536
0.300279 0.023248 0.009316
0.349157 0.023150 0.010122
0.401355 0.023972 0.014610
0.456877 0.026722 0.017591
0.520220 0.026625 0.023277
0.588447 0.032083 0.030386
0.652376 0.033964 0.041489
0.715518 0.039193 0.054543
0.774945 0.043833 0.071813
0.829481 0.053576 0.092766
0.881670 0.061697 0.119665
0.919584 0.073468 0.148070
0.960236 0.083508 0.178207
0.971564 0.092532 0.213398
0.969197 0.107522 0.253781
0.971342 0.111111 0.272508
0.971342 0.111111 0.272508
0.970949 0.113120 0.271753
0.971141 0.118117 0.271222
0.970355 0.121801 0.271446
0.970355 0.121801 0.271446
0.969379 0.120825 0.270470
0.969772 0.118814 0.271222
0.969772 0.118814 0.271222
0.969772 0.118814 0.271222
0.969772 0.118814 0.271222
0.969772 0.118814 0.271222
0.969772 0.118814 0.271222
0.969772 0.118814 0.271222
0.969772 0.118814 0.271222
0.969772 0.118814 0.271222
0.969772 0.118814 0.271222
0.969772 0.118814 0.271222
0.969772 0.118814 0.271222
0.969772 0.118814 0.271222
0.969772 0.118814 0.271222
0.969772 0.118814 0.271222
0.969772 0.118814 0.271222
0.969772 0.118814 0.271222
0.969772 0.118814 0.271222
0.969772 0.118814 0.271222
0.969772 0.118814 0.271222
0.969772 0.118814 0.271222
0.000000 0.023335 0.000000
0.000000 0.023335 0.000000
0.000373 0.021324 0.000582
0.000373 0.021324 0.000582
0.000373 0.021324 0.000582
0.000000 0.023335 0.000000
0.000000 0.023335 0.000000
0.000000 0.023335 0.000000
0.000000 0.023335 0.000000
0.002326 0.023949 0.000000
0.009756 0.023450 0.000000
0.015817 0.023646 0.000000
0.027546 0.026051 0.000000
0.039666 0.026445 0.000000
0.059217 0.026338 0.000324
0.075053 0.026314 0.001746
0.095972 0.025846 0.000683
0.120215 0.026634 0.001575
0.144849 0.025412 0.003219
0.173391 0.029104 0.003579
0.217184 0.029786 0.005137
0.256285 0.029238 0.008204
0.303793 0.029500 0.010738
0.351886 0.033087 0.011766
0.406823 0.033185 0.012793
0.469381 0.037110 0.016973
0.534677 0.038965 0.024614
0.599582 0.043167 0.029770
0.664486 0.046025 0.041848
0.727629 0.051254 0.054902
0.786272 0.059577 0.072394
0.830448 0.066892 0.090195
0.871492 0.076266 0.114164
0.913906 0.084272 0.141594
0.954167 0.096322 0.170976
0.971554 0.105543 0.206391
0.970557 0.120172 0.245043
0.967809 0.128529 0.269184
0.968201 0.126182 0.271668
0.967809 0.128529 0.269184
0.968393 0.131515 0.269406
0.968001 0.133190 0.270383
0.968977 0.134501 0.269629
0.968393 0.131515 0.269406
0.968393 0.131515 0.269406
0.967809 0.128529 0.269184
0.969964 0.123811 0.270692
0.970355 0.121801 0.271446
0.969772 0.118814 0.271222
0.969772 0.118814 0.271222
0.969772 0.118814 0.271222
0.969772 0.118814 0.271222
0.969772 0.118814 0.271222
0.969772 0.118814 0.271222
0.969772 0.118814 0.271222
0.969772 0.118814 0.271222
0.969772 0.118814 0.271222
0.969772 0.118814 0.271222
0.969772 0.118814 0.271222
0.969772 0.118814 0.271222
0.969772 0.118814 0.271222
0.969772 0.118814 0.271222
0.969772 0.118814 0.271222
0.969772 0.118814 0.271222
0.969772 0.118814 0.271222
0.000000 0.030005 0.000273
0.000000 0.030005 0.000273
0.000000 0.030005 0.000273
0.000757 0.031318 0.000000
0.000757 0.031318 0.000000
0.000757 0.031318 0.000000
0.000757 0.031318 0.000000
0.000757 0.031318 0.000000
0.000757 0.031318 0.000000
0.002125 0.030621 0.000000
0.009162 0.032129 0.000000
0.015224 0.032327 0.000000
0.026950 0.034731 0.000000
0.040441 0.034428 0.000000
0.054907 0.035436 0.000000
0.073090 0.035692 0.001437
0.095379 0.034527 0.000374
0.117275 0.034699 0.002020
0.148162 0.039007 0.001626
0.176119 0.039377 0.003492
0.216197 0.040477 0.004073
0.262729 0.039427 0.007363
0.310821 0.042677 0.010122
0.360675 0.043556 0.011903
0.414242 0.044352 0.012930
0.481493 0.049170 0.017333
0.546396 0.052701 0.025949
0.610325 0.055926 0.030129
0.676205 0.060097 0.041454
0.727227 0.065268 0.052332
0.781178 0.073033 0.067872
0.823008 0.080067 0.084695
0.866791 0.088384 0.106934
0.909789 0.099711 0.132856
0.946727 0.110170 0.162016
0.969782 0.121934 0.195168
0.968785 0.136226 0.235551
