lut/FujiFilm/gfx-eterna-55-F-Log2/CLASSIC-Neg..cube
#title:FLog2_to_CLASSIC-Neg.
#model:GFX ETERNA 55
#FUJIFILM Corporation
#Gamma:F-Log2 to CLASSIC Neg.
#Gamut:F-Gamut to ITU-R BT.709
#Version:1.00
LUT_3D_SIZE 65
0.000000 0.000000 0.000000
0.000000 0.000000 0.000000
0.000000 0.000000 0.000000
0.000000 0.000000 0.000000
0.000000 0.000000 0.000000
0.000000 0.000000 0.000000
0.000000 0.000000 0.000000
0.004691 0.000895 0.000222
0.010752 0.001091 0.000445
0.021896 0.000509 0.000000
0.033625 0.002913 0.000000
0.042030 0.003389 0.000803
0.052783 0.004817 0.000000
0.062558 0.004595 0.000718
0.074680 0.005326 0.000000
0.086801 0.005719 0.000000
0.097552 0.006811 0.000324
0.114366 0.008099 0.000993
0.130200 0.008411 0.000683
0.144667 0.009420 0.000374
0.164219 0.009650 0.000000
0.185723 0.011832 0.000204
0.210941 0.013933 0.000340
0.243589 0.015533 0.000700
0.270178 0.017272 0.000000
0.311232 0.019685 0.000000
0.356002 0.021680 0.000000
0.406440 0.025881 0.000013
0.480143 0.029894 0.000200
0.552477 0.034603 0.000387
0.626180 0.038616 0.000574
0.696167 0.043047 0.000000
0.757750 0.046666 0.000000
0.805842 0.050252 0.000554
0.842206 0.051771 0.000160
0.872116 0.054765 0.000520
0.897726 0.055192 0.000000
0.920992 0.055003 0.000000
0.936042 0.055639 0.016812
0.937210 0.056570 0.043215
0.937210 0.055562 0.048405
0.937210 0.055562 0.048405
0.937210 0.055898 0.046676
0.937210 0.055898 0.046676
0.937210 0.055898 0.046676
0.937210 0.055898 0.046676
0.937210 0.055898 0.046676
0.937210 0.055898 0.046676
0.937210 0.055898 0.046676
0.937210 0.055898 0.046676
0.937210 0.055898 0.046676
0.937210 0.055898 0.046676
0.937210 0.055898 0.046676
0.937210 0.055898 0.046676
0.937210 0.055898 0.046676
0.937210 0.055898 0.046676
0.937210 0.055898 0.046676
0.937210 0.055898 0.046676
0.937210 0.055898 0.046676
0.937210 0.055898 0.046676
0.937210 0.055898 0.046676
0.937210 0.055898 0.046676
0.937210 0.055898 0.046676
0.937210 0.055898 0.046676
0.937210 0.055898 0.046676
0.000000 0.000000 0.000000
0.000000 0.000000 0.000000
0.000000 0.000000 0.000000
0.000000 0.000000 0.000000
0.000000 0.000000 0.000000
0.000000 0.000000 0.000000
0.000000 0.000000 0.000000
0.004691 0.000895 0.000222
0.010752 0.001091 0.000445
0.021896 0.000509 0.000000
0.029910 0.002995 0.000360
0.039686 0.003110 0.000000
0.052783 0.004817 0.000000
0.060213 0.004317 0.000000
0.074680 0.005326 0.000000
0.086801 0.005719 0.000000
0.097552 0.006811 0.000324
0.111042 0.006843 0.000000
0.128832 0.009108 0.000683
0.142323 0.009141 0.000000
0.161481 0.011045 0.000000
0.183376 0.011553 0.000000
0.208597 0.013654 0.000000
0.239875 0.015952 0.000000
0.266464 0.017355 0.000000
0.304196 0.018176 0.000000
0.359325 0.023271 0.000000
0.423251 0.027505 0.000000
0.495980 0.030205 0.000000
0.573980 0.037122 0.000000
0.648076 0.039125 0.000489
0.716695 0.044253 0.000000
0.773587 0.046977 0.000000
0.817963 0.050982 0.000000
0.851981 0.051885 0.000000
0.882283 0.053206 0.000000
0.906134 0.056004 0.000000
0.928030 0.055505 0.004253
0.936627 0.056608 0.027418
0.937210 0.055562 0.048405
0.937210 0.055562 0.048405
0.937210 0.055898 0.046676
0.937210 0.055898 0.046676
0.937210 0.055898 0.046676
0.937210 0.055898 0.046676
0.937210 0.055898 0.046676
0.937210 0.055898 0.046676
0.937210 0.055898 0.046676
0.937210 0.055898 0.046676
0.937210 0.055898 0.046676
0.937210 0.055898 0.046676
0.937210 0.055898 0.046676
0.937210 0.055898 0.046676
0.937210 0.055898 0.046676
0.937210 0.055898 0.046676
0.937210 0.055898 0.046676
0.937210 0.055898 0.046676
0.937210 0.055898 0.046676
0.937210 0.055898 0.046676
0.937210 0.055898 0.046676
0.937210 0.055898 0.046676
0.937210 0.055898 0.046676
0.937210 0.055898 0.046676
0.937210 0.055898 0.046676
0.937210 0.055898 0.046676
0.000000 0.000000 0.000000
0.000000 0.000000 0.000000
0.000000 0.000000 0.000000
0.000000 0.000000 0.000000
0.000000 0.000000 0.000000
0.000000 0.000000 0.000000
0.000000 0.000000 0.000000
0.004691 0.000895 0.000222
0.010752 0.001091 0.000445
0.016813 0.001624 0.000000
0.029910 0.002995 0.000360
0.039686 0.003110 0.000000
0.051806 0.003504 0.000273
0.060213 0.004317 0.000000
0.074680 0.005326 0.000000
0.084455 0.005440 0.000000
0.095208 0.006532 0.000000
0.111042 0.006843 0.000000
0.123165 0.007238 0.000000
0.142323 0.009141 0.000000
0.159134 0.010430 0.000067
0.183376 0.011553 0.000000
0.206250 0.013039 0.000116
0.236554 0.014360 0.000000
0.270178 0.017272 0.000000
0.314947 0.019267 0.000000
0.375160 0.023584 0.000000
0.441826 0.026422 0.000000
0.515138 0.032109 0.000000
0.591185 0.036737 0.000000
0.667234 0.041029 0.000402
0.731162 0.045262 0.000000
0.786684 0.048684 0.000000
0.827739 0.051097 0.000000
0.862734 0.052977 0.000075
0.890691 0.053682 0.000211
0.912193 0.056201 0.000000
0.935066 0.055671 0.010646
0.936234 0.056602 0.037047
0.937210 0.055562 0.048405
0.937210 0.055562 0.048405
0.937210 0.055898 0.046676
0.937210 0.055898 0.046676
0.937210 0.055898 0.046676
0.937210 0.055898 0.046676
0.937210 0.055898 0.046676
0.937210 0.055898 0.046676
0.937210 0.055898 0.046676
0.937210 0.055898 0.046676
0.937210 0.055898 0.046676
0.937210 0.055898 0.046676
0.937210 0.055898 0.046676
0.937210 0.055898 0.046676
0.937210 0.055898 0.046676
0.937210 0.055898 0.046676
0.937210 0.055898 0.046676
0.937210 0.055898 0.046676
0.937210 0.055898 0.046676
0.937210 0.055898 0.046676
0.937210 0.055898 0.046676
0.937210 0.055898 0.046676
0.937210 0.055898 0.046676
0.937210 0.055898 0.046676
0.937210 0.055898 0.046676
0.937210 0.055898 0.046676
0.000000 0.000000 0.000000
0.000000 0.000000 0.000000
0.000000 0.000000 0.000000
0.000000 0.000000 0.000000
0.000000 0.000000 0.000000
0.000000 0.000000 0.000000
0.000000 0.000000 0.000000
0.002347 0.000616 0.000000
0.010752 0.001091 0.000445
0.016813 0.001624 0.000000
0.027564 0.002380 0.001113
0.035971 0.003191 0.000582
0.051806 0.003504 0.000273
0.058844 0.005014 0.000000
0.069989 0.004432 0.000000
0.084455 0.005440 0.000000
0.095208 0.006532 0.000000
0.109674 0.007204 0.000769
0.123165 0.007238 0.000000
0.140953 0.009839 0.000000
0.156789 0.009814 0.000820
0.179662 0.011636 0.000000
0.206250 0.013039 0.000116
0.243589 0.015533 0.000700
0.276237 0.017470 0.000000
0.327068 0.019997 0.000000
0.384544 0.025372 0.000098
0.459615 0.028688 0.000285
0.529604 0.033118 0.000000
0.611713 0.037943 0.000000
0.685416 0.041956 0.000000
0.749345 0.045854 0.000058
0.801151 0.049358 0.000333
0.839860 0.051491 0.000000
0.871139 0.053788 0.000000
0.897726 0.055192 0.000000
0.921969 0.056316 0.000000
0.935651 0.056976 0.019520
0.937210 0.055898 0.046676
0.937210 0.055562 0.048405
0.937210 0.055898 0.046676
0.937210 0.055898 0.046676
0.937210 0.055898 0.046676
0.937210 0.055898 0.046676
0.937210 0.055898 0.046676
0.937210 0.055898 0.046676
0.937210 0.055898 0.046676
0.937210 0.055898 0.046676
0.937210 0.055898 0.046676
0.937210 0.055898 0.046676
0.937210 0.055898 0.046676
0.937210 0.055898 0.046676
0.937210 0.055898 0.046676
0.937210 0.055898 0.046676
0.937210 0.055898 0.046676
0.937210 0.055898 0.046676
0.937210 0.055898 0.046676
0.937210 0.055898 0.046676
0.937210 0.055898 0.046676
0.937210 0.055898 0.046676
0.937210 0.055898 0.046676
0.937210 0.055898 0.046676
0.937210 0.055898 0.046676
0.937210 0.055898 0.046676
0.937210 0.055898 0.046676
0.000000 0.000000 0.000000
0.000000 0.000000 0.000000
0.000000 0.000000 0.000000
0.000000 0.000000 0.000000
0.000000 0.000000 0.000000
0.000000 0.000000 0.000000
0.000000 0.000000 0.000000
0.002347 0.000616 0.000000
0.008406 0.000813 0.000000
0.016813 0.001624 0.000000
0.027564 0.002380 0.001113
0.035971 0.003191 0.000582
0.044377 0.004004 0.000051
0.058844 0.005014 0.000000
0.069989 0.004432 0.000000
0.080741 0.005523 0.000000
0.092861 0.005917 0.000102
0.107328 0.006926 0.000000
0.120427 0.008296 0.001215
0.138608 0.009223 0.000153
0.156789 0.009814 0.000820
0.183376 0.011553 0.000000
0.210941 0.013933 0.000340
0.243589 0.015870 0.000000
0.286990 0.018562 0.000000
0.340167 0.021368 0.000047
0.400379 0.025684 0.000000
0.471737 0.029081 0.000731
0.550130 0.034324 0.000000
0.628527 0.039232 0.000000
0.703598 0.042548 0.000007
0.763811 0.046862 0.000000
0.810926 0.049472 0.000000
0.849635 0.051606 0.000000
0.879938 0.052590 0.000000
0.906134 0.056004 0.000000
0.929006 0.056481 0.005229
0.936627 0.056272 0.029149
0.937210 0.055562 0.048405
0.937210 0.055562 0.048405
0.937210 0.055898 0.046676
0.937210 0.055898 0.046676
0.937210 0.055898 0.046676
0.937210 0.055898 0.046676
0.937210 0.055898 0.046676
0.937210 0.055898 0.046676
0.937210 0.055898 0.046676
0.937210 0.055898 0.046676
0.937210 0.055898 0.046676
0.937210 0.055898 0.046676
0.937210 0.055898 0.046676
0.937210 0.055898 0.046676
0.937210 0.055898 0.046676
0.937210 0.055898 0.046676
0.937210 0.055898 0.046676
0.937210 0.055898 0.046676
0.937210 0.055898 0.046676
0.937210 0.055898 0.046676
0.937210 0.055898 0.046676
0.937210 0.055898 0.046676
0.937210 0.055898 0.046676
0.937210 0.055898 0.046676
0.937210 0.055898 0.046676
0.937210 0.055898 0.046676
0.937210 0.055898 0.046676
0.000000 0.000000 0.000000
0.000000 0.000000 0.000000
0.000000 0.000000 0.000000
0.000000 0.000000 0.000000
0.000000 0.000000 0.000000
0.000000 0.000000 0.000000
0.000000 0.000000 0.000000
0.002347 0.000616 0.000000
0.008406 0.000813 0.000000
0.014467 0.001009 0.000000
0.027564 0.002380 0.001113
0.035971 0.003191 0.000582
0.044377 0.004004 0.000051
0.055129 0.005095 0.000496
0.066274 0.004513 0.000000
0.080741 0.005523 0.000000
0.090516 0.005637 0.000000
0.107328 0.006926 0.000000
0.120427 0.008296 0.001215
0.140953 0.009839 0.000000
0.159134 0.010430 0.000067
0.185723 0.011832 0.000204
0.217002 0.014130 0.000562
0.249650 0.015730 0.000922
0.293051 0.018758 0.000000
0.349942 0.021483 0.000000
0.410154 0.025798 0.000000
0.488549 0.030706 0.000000
0.566944 0.035613 0.000078
0.645338 0.040520 0.000489
0.719041 0.044869 0.000000
0.778278 0.047872 0.000000
0.821678 0.050901 0.000000
0.860387 0.052697 0.000000
0.889321 0.054380 0.000211
0.913563 0.055504 0.000000
0.935066 0.055671 0.010646
0.936234 0.056602 0.037047
0.937210 0.055562 0.048405
0.937210 0.055562 0.048405
0.937210 0.055898 0.046676
0.937210 0.055898 0.046676
0.937210 0.055898 0.046676
0.937210 0.055898 0.046676
0.937210 0.055898 0.046676
0.937210 0.055898 0.046676
0.937210 0.055898 0.046676
0.937210 0.055898 0.046676
0.937210 0.055898 0.046676
0.937210 0.055898 0.046676
0.937210 0.055898 0.046676
0.937210 0.055898 0.046676
0.937210 0.055898 0.046676
0.937210 0.055898 0.046676
0.937210 0.055898 0.046676
0.937210 0.055898 0.046676
0.937210 0.055898 0.046676
0.937210 0.055898 0.046676
0.937210 0.055898 0.046676
0.937210 0.055898 0.046676
0.937210 0.055898 0.046676
0.937210 0.055898 0.046676
0.937210 0.055898 0.046676
0.937210 0.055898 0.046676
0.937210 0.055898 0.046676
0.000000 0.000000 0.000000
0.000000 0.000000 0.000000
0.000000 0.000000 0.000000
0.000000 0.000000 0.000000
0.000000 0.000000 0.000000
0.000000 0.000000 0.000000
0.000000 0.000000 0.000000
0.000000 0.000000 0.000000
0.008406 0.000813 0.000000
0.014467 0.001009 0.000000
0.021896 0.000509 0.000000
0.033625 0.002913 0.000000
0.042030 0.003389 0.000803
0.055129 0.005095 0.000496
0.066274 0.004513 0.000000
0.078394 0.004907 0.000411
0.090516 0.005637 0.000000
0.107328 0.006926 0.000000
0.123165 0.007238 0.000000
0.140953 0.009839 0.000000
0.164219 0.009650 0.000000
0.189438 0.011751 0.000000
0.218371 0.013768 0.000000
0.256688 0.017240 0.000391
0.301457 0.019571 0.000000
0.356978 0.022656 0.000714
0.423251 0.027505 0.000000
0.500671 0.031100 0.000113
0.579065 0.036343 0.000000
0.664889 0.040749 0.000000
0.731162 0.045262 0.000000
0.789028 0.048963 0.000000
0.830084 0.051376 0.000000
0.866448 0.052894 0.000000
0.895382 0.054913 0.000000
0.920992 0.055003 0.000000
0.935651 0.056976 0.019520
0.937210 0.055562 0.048405
0.937210 0.055562 0.048405
0.937210 0.055898 0.046676
0.937210 0.055898 0.046676
0.937210 0.055898 0.046676
0.937210 0.055898 0.046676
0.937210 0.055898 0.046676
0.937210 0.055898 0.046676
0.937210 0.055898 0.046676
0.937210 0.055898 0.046676
0.937210 0.055898 0.046676
0.937210 0.055898 0.046676
0.937210 0.055898 0.046676
0.937210 0.055898 0.046676
0.937210 0.055898 0.046676
0.937210 0.055898 0.046676
0.937210 0.055898 0.046676
0.937210 0.055898 0.046676
0.937210 0.055898 0.046676
0.937210 0.055898 0.046676
0.937210 0.055898 0.046676
0.937210 0.055898 0.046676
0.937210 0.055898 0.046676
0.937210 0.055898 0.046676
0.937210 0.055898 0.046676
0.937210 0.055898 0.046676
0.937210 0.055898 0.046676
0.937210 0.055898 0.046676
0.000000 0.003684 0.000222
0.000000 0.003684 0.000222
0.000000 0.003684 0.000222
0.000000 0.003684 0.000222
0.000000 0.003684 0.000222
0.000000 0.003684 0.000222
0.000000 0.003684 0.000222
0.000583 0.002987 0.000222
0.005276 0.003880 0.000445
0.011729 0.002404 0.000000
0.020135 0.003217 0.000000
0.033232 0.004587 0.000582
0.044377 0.004004 0.000051
0.052783 0.004817 0.000000
0.065881 0.006188 0.000942
0.079371 0.006220 0.000000
0.091493 0.006614 0.000102
0.107328 0.006926 0.000000
0.125118 0.009527 0.000000
0.143299 0.010117 0.000374
0.162850 0.010348 0.000000
0.191783 0.012030 0.000425
0.225408 0.014943 0.000031
0.260403 0.017158 0.000000
0.307518 0.019768 0.000000
0.363039 0.022853 0.000938
0.436742 0.027202 0.000000
0.515138 0.032109 0.000000
0.595877 0.037631 0.000000
0.675642 0.041841 0.000000
0.746998 0.045575 0.000000
0.799781 0.050055 0.000333
0.842206 0.051771 0.000160
0.874854 0.053707 0.000000
0.903787 0.055388 0.000000
0.926660 0.056538 0.002524
0.936627 0.056272 0.029149
0.937210 0.055562 0.048405
0.937210 0.055562 0.048405
0.937210 0.055898 0.046676
0.937210 0.055898 0.046676
0.937210 0.055898 0.046676
0.937210 0.055898 0.046676
0.937210 0.055898 0.046676
0.937210 0.055898 0.046676
0.937210 0.055898 0.046676
0.937210 0.055898 0.046676
0.937210 0.055898 0.046676
0.937210 0.055898 0.046676
0.937210 0.055898 0.046676
0.937210 0.055898 0.046676
0.937210 0.055898 0.046676
0.937210 0.055898 0.046676
0.937210 0.055898 0.046676
0.937210 0.055898 0.046676
0.937210 0.055898 0.046676
0.937210 0.055898 0.046676
0.937210 0.055898 0.046676
0.937210 0.055898 0.046676
0.937210 0.055898 0.046676
0.937210 0.055898 0.046676
0.937210 0.055898 0.046676
0.937210 0.055898 0.046676
0.937210 0.055898 0.046676
0.937210 0.055898 0.046676
0.000000 0.006671 0.000445
0.000000 0.006671 0.000445
0.000000 0.006671 0.000445
0.000000 0.006671 0.000445
0.000000 0.006671 0.000445
0.000000 0.006671 0.000445
0.000000 0.006671 0.000445
0.000000 0.006671 0.000445
0.002145 0.007286 0.000000
0.007229 0.006505 0.000000
0.019350 0.006900 0.000000
0.030102 0.007992 0.000000
0.039878 0.008107 0.000000
0.055712 0.008082 0.000718
0.066465 0.009510 0.000000
0.079955 0.009206 0.000000
0.093446 0.008903 0.000324
0.107520 0.011923 0.000000
0.124333 0.013211 0.000000
0.143882 0.013104 0.000598
0.169495 0.013531 0.000000
0.193344 0.016329 0.000000
0.227754 0.015557 0.000000
0.266464 0.017355 0.000000
0.314555 0.021276 0.000000
0.375160 0.023584 0.000000
0.447495 0.028294 0.000000
0.527258 0.032503 0.000251
0.612690 0.038920 0.000129
0.690107 0.042850 0.000000
0.757750 0.046666 0.000000
0.809556 0.050169 0.000000
0.849635 0.051606 0.000000
0.883259 0.054182 0.000000
0.907502 0.055307 0.000000
0.933698 0.056704 0.008914
0.936234 0.056939 0.035316
0.937210 0.055562 0.048405
0.937210 0.055562 0.048405
0.937210 0.055898 0.046676
0.937210 0.055898 0.046676
0.937210 0.055898 0.046676
0.937210 0.055898 0.046676
0.937210 0.055898 0.046676
0.937210 0.055898 0.046676
0.937210 0.055898 0.046676
0.937210 0.055898 0.046676
0.937210 0.055898 0.046676
0.937210 0.055898 0.046676
0.937210 0.055898 0.046676
0.937210 0.055898 0.046676
0.937210 0.055898 0.046676
0.937210 0.055898 0.046676
0.937210 0.055898 0.046676
0.937210 0.055898 0.046676
0.937210 0.055898 0.046676
0.937210 0.055898 0.046676
0.937210 0.055898 0.046676
0.937210 0.055898 0.046676
0.937210 0.055898 0.046676
0.937210 0.055898 0.046676
0.937210 0.055898 0.046676
0.937210 0.055898 0.046676
0.937210 0.055898 0.046676
0.937210 0.055898 0.046676
0.000000 0.011331 0.001644
0.000000 0.011331 0.001644
0.000000 0.011331 0.001644
0.000000 0.011331 0.001644
0.000000 0.011331 0.001644
0.000000 0.011331 0.001644
0.000000 0.011331 0.001644
0.000000 0.011331 0.001644
0.002337 0.011947 0.000892
0.007419 0.011167 0.000136
0.017195 0.011282 0.000000
0.027947 0.012373 0.000051
0.041045 0.014080 0.000000
0.050820 0.014195 0.000000
0.066264 0.016181 0.000000
0.077409 0.015598 0.000000
0.094221 0.016886 0.000016
0.107711 0.016583 0.000460
0.127263 0.016813 0.000000
0.145444 0.017403 0.000067
0.170078 0.016518 0.000000
0.199012 0.018536 0.000000
0.229899 0.022507 0.000700
0.273691 0.023525 0.000527
0.321200 0.024461 0.000000
0.386497 0.027661 0.000320
0.462545 0.032290 0.000000
0.542701 0.034825 0.000000
0.628527 0.039232 0.000000
0.708290 0.043441 0.000231
0.769871 0.047061 0.000000
0.817963 0.050982 0.000000
0.858041 0.052081 0.000000
0.889321 0.054380 0.000211
0.914540 0.056481 0.000347
0.936042 0.055974 0.015082
0.937210 0.056234 0.044945
0.937210 0.055562 0.048405
0.937210 0.055562 0.048405
0.937210 0.055898 0.046676
0.937210 0.055898 0.046676
0.937210 0.055898 0.046676
0.937210 0.055898 0.046676
0.937210 0.055898 0.046676
0.937210 0.055898 0.046676
0.937210 0.055898 0.046676
0.937210 0.055898 0.046676
0.937210 0.055898 0.046676
0.937210 0.055898 0.046676
0.937210 0.055898 0.046676
0.937210 0.055898 0.046676
0.937210 0.055898 0.046676
0.937210 0.055898 0.046676
0.937210 0.055898 0.046676
0.937210 0.055898 0.046676
0.937210 0.055898 0.046676
0.937210 0.055898 0.046676
0.937210 0.055898 0.046676
0.937210 0.055898 0.046676
0.937210 0.055898 0.046676
0.937210 0.055898 0.046676
0.937210 0.055898 0.046676
0.937210 0.055898 0.046676
0.937210 0.055898 0.046676
0.937210 0.055898 0.046676
0.000000 0.019676 0.003066
0.000000 0.019676 0.003066
0.000000 0.019676 0.003066
0.000000 0.019676 0.003066
0.000000 0.019676 0.003066
0.000000 0.019676 0.003066
0.000000 0.017666 0.003821
0.000000 0.017666 0.003821
0.000000 0.019676 0.003066
0.005458 0.019872 0.003290
0.015232 0.020324 0.001028
0.025007 0.020438 0.000496
0.038498 0.020472 0.000000
0.051988 0.020168 0.000000
0.065087 0.021538 0.001079
0.078576 0.021572 0.000000
0.092650 0.024254 0.000460
0.107118 0.025263 0.000153
0.122953 0.025576 0.000000
0.146612 0.023712 0.000000
0.173199 0.025116 0.000000
0.199787 0.026183 0.000785
0.235759 0.029711 0.000000
0.279551 0.030729 0.000000
0.330774 0.031246 0.000000
0.397439 0.033750 0.000234
0.474858 0.037680 0.000000
0.556966 0.042504 0.000000
0.644553 0.044540 0.000000
0.720994 0.047158 0.000000
0.782969 0.048766 0.000000
0.827739 0.051097 0.000000
0.865078 0.053592 0.000000
0.895382 0.054913 0.000000
0.921969 0.056316 0.000000
0.936042 0.055974 0.015082
0.936234 0.056267 0.038777
0.937210 0.055562 0.048405
0.937210 0.055562 0.048405
0.937210 0.055898 0.046676
0.937210 0.055898 0.046676
0.937210 0.055898 0.046676
0.937210 0.055898 0.046676
0.937210 0.055898 0.046676
0.937210 0.055898 0.046676
0.937210 0.055898 0.046676
0.937210 0.055898 0.046676
0.937210 0.055898 0.046676
0.937210 0.055898 0.046676
0.937210 0.055898 0.046676
0.937210 0.055898 0.046676
0.937210 0.055898 0.046676
0.937210 0.055898 0.046676
0.937210 0.055898 0.046676
0.937210 0.055898 0.046676
0.937210 0.055898 0.046676
0.937210 0.055898 0.046676
0.937210 0.055898 0.046676
0.937210 0.055898 0.046676
0.937210 0.055898 0.046676
0.937210 0.055898 0.046676
0.937210 0.055898 0.046676
0.937210 0.055898 0.046676
0.937210 0.055898 0.046676
0.937210 0.055898 0.046676
0.000000 0.029333 0.003733
0.000000 0.029333 0.003733
0.000000 0.026346 0.003512
0.000000 0.026346 0.003512
0.000000 0.026346 0.003512
0.000000 0.026346 0.003512
0.000000 0.026346 0.003512
0.000000 0.026346 0.003512
0.000565 0.025649 0.003512
0.003495 0.028915 0.004710
0.012294 0.028389 0.001473
0.023044 0.029481 0.001918
0.038881 0.030129 0.000000
0.047680 0.028930 0.000102
0.064491 0.030555 0.000000
0.079352 0.029555 0.000000
0.093034 0.033911 0.001130
0.110238 0.033525 0.000820
0.127051 0.035151 0.000000
0.148947 0.035659 0.000000
0.174951 0.034076 0.000000
0.205254 0.035060 0.000700
0.239856 0.039286 0.000000
0.285018 0.039606 0.000000
0.342301 0.040321 0.000000
0.406228 0.044219 0.000371
0.485409 0.045442 0.000558
0.569863 0.050881 0.000000
0.658818 0.052220 0.000000
0.732915 0.054223 0.000058
0.792543 0.055552 0.000000
0.836729 0.054560 0.000160
0.873485 0.054068 0.000520
0.895382 0.054913 0.000000
0.918646 0.054725 0.000000
0.936042 0.056647 0.011622
0.936234 0.056939 0.035316
0.937210 0.055898 0.046676
0.937210 0.055898 0.046676
0.937210 0.055898 0.046676
0.937210 0.055898 0.046676
0.937210 0.055898 0.046676
0.937210 0.055898 0.046676
0.937210 0.055898 0.046676
0.937210 0.055898 0.046676
0.937210 0.055898 0.046676
0.937210 0.055898 0.046676
0.937210 0.055898 0.046676
0.937210 0.055898 0.046676
0.937210 0.055898 0.046676
0.937210 0.055898 0.046676
0.937210 0.055898 0.046676
0.937210 0.055898 0.046676
0.937210 0.055898 0.046676
0.937210 0.055898 0.046676
0.937210 0.055898 0.046676
0.937210 0.055898 0.046676
0.937210 0.055898 0.046676
0.937210 0.055898 0.046676
0.937210 0.055898 0.046676
0.937210 0.055898 0.046676
0.937210 0.055898 0.046676
0.937210 0.055898 0.046676
0.937210 0.055898 0.046676
0.937210 0.055898 0.046676
0.000162 0.038655 0.006133
0.000162 0.038655 0.006133
0.000000 0.035667 0.005910
0.000000 0.035667 0.005910
0.000000 0.035667 0.005910
0.000162 0.038655 0.006133
0.000162 0.038655 0.006133
0.000162 0.038655 0.006133
0.000162 0.038655 0.006133
0.002508 0.038933 0.007109
0.007593 0.038154 0.006356
0.018343 0.039245 0.006801
0.033786 0.041567 0.005737
0.046885 0.043609 0.003699
0.064090 0.043560 0.001660
0.077187 0.045267 0.001351
0.091070 0.043625 0.000000
0.112967 0.043798 0.000734
0.128802 0.044110 0.000425
0.146592 0.046711 0.000340
0.175526 0.048730 0.000000
0.203875 0.047761 0.000000
0.245323 0.048164 0.000000
0.285985 0.052250 0.000269
0.346983 0.052883 0.000000
0.416970 0.056977 0.000731
0.497519 0.057839 0.000000
0.582367 0.061269 0.000000
0.670930 0.064281 0.000000
0.745026 0.066284 0.000418
0.802309 0.066998 0.000691
0.837695 0.067540 0.000000
0.869176 0.063167 0.000000
0.894203 0.060270 0.000000
0.915123 0.059803 0.000000
0.935066 0.056343 0.007183
0.935257 0.056634 0.030878
0.937210 0.056234 0.044945
0.937210 0.055898 0.046676
0.937210 0.056234 0.044945
0.937210 0.056234 0.044945
0.937210 0.056234 0.044945
0.937210 0.056234 0.044945
0.937210 0.056234 0.044945
0.937210 0.056234 0.044945
0.937210 0.056234 0.044945
0.937210 0.055898 0.046676
0.937210 0.055898 0.046676
0.937210 0.055898 0.046676
0.937210 0.055898 0.046676
0.937210 0.055898 0.046676
0.937210 0.055898 0.046676
0.937210 0.055898 0.046676
0.937210 0.055898 0.046676
0.937210 0.055898 0.046676
0.937210 0.055898 0.046676
0.937210 0.055898 0.046676
0.937210 0.055898 0.046676
0.937210 0.055898 0.046676
0.937210 0.055898 0.046676
0.937210 0.055898 0.046676
0.937210 0.055898 0.046676
0.937210 0.055898 0.046676
0.937210 0.055898 0.046676
0.937210 0.055898 0.046676
0.000545 0.047975 0.008531
0.000545 0.047975 0.008531
0.000545 0.047975 0.008531
0.001129 0.051298 0.007023
0.001129 0.051298 0.007023
0.001129 0.051298 0.007023
0.001129 0.051298 0.007023
0.001129 0.051298 0.007023
0.001129 0.050961 0.008754
0.002498 0.050264 0.008754
0.007189 0.051159 0.008976
0.018335 0.050576 0.008445
0.031038 0.054629 0.005652
0.045898 0.053964 0.004366
0.058995 0.055671 0.004059
0.073856 0.055006 0.002774
0.092037 0.056269 0.000000
0.106896 0.055269 0.000425
0.127032 0.058485 0.000000
0.146582 0.058378 0.000254
0.176886 0.059699 0.000000
0.208557 0.060322 0.000000
0.246873 0.064130 0.000000
0.292036 0.064114 0.000405
0.351271 0.067118 0.000902
0.426736 0.068760 0.000113
0.508453 0.075594 0.000000
0.598385 0.077908 0.000000
0.682256 0.080027 0.000058
0.745600 0.080938 0.000554
0.794085 0.083185 0.000000
0.832602 0.079985 0.000000
0.865643 0.079913 0.000000
0.890670 0.077016 0.000039
0.912375 0.072865 0.000000
0.932711 0.067730 0.006121
0.935449 0.062303 0.026887
