lut/FujiFilm/gfx-eterna-55-F-Log2/ETERNA-BB.cube
#title:FLog2_to_ETERNA-BB
#model:GFX ETERNA 55
#FUJIFILM Corporation
#Gamma:F-Log2 to ETERNA BLEACH BYPASS
#Gamut:F-Gamut to ITU-R BT.709
#Version:1.00
LUT_3D_SIZE 65
0.000000 0.000000 0.000000
0.000000 0.000000 0.000000
0.000000 0.000000 0.000000
0.000000 0.000000 0.000000
0.000000 0.000000 0.000000
0.000000 0.000000 0.000000
0.002347 0.000279 0.000977
0.007038 0.001510 0.000000
0.014073 0.002683 0.000667
0.026196 0.002741 0.002845
0.035578 0.004194 0.005019
0.044960 0.005311 0.008925
0.051021 0.005507 0.009149
0.059036 0.007658 0.011325
0.067441 0.008134 0.012522
0.074479 0.008971 0.015452
0.081516 0.010145 0.016653
0.090899 0.011598 0.018828
0.101650 0.012689 0.019273
0.110449 0.011491 0.019496
0.123738 0.017187 0.023849
0.135860 0.016908 0.027755
0.151303 0.018557 0.030151
0.172806 0.020069 0.034504
0.194894 0.024565 0.039078
0.218745 0.026356 0.044406
0.243963 0.028121 0.046273
0.274266 0.028769 0.049117
0.311021 0.027605 0.052938
0.345432 0.026162 0.055780
0.379449 0.026392 0.059601
0.415027 0.030922 0.062891
0.446890 0.035870 0.065202
0.478170 0.037161 0.070755
0.507888 0.034486 0.075106
0.535060 0.037868 0.080656
0.560854 0.052941 0.089581
0.580979 0.065809 0.099038
0.600328 0.071028 0.107074
0.613607 0.087047 0.118262
0.614583 0.088359 0.117507
0.616728 0.094973 0.120660
0.619267 0.099577 0.124567
0.622779 0.105829 0.125989
0.622971 0.110153 0.128919
0.622971 0.110153 0.128919
0.622971 0.110153 0.128919
0.622971 0.110153 0.128919
0.622971 0.110153 0.128919
0.622971 0.110153 0.128919
0.622971 0.110153 0.128919
0.622971 0.110153 0.128919
0.622971 0.110153 0.128919
0.622971 0.110153 0.128919
0.622971 0.110153 0.128919
0.622971 0.110153 0.128919
0.622971 0.110153 0.128919
0.622971 0.110153 0.128919
0.622971 0.110153 0.128919
0.622971 0.110153 0.128919
0.622971 0.110153 0.128919
0.622971 0.110153 0.128919
0.622971 0.110153 0.128919
0.622971 0.110153 0.128919
0.622971 0.110153 0.128919
0.000000 0.000000 0.000000
0.000000 0.000000 0.000000
0.000000 0.000000 0.000000
0.000000 0.000000 0.000000
0.000000 0.000000 0.000000
0.000000 0.000000 0.000000
0.002347 0.000279 0.000977
0.007038 0.001510 0.000000
0.014073 0.002683 0.000667
0.026196 0.002741 0.002845
0.034209 0.004892 0.005019
0.041639 0.004390 0.005243
0.051021 0.005507 0.009149
0.056689 0.007379 0.010348
0.065096 0.007855 0.011546
0.074479 0.008971 0.015452
0.081516 0.010145 0.016653
0.088553 0.011318 0.017851
0.100674 0.011713 0.018297
0.107711 0.012550 0.021226
0.124131 0.015176 0.024601
0.134490 0.017606 0.027755
0.151303 0.018557 0.030151
0.170461 0.019789 0.033527
0.192549 0.023951 0.039832
0.216399 0.026077 0.043429
0.247677 0.027702 0.047249
0.282672 0.028909 0.052047
0.318058 0.028779 0.054136
0.355207 0.025605 0.058710
0.389808 0.029158 0.061023
0.423433 0.031735 0.062360
0.456666 0.035985 0.064671
0.487362 0.034288 0.069999
0.517272 0.035266 0.080741
0.542681 0.041692 0.083808
0.567499 0.055453 0.093488
0.588993 0.067623 0.102944
0.608141 0.079513 0.111426
0.612630 0.086070 0.117285
0.614583 0.088359 0.117507
0.616337 0.096647 0.121637
0.618873 0.101587 0.123812
0.621018 0.108200 0.126966
0.622971 0.110153 0.128919
0.622971 0.110153 0.128919
0.622971 0.110153 0.128919
0.622971 0.110153 0.128919
0.622971 0.110153 0.128919
0.622971 0.110153 0.128919
0.622971 0.110153 0.128919
0.622971 0.110153 0.128919
0.622971 0.110153 0.128919
0.622971 0.110153 0.128919
0.622971 0.110153 0.128919
0.622971 0.110153 0.128919
0.622971 0.110153 0.128919
0.622971 0.110153 0.128919
0.622971 0.110153 0.128919
0.622971 0.110153 0.128919
0.622971 0.110153 0.128919
0.622971 0.110153 0.128919
0.622971 0.110153 0.128919
0.622971 0.110153 0.128919
0.622971 0.110153 0.128919
0.000000 0.000000 0.000000
0.000000 0.000000 0.000000
0.000000 0.000000 0.000000
0.000000 0.000000 0.000000
0.000000 0.000000 0.000000
0.000000 0.000000 0.000000
0.000000 0.000000 0.000000
0.007038 0.001510 0.000000
0.014073 0.002683 0.000667
0.023849 0.002462 0.001868
0.034209 0.004892 0.005019
0.041639 0.004390 0.005243
0.050045 0.004531 0.008173
0.056689 0.007379 0.010348
0.065096 0.007855 0.011546
0.073502 0.007994 0.014475
0.080539 0.009168 0.015676
0.088553 0.011318 0.017851
0.097352 0.010456 0.016343
0.107711 0.012550 0.021226
0.120023 0.017268 0.024601
0.134490 0.017606 0.027755
0.149933 0.019255 0.030151
0.170461 0.019789 0.033527
0.194894 0.024565 0.039078
0.223828 0.025912 0.041921
0.257061 0.029826 0.045965
0.293816 0.028663 0.049785
0.327834 0.028557 0.055337
0.363613 0.026416 0.058179
0.399192 0.030946 0.061468
0.432424 0.035198 0.063782
0.466442 0.035092 0.069332
0.499482 0.034010 0.073905
0.526071 0.034068 0.080965
0.552255 0.047469 0.088914
0.575511 0.057604 0.095665
0.595244 0.072145 0.106098
0.612832 0.080072 0.113379
0.613607 0.087383 0.116531
0.616145 0.092322 0.118707
0.617313 0.097623 0.122613
0.620826 0.103876 0.124036
0.622971 0.110153 0.128919
0.622971 0.110153 0.128919
0.622971 0.110153 0.128919
0.622971 0.110153 0.128919
0.622971 0.110153 0.128919
0.622971 0.110153 0.128919
0.622971 0.110153 0.128919
0.622971 0.110153 0.128919
0.622971 0.110153 0.128919
0.622971 0.110153 0.128919
0.622971 0.110153 0.128919
0.622971 0.110153 0.128919
0.622971 0.110153 0.128919
0.622971 0.110153 0.128919
0.622971 0.110153 0.128919
0.622971 0.110153 0.128919
0.622971 0.110153 0.128919
0.622971 0.110153 0.128919
0.622971 0.110153 0.128919
0.622971 0.110153 0.128919
0.622971 0.110153 0.128919
0.622971 0.110153 0.128919
0.000000 0.000000 0.000000
0.000000 0.000000 0.000000
0.000000 0.000000 0.000000
0.000000 0.000000 0.000000
0.000000 0.000000 0.000000
0.000000 0.000000 0.000000
0.000000 0.000000 0.000000
0.004691 0.000895 0.000222
0.014073 0.002683 0.000667
0.023849 0.002462 0.001868
0.030493 0.004973 0.005774
0.037924 0.004472 0.005995
0.050045 0.004531 0.008173
0.054736 0.005426 0.008395
0.061381 0.008273 0.010569
0.073502 0.007994 0.014475
0.080539 0.009168 0.015676
0.087577 0.010342 0.016875
0.097352 0.010456 0.016343
0.107711 0.012550 0.021226
0.118463 0.013305 0.023402
0.133513 0.016629 0.026778
0.149933 0.019255 0.030151
0.172806 0.020069 0.034504
0.198217 0.025822 0.041032
0.230866 0.026750 0.044851
0.263121 0.029688 0.047919
0.301247 0.027826 0.051738
0.334287 0.027080 0.054582
0.373782 0.024522 0.058403
0.407598 0.031423 0.062667
0.440829 0.036010 0.063249
0.474847 0.035904 0.068801
0.506520 0.035183 0.075106
0.534669 0.039542 0.081633
0.559878 0.051965 0.088605
0.582347 0.064776 0.100770
0.602865 0.076305 0.107520
0.613607 0.087383 0.116531
0.614583 0.088359 0.117507
0.616728 0.094973 0.120660
0.618873 0.101587 0.123812
0.621018 0.108200 0.126966
0.622971 0.110153 0.128919
0.622971 0.110153 0.128919
0.622971 0.110153 0.128919
0.622971 0.110153 0.128919
0.622971 0.110153 0.128919
0.622971 0.110153 0.128919
0.622971 0.110153 0.128919
0.622971 0.110153 0.128919
0.622971 0.110153 0.128919
0.622971 0.110153 0.128919
0.622971 0.110153 0.128919
0.622971 0.110153 0.128919
0.622971 0.110153 0.128919
0.622971 0.110153 0.128919
0.622971 0.110153 0.128919
0.622971 0.110153 0.128919
0.622971 0.110153 0.128919
0.622971 0.110153 0.128919
0.622971 0.110153 0.128919
0.622971 0.110153 0.128919
0.622971 0.110153 0.128919
0.622971 0.110153 0.128919
0.000000 0.000000 0.000000
0.000000 0.000000 0.000000
0.000000 0.000000 0.000000
0.000000 0.000000 0.000000
0.000000 0.000000 0.000000
0.000000 0.000000 0.000000
0.000000 0.000000 0.000000
0.004691 0.000895 0.000222
0.011729 0.002404 0.000000
0.023849 0.002462 0.001868
0.030493 0.004973 0.005774
0.037924 0.004472 0.005995
0.047699 0.004252 0.007196
0.054736 0.005426 0.008395
0.061381 0.008273 0.010569
0.068418 0.009111 0.013499
0.079170 0.009865 0.015676
0.086207 0.011040 0.016875
0.095982 0.010482 0.019804
0.106735 0.011574 0.020250
0.118463 0.013305 0.023402
0.134490 0.017606 0.027755
0.151303 0.018557 0.030151
0.173782 0.021045 0.035480
0.205647 0.025322 0.041254
0.236926 0.026610 0.046804
0.271528 0.030163 0.049117
0.307306 0.028023 0.051962
0.344455 0.025185 0.054803
0.379449 0.026392 0.059601
0.416004 0.031899 0.063868
0.450214 0.037462 0.065426
0.483647 0.034370 0.070755
0.514343 0.032673 0.076083
0.542290 0.043702 0.083055
0.567499 0.055453 0.093488
0.588993 0.067959 0.101215
0.609509 0.078816 0.111426
0.613607 0.087047 0.118262
0.616145 0.092322 0.118707
0.616337 0.096647 0.121637
0.618873 0.101587 0.123812
0.622971 0.110153 0.128919
0.622971 0.110153 0.128919
0.622971 0.110153 0.128919
0.622971 0.110153 0.128919
0.622971 0.110153 0.128919
0.622971 0.110153 0.128919
0.622971 0.110153 0.128919
0.622971 0.110153 0.128919
0.622971 0.110153 0.128919
0.622971 0.110153 0.128919
0.622971 0.110153 0.128919
0.622971 0.110153 0.128919
0.622971 0.110153 0.128919
0.622971 0.110153 0.128919
0.622971 0.110153 0.128919
0.622971 0.110153 0.128919
0.622971 0.110153 0.128919
0.622971 0.110153 0.128919
0.622971 0.110153 0.128919
0.622971 0.110153 0.128919
0.622971 0.110153 0.128919
0.622971 0.110153 0.128919
0.622971 0.110153 0.128919
0.000000 0.000000 0.000000
0.000000 0.000000 0.000000
0.000000 0.000000 0.000000
0.000000 0.000000 0.000000
0.000000 0.000000 0.000000
0.000000 0.000000 0.000000
0.000000 0.000000 0.000000
0.004691 0.000895 0.000222
0.011729 0.002404 0.000000
0.020135 0.002881 0.000892
0.030493 0.004973 0.005774
0.037924 0.004472 0.005995
0.047699 0.004252 0.007196
0.053368 0.005786 0.010126
0.060012 0.008970 0.010569
0.068418 0.009111 0.013499
0.076824 0.009586 0.014699
0.086207 0.011040 0.016875
0.095982 0.010482 0.019804
0.107711 0.012550 0.021226
0.120023 0.017268 0.024601
0.135860 0.016908 0.027755
0.155994 0.019116 0.032104
0.177498 0.020963 0.034727
0.207992 0.025600 0.042230
0.242986 0.027144 0.045296
0.276611 0.029385 0.048363
0.315320 0.029837 0.055868
0.352862 0.025661 0.056004
0.388831 0.028181 0.060046
0.426362 0.035000 0.063558
0.459012 0.035929 0.067379
0.491660 0.036521 0.072929
0.522355 0.034152 0.081718
0.550887 0.048166 0.088914
0.575511 0.057940 0.093934
0.596614 0.071447 0.106098
0.612832 0.080072 0.113379
0.613607 0.087383 0.116531
0.616728 0.094973 0.120660
0.617897 0.100611 0.122836
0.621018 0.108200 0.126966
0.622971 0.110153 0.128919
0.622971 0.110153 0.128919
0.622971 0.110153 0.128919
0.622971 0.110153 0.128919
0.622971 0.110153 0.128919
0.622971 0.110153 0.128919
0.622971 0.110153 0.128919
0.622971 0.110153 0.128919
0.622971 0.110153 0.128919
0.622971 0.110153 0.128919
0.622971 0.110153 0.128919
0.622971 0.110153 0.128919
0.622971 0.110153 0.128919
0.622971 0.110153 0.128919
0.622971 0.110153 0.128919
0.622971 0.110153 0.128919
0.622971 0.110153 0.128919
0.622971 0.110153 0.128919
0.622971 0.110153 0.128919
0.622971 0.110153 0.128919
0.622971 0.110153 0.128919
0.622971 0.110153 0.128919
0.622971 0.110153 0.128919
0.000000 0.000000 0.000000
0.000000 0.000000 0.000000
0.000000 0.000000 0.000000
0.000000 0.000000 0.000000
0.000000 0.000000 0.000000
0.000000 0.000000 0.000000
0.000000 0.000000 0.000000
0.002347 0.000279 0.000977
0.011729 0.002404 0.000000
0.020135 0.002881 0.000892
0.026196 0.002741 0.002845
0.035578 0.004194 0.005019
0.044960 0.005311 0.008925
0.053368 0.005786 0.010126
0.060012 0.008970 0.010569
0.068418 0.009111 0.013499
0.076824 0.009586 0.014699
0.086207 0.011040 0.016875
0.097352 0.010456 0.016343
0.107711 0.012550 0.021226
0.123738 0.017187 0.023849
0.138205 0.017524 0.027001
0.159709 0.019034 0.031352
0.183558 0.020824 0.036680
0.214052 0.026133 0.040722
0.246701 0.026726 0.046273
0.282672 0.028909 0.052047
0.321773 0.028361 0.055113
0.356577 0.025243 0.056981
0.396846 0.030668 0.060492
0.432424 0.035198 0.063782
0.466442 0.035092 0.069332
0.499482 0.034346 0.072176
0.530954 0.039287 0.084117
0.558508 0.052327 0.090337
0.580979 0.065809 0.099038
0.602282 0.073318 0.107297
0.613607 0.087383 0.116531
0.614583 0.088359 0.117507
0.616337 0.096647 0.121637
0.618873 0.101587 0.123812
0.622971 0.110153 0.128919
0.622971 0.110153 0.128919
0.622971 0.110153 0.128919
0.622971 0.110153 0.128919
0.622971 0.110153 0.128919
0.622971 0.110153 0.128919
0.622971 0.110153 0.128919
0.622971 0.110153 0.128919
0.622971 0.110153 0.128919
0.622971 0.110153 0.128919
0.622971 0.110153 0.128919
0.622971 0.110153 0.128919
0.622971 0.110153 0.128919
0.622971 0.110153 0.128919
0.622971 0.110153 0.128919
0.622971 0.110153 0.128919
0.622971 0.110153 0.128919
0.622971 0.110153 0.128919
0.622971 0.110153 0.128919
0.622971 0.110153 0.128919
0.622971 0.110153 0.128919
0.622971 0.110153 0.128919
0.622971 0.110153 0.128919
0.622971 0.110153 0.128919
0.000000 0.006671 0.000445
0.000000 0.006671 0.000445
0.000000 0.006671 0.000445
0.000000 0.006671 0.000445
0.000000 0.006671 0.000445
0.000000 0.006671 0.000445
0.000000 0.006671 0.000445
0.005859 0.006867 0.000667
0.011527 0.008738 0.001868
0.016612 0.007623 0.002845
0.028732 0.008017 0.003290
0.038115 0.009134 0.007196
0.049843 0.010866 0.010348
0.053559 0.010784 0.009593
0.061572 0.012598 0.013499
0.071347 0.012376 0.014699
0.079754 0.013188 0.014168
0.088160 0.013665 0.015367
0.100473 0.018047 0.020473
0.112201 0.020115 0.021896
0.124323 0.019837 0.025802
0.139766 0.021486 0.028198
0.164985 0.022578 0.033527
0.186488 0.024090 0.037879
0.217768 0.025379 0.043429
0.251394 0.027284 0.048226
0.289710 0.030419 0.051516
0.327834 0.028557 0.055337
0.365959 0.026696 0.059156
0.402907 0.030528 0.062446
0.440829 0.036010 0.063249
0.474455 0.037242 0.071507
0.507888 0.034486 0.075106
0.538383 0.039123 0.082609
0.564761 0.056848 0.093488
0.586647 0.067680 0.100239
0.608532 0.077839 0.110449
0.613607 0.087047 0.118262
0.615752 0.093997 0.119684
0.617313 0.097623 0.122613
0.620826 0.103876 0.124036
0.622971 0.110153 0.128919
0.622971 0.110153 0.128919
0.622971 0.110153 0.128919
0.622971 0.110153 0.128919
0.622971 0.110153 0.128919
0.622971 0.110153 0.128919
0.622971 0.110153 0.128919
0.622971 0.110153 0.128919
0.622971 0.110153 0.128919
0.622971 0.110153 0.128919
0.622971 0.110153 0.128919
0.622971 0.110153 0.128919
0.622971 0.110153 0.128919
0.622971 0.110153 0.128919
0.622971 0.110153 0.128919
0.622971 0.110153 0.128919
0.622971 0.110153 0.128919
0.622971 0.110153 0.128919
0.622971 0.110153 0.128919
0.622971 0.110153 0.128919
0.622971 0.110153 0.128919
0.622971 0.110153 0.128919
0.622971 0.110153 0.128919
0.622971 0.110153 0.128919
0.001943 0.013620 0.001868
0.001943 0.013620 0.001868
0.001943 0.013620 0.001868
0.001943 0.013620 0.001868
0.001943 0.013620 0.001868
0.001943 0.013620 0.001868
0.001943 0.013620 0.001868
0.004681 0.012226 0.001868
0.012695 0.014039 0.005774
0.019733 0.015549 0.005243
0.028139 0.016026 0.006442
0.040259 0.016084 0.008616
0.048273 0.018233 0.010793
0.055702 0.017397 0.012746
0.064110 0.018209 0.012215
0.073492 0.019662 0.014390
0.081899 0.020138 0.015590
0.093234 0.023544 0.019718
0.101641 0.024020 0.020919
0.116107 0.024358 0.024070
0.129206 0.025392 0.027222
0.147970 0.028297 0.031574
0.168498 0.028495 0.036680
0.195085 0.029226 0.040277
0.226557 0.035848 0.043567
0.260574 0.035407 0.050848
0.297722 0.032905 0.051962
0.335848 0.031043 0.055780
0.372603 0.029879 0.059601
0.411504 0.035665 0.064844
0.446890 0.035870 0.065202
0.482278 0.035068 0.070755
0.514343 0.032673 0.076083
0.543658 0.042669 0.084785
0.571405 0.059695 0.095665
0.594267 0.070832 0.106850
0.612832 0.080072 0.113379
0.613607 0.087383 0.116531
0.616728 0.094973 0.120660
0.617313 0.097623 0.122613
0.618873 0.101587 0.123812
0.622971 0.110153 0.128919
0.622971 0.110153 0.128919
0.622971 0.110153 0.128919
0.622971 0.110153 0.128919
0.622971 0.110153 0.128919
0.622971 0.110153 0.128919
0.622971 0.110153 0.128919
0.622971 0.110153 0.128919
0.622971 0.110153 0.128919
0.622971 0.110153 0.128919
0.622971 0.110153 0.128919
0.622971 0.110153 0.128919
0.622971 0.110153 0.128919
0.622971 0.110153 0.128919
0.622971 0.110153 0.128919
0.622971 0.110153 0.128919
0.622971 0.110153 0.128919
0.622971 0.110153 0.128919
0.622971 0.110153 0.128919
0.622971 0.110153 0.128919
0.622971 0.110153 0.128919
0.622971 0.110153 0.128919
0.622971 0.110153 0.128919
0.622971 0.110153 0.128919
0.004088 0.020570 0.003290
0.004088 0.020570 0.003290
0.004088 0.020570 0.003290
0.004088 0.020570 0.003290
0.004088 0.020570 0.003290
0.004088 0.020570 0.003290
0.004088 0.020570 0.003290
0.005064 0.021546 0.004266
0.012102 0.022384 0.007196
0.022854 0.023475 0.007639
0.028914 0.023673 0.007864
0.039666 0.024764 0.008309
0.051978 0.029483 0.011684
0.056670 0.030041 0.013637
0.067421 0.030796 0.015812
0.073482 0.030657 0.017765
0.085603 0.030715 0.019942
0.093618 0.032865 0.022118
0.105738 0.032923 0.024292
0.119228 0.032284 0.026469
0.133695 0.032957 0.027891
0.152462 0.035526 0.033973
0.174549 0.040359 0.036816
0.202506 0.040057 0.042145
0.233785 0.041682 0.045965
0.269565 0.039542 0.048808
0.308274 0.040330 0.054582
0.347768 0.037437 0.060133
0.384715 0.041268 0.063422
0.423031 0.044739 0.064980
0.456656 0.046308 0.071507
0.491852 0.040846 0.075859
0.523523 0.040460 0.080434
0.552447 0.052130 0.090113
0.577073 0.061231 0.098595
0.599935 0.073039 0.106320
0.613607 0.087047 0.118262
0.613607 0.087383 0.116531
0.616145 0.092322 0.118707
0.616337 0.096647 0.121637
0.620826 0.103876 0.124036
0.622971 0.110153 0.128919
0.622971 0.110153 0.128919
0.622971 0.110153 0.128919
0.622971 0.110153 0.128919
0.622971 0.110153 0.128919
0.622971 0.110153 0.128919
0.622971 0.110153 0.128919
0.622971 0.110153 0.128919
0.622971 0.110153 0.128919
0.622971 0.110153 0.128919
0.622971 0.110153 0.128919
0.622971 0.110153 0.128919
0.622971 0.110153 0.128919
0.622971 0.110153 0.128919
0.622971 0.110153 0.128919
0.622971 0.110153 0.128919
0.622971 0.110153 0.128919
0.622971 0.110153 0.128919
0.622971 0.110153 0.128919
0.622971 0.110153 0.128919
0.622971 0.110153 0.128919
0.622971 0.110153 0.128919
0.622971 0.110153 0.128919
0.622971 0.110153 0.128919
0.005448 0.030868 0.006663
0.005448 0.030868 0.006663
0.005448 0.030868 0.006663
0.005448 0.030868 0.006663
0.005448 0.030868 0.006663
0.005448 0.030868 0.006663
0.007209 0.028160 0.007418
0.007209 0.028160 0.007418
0.012484 0.031706 0.009593
0.023236 0.032461 0.011770
0.033597 0.034890 0.014922
0.042002 0.036374 0.010929
0.052755 0.037130 0.013107
0.059790 0.037967 0.016036
0.066828 0.039141 0.017234
0.076604 0.038584 0.020164
0.087548 0.043999 0.023540
0.096346 0.043138 0.022032
0.105729 0.044590 0.024207
0.122541 0.044870 0.030066
0.137985 0.046521 0.032465
0.155189 0.045798 0.033886
0.179624 0.050239 0.041169
0.209925 0.050552 0.045742
0.240621 0.049526 0.047609
0.278354 0.049339 0.052407
0.318431 0.049766 0.056449
0.355772 0.051590 0.060492
0.396242 0.050343 0.063558
0.431820 0.054200 0.070308
0.467600 0.051724 0.074882
0.503178 0.054910 0.085094
0.537387 0.059801 0.090113
0.563774 0.066530 0.097618
0.585468 0.072702 0.103168
0.601688 0.081326 0.110449
0.614583 0.088359 0.117507
0.614583 0.088359 0.117507
0.616145 0.092322 0.118707
0.617313 0.097623 0.122613
0.618873 0.101587 0.123812
0.621018 0.108200 0.126966
0.622971 0.110153 0.128919
0.622971 0.110153 0.128919
0.622971 0.110153 0.128919
0.622971 0.110153 0.128919
0.622971 0.110153 0.128919
0.622971 0.110153 0.128919
0.622971 0.110153 0.128919
0.622971 0.110153 0.128919
0.622971 0.110153 0.128919
0.622971 0.110153 0.128919
0.622971 0.110153 0.128919
0.622971 0.110153 0.128919
0.622971 0.110153 0.128919
0.622971 0.110153 0.128919
0.622971 0.110153 0.128919
0.622971 0.110153 0.128919
0.622971 0.110153 0.128919
0.622971 0.110153 0.128919
0.622971 0.110153 0.128919
0.622971 0.110153 0.128919
0.622971 0.110153 0.128919
0.622971 0.110153 0.128919
0.622971 0.110153 0.128919
0.006808 0.041501 0.008309
0.006808 0.041501 0.008309
0.007199 0.039491 0.009062
0.007199 0.039491 0.009062
0.007199 0.039491 0.009062
0.007199 0.039491 0.009062
0.007199 0.039491 0.009062
0.007199 0.039491 0.009062
0.017558 0.041921 0.012215
0.023226 0.043792 0.013414
0.033978 0.044547 0.015590
0.043362 0.045999 0.017765
0.055089 0.048404 0.017456
0.059782 0.048962 0.019409
0.070532 0.049717 0.021586
0.081285 0.050809 0.022032
0.087929 0.053657 0.024207
0.098681 0.054076 0.028113
0.111779 0.055783 0.027804
0.127616 0.055086 0.032687
0.141106 0.054446 0.034863
0.162611 0.056293 0.037484
0.186066 0.060093 0.042059
0.216370 0.060406 0.046633
0.250387 0.060637 0.050454
0.286750 0.061147 0.055250
0.325267 0.057947 0.056364
0.363192 0.062084 0.064090
0.403270 0.062512 0.068132
0.441003 0.061988 0.074661
0.476972 0.064172 0.080434
0.513920 0.066996 0.088914
0.544414 0.071969 0.094688
0.567087 0.078781 0.102944
0.587411 0.085650 0.108496
0.605784 0.089893 0.115554
0.618873 0.101587 0.123812
0.620826 0.103876 0.124036
0.622779 0.105829 0.125989
0.622779 0.105829 0.125989
0.621018 0.108200 0.126966
0.622578 0.112164 0.128165
0.622578 0.112164 0.128165
0.622971 0.110489 0.127188
0.622971 0.110153 0.128919
0.622971 0.110153 0.128919
0.622971 0.110153 0.128919
0.622971 0.110153 0.128919
0.622971 0.110153 0.128919
0.622971 0.110153 0.128919
0.622971 0.110153 0.128919
0.622971 0.110153 0.128919
0.622971 0.110153 0.128919
0.622971 0.110153 0.128919
0.622971 0.110153 0.128919
0.622971 0.110153 0.128919
0.622971 0.110153 0.128919
0.622971 0.110153 0.128919
0.622971 0.110153 0.128919
0.622971 0.110153 0.128919
0.622971 0.110153 0.128919
0.622971 0.110153 0.128919
0.622971 0.110153 0.128919
0.622971 0.110153 0.128919
0.622971 0.110153 0.128919
0.010512 0.051742 0.014390
0.010512 0.051742 0.014390
0.012274 0.049035 0.015145
0.012274 0.049035 0.015145
0.012274 0.049035 0.015145
0.010512 0.051742 0.014390
0.010512 0.051742 0.014390
0.010512 0.051742 0.014390
0.018527 0.053892 0.016567
0.025562 0.054730 0.019496
0.033968 0.055542 0.018966
0.044720 0.055961 0.022872
0.056058 0.059704 0.025269
0.063093 0.061213 0.024738
0.072477 0.062665 0.026914
0.081275 0.061469 0.027137
0.092027 0.062896 0.025851
0.102779 0.063651 0.028027
0.114900 0.063372 0.031933
0.126629 0.065777 0.031624
0.144418 0.067369 0.036731
0.162600 0.067623 0.039129
0.189188 0.068020 0.044457
0.219098 0.070342 0.048277
0.255854 0.069178 0.052098
0.294562 0.070303 0.056140
0.333665 0.069418 0.060938
0.371397 0.069231 0.065735
0.413821 0.069938 0.070755
0.451553 0.069413 0.077281
0.486738 0.074946 0.085008
0.518995 0.076540 0.094996
0.546751 0.082908 0.100770
0.567077 0.089440 0.108051
0.588380 0.097286 0.114578
0.606943 0.105854 0.124567
0.623554 0.113140 0.129140
0.625507 0.115429 0.129362
0.625507 0.115429 0.129362
0.625116 0.117103 0.130339
0.625699 0.119754 0.132292
0.626676 0.121067 0.131540
0.626676 0.121067 0.131540
0.625699 0.119754 0.132292
0.625116 0.117103 0.130339
0.625507 0.115429 0.129362
0.623554 0.113140 0.129140
0.622578 0.112164 0.128165
0.622971 0.110153 0.128919
0.622971 0.110153 0.128919
0.622971 0.110153 0.128919
0.622971 0.110153 0.128919
0.622971 0.110153 0.128919
0.622971 0.110153 0.128919
0.622971 0.110153 0.128919
0.622971 0.110153 0.128919
0.622971 0.110153 0.128919
0.622971 0.110153 0.128919
0.622971 0.110153 0.128919
0.622971 0.110153 0.128919
0.622971 0.110153 0.128919
0.622971 0.110153 0.128919
0.622971 0.110153 0.128919
0.622971 0.110153 0.128919
0.622971 0.110153 0.128919
0.014025 0.057995 0.015812
0.014025 0.057995 0.015812
0.014025 0.057995 0.015812
0.015002 0.059308 0.015060
0.015002 0.059308 0.015060
0.015002 0.059308 0.015060
0.015002 0.059308 0.015060
0.015002 0.059308 0.015060
0.017348 0.059586 0.016036
0.029077 0.061318 0.019187
0.038459 0.062771 0.021362
0.047842 0.064224 0.023540
0.058200 0.066653 0.026691
0.065238 0.067827 0.027891
0.072276 0.069673 0.025629
0.080681 0.069812 0.028558
0.093779 0.071183 0.029980
0.102186 0.071323 0.032910
0.116259 0.074342 0.031848
0.130727 0.074679 0.035000
0.147539 0.074959 0.040859
0.169436 0.075132 0.042503
0.196607 0.078515 0.048056
0.225934 0.078187 0.049921
0.262690 0.077022 0.053742
0.303745 0.078091 0.060492
0.340107 0.078936 0.063558
0.382531 0.078971 0.072038
0.421240 0.080097 0.076083
0.453888 0.080689 0.081633
0.487704 0.086245 0.092820
0.518008 0.086558 0.097394
0.546347 0.095241 0.106850
0.569020 0.102388 0.113379
0.590714 0.108224 0.120660
0.610256 0.118105 0.129896
0.626474 0.127065 0.135446
