lut/FujiFilm/gfx-eterna-55-F-Log2/ETERNA.cube
#title:FLog2_to_ETERNA
#model:GFX ETERNA 55
#FUJIFILM Corporation
#Gamma:F-Log2 to ETERNA
#Gamut:F-Gamut to ITU-R BT.709
#Version:1.00
LUT_3D_SIZE 65
0.005859 0.005859 0.005859
0.005859 0.005859 0.005859
0.005859 0.005859 0.005859
0.005859 0.005859 0.005859
0.005859 0.005859 0.005859
0.005859 0.005859 0.005859
0.010551 0.006755 0.006082
0.024041 0.006115 0.008258
0.038508 0.006788 0.009681
0.061774 0.005927 0.013056
0.078586 0.006880 0.015452
0.090707 0.006937 0.017629
0.102828 0.006995 0.019804
0.118272 0.008981 0.020473
0.134107 0.008957 0.021896
0.147597 0.008318 0.024070
0.162064 0.008655 0.027222
0.179269 0.007596 0.030375
0.198821 0.007154 0.032774
0.213288 0.007827 0.034196
0.232446 0.009059 0.037570
0.252974 0.009929 0.039216
0.277607 0.008370 0.042590
0.303218 0.007453 0.048672
0.325307 0.012623 0.049785
0.356002 0.010926 0.055113
0.385329 0.009926 0.060442
0.419930 0.013143 0.064484
0.463139 0.009829 0.071013
0.505170 0.012210 0.077008
0.550915 0.014509 0.082249
0.598031 0.015438 0.090953
0.645146 0.017039 0.096196
0.695584 0.019896 0.103390
0.744653 0.023450 0.110586
0.795483 0.024298 0.118535
0.845528 0.029165 0.124976
0.896941 0.033334 0.131417
0.933889 0.036831 0.136436
0.934271 0.046825 0.135375
0.933879 0.048834 0.134621
0.934846 0.062151 0.132051
0.934444 0.076163 0.129480
0.934041 0.089841 0.128641
0.933841 0.097183 0.125625
0.933841 0.097183 0.125625
0.933841 0.097183 0.125625
0.933841 0.097183 0.125625
0.933841 0.097183 0.125625
0.933841 0.097183 0.125625
0.933841 0.097183 0.125625
0.933841 0.097183 0.125625
0.933841 0.097183 0.125625
0.933841 0.097183 0.125625
0.933841 0.097183 0.125625
0.933841 0.097183 0.125625
0.933841 0.097183 0.125625
0.933841 0.097183 0.125625
0.933841 0.097183 0.125625
0.933841 0.097183 0.125625
0.933841 0.097183 0.125625
0.933841 0.097183 0.125625
0.933841 0.097183 0.125625
0.933841 0.097183 0.125625
0.933841 0.097183 0.125625
0.005859 0.005859 0.005859
0.005859 0.005859 0.005859
0.005859 0.005859 0.005859
0.005859 0.005859 0.005859
0.005859 0.005859 0.005859
0.005859 0.005859 0.005859
0.010551 0.006755 0.006082
0.024041 0.006115 0.008258
0.038508 0.006788 0.009681
0.061774 0.005927 0.013056
0.074871 0.007297 0.014475
0.085624 0.008053 0.016653
0.102828 0.006995 0.019804
0.114557 0.009063 0.021226
0.130392 0.009039 0.022648
0.147597 0.008318 0.024070
0.162064 0.008655 0.027222
0.176924 0.007317 0.029399
0.195105 0.007236 0.033527
0.209572 0.007909 0.034949
0.231076 0.009757 0.037570
0.250627 0.009314 0.039968
0.274869 0.009429 0.044319
0.299503 0.008207 0.045965
0.324330 0.011310 0.050539
0.350918 0.012041 0.054136
0.389043 0.009843 0.059686
0.429706 0.012921 0.065684
0.473105 0.014269 0.073409
0.518660 0.011570 0.079183
0.564406 0.013869 0.084426
0.612891 0.014101 0.093129
0.661566 0.019666 0.099571
0.710444 0.018224 0.107297
0.761465 0.024740 0.111254
0.812294 0.025250 0.120933
0.864102 0.027410 0.128130
0.915123 0.033590 0.133816
0.934081 0.041827 0.135906
0.934081 0.041827 0.135906
0.934462 0.052157 0.133114
0.934644 0.068821 0.132496
0.934636 0.081160 0.128950
0.935602 0.094476 0.126378
0.933841 0.097183 0.125625
0.933841 0.097183 0.125625
0.933841 0.097183 0.125625
0.933841 0.097183 0.125625
0.933841 0.097183 0.125625
0.933841 0.097183 0.125625
0.933841 0.097183 0.125625
0.933841 0.097183 0.125625
0.933841 0.097183 0.125625
0.933841 0.097183 0.125625
0.933841 0.097183 0.125625
0.933841 0.097183 0.125625
0.933841 0.097183 0.125625
0.933841 0.097183 0.125625
0.933841 0.097183 0.125625
0.933841 0.097183 0.125625
0.933841 0.097183 0.125625
0.933841 0.097183 0.125625
0.933841 0.097183 0.125625
0.933841 0.097183 0.125625
0.933841 0.097183 0.125625
0.005859 0.005859 0.005859
0.005859 0.005859 0.005859
0.005859 0.005859 0.005859
0.005859 0.005859 0.005859
0.005859 0.005859 0.005859
0.005859 0.005859 0.005859
0.005859 0.005859 0.005859
0.024041 0.006115 0.008258
0.038508 0.006788 0.009681
0.052974 0.007460 0.011102
0.074871 0.007297 0.014475
0.085624 0.008053 0.016653
0.099114 0.007413 0.018828
0.114557 0.009063 0.021226
0.130392 0.009039 0.022648
0.143882 0.008399 0.024825
0.159719 0.008375 0.026245
0.176924 0.007317 0.029399
0.189045 0.007375 0.031574
0.209572 0.007909 0.034949
0.228338 0.011152 0.037570
0.250627 0.009314 0.039968
0.272523 0.009151 0.043343
0.298135 0.008568 0.047695
0.325307 0.012623 0.049785
0.359716 0.010507 0.056089
0.399011 0.014619 0.060356
0.440849 0.012003 0.066882
0.482881 0.014048 0.074610
0.529604 0.017322 0.080827
0.578481 0.015881 0.088554
0.625203 0.019492 0.093042
0.675450 0.017016 0.102501
0.726864 0.021186 0.108942
0.779063 0.021335 0.116891
0.830084 0.027515 0.122577
0.883259 0.028977 0.129773
0.932519 0.037528 0.136436
0.934081 0.042163 0.134176
0.934271 0.046825 0.135375
0.934654 0.057154 0.132581
0.934253 0.070831 0.131743
0.933458 0.086854 0.128419
0.933841 0.097183 0.125625
0.933841 0.097183 0.125625
0.933841 0.097183 0.125625
0.933841 0.097183 0.125625
0.933841 0.097183 0.125625
0.933841 0.097183 0.125625
0.933841 0.097183 0.125625
0.933841 0.097183 0.125625
0.933841 0.097183 0.125625
0.933841 0.097183 0.125625
0.933841 0.097183 0.125625
0.933841 0.097183 0.125625
0.933841 0.097183 0.125625
0.933841 0.097183 0.125625
0.933841 0.097183 0.125625
0.933841 0.097183 0.125625
0.933841 0.097183 0.125625
0.933841 0.097183 0.125625
0.933841 0.097183 0.125625
0.933841 0.097183 0.125625
0.933841 0.097183 0.125625
0.933841 0.097183 0.125625
0.005859 0.005859 0.005859
0.005859 0.005859 0.005859
0.005859 0.005859 0.005859
0.005859 0.005859 0.005859
0.005859 0.005859 0.005859
0.005859 0.005859 0.005859
0.005859 0.005859 0.005859
0.017980 0.005918 0.008035
0.038508 0.006788 0.009681
0.052974 0.007460 0.011102
0.066465 0.006821 0.013278
0.082300 0.006461 0.016428
0.099114 0.007413 0.018828
0.111234 0.007807 0.019273
0.126677 0.009120 0.023402
0.143882 0.008399 0.024825
0.159719 0.008375 0.026245
0.174186 0.008712 0.029399
0.189045 0.007375 0.031574
0.208203 0.008607 0.034949
0.226384 0.008861 0.037347
0.247889 0.010708 0.039968
0.272523 0.009151 0.043343
0.303218 0.007453 0.048672
0.329998 0.013517 0.050009
0.368124 0.010983 0.057290
0.405070 0.014480 0.062309
0.450625 0.011445 0.069812
0.492657 0.014163 0.074079
0.542118 0.015706 0.082027
0.589232 0.016972 0.089000
0.639087 0.017178 0.094243
0.691870 0.019979 0.104145
0.740938 0.023533 0.111341
0.793136 0.024018 0.117558
0.846897 0.028468 0.124976
0.901633 0.034229 0.131642
0.934081 0.042163 0.134176
0.933879 0.048834 0.134621
0.933879 0.048834 0.134621
0.934061 0.065834 0.132274
0.934636 0.081160 0.128950
0.934626 0.093500 0.125402
0.933841 0.097183 0.125625
0.933841 0.097183 0.125625
0.933841 0.097183 0.125625
0.933841 0.097183 0.125625
0.933841 0.097183 0.125625
0.933841 0.097183 0.125625
0.933841 0.097183 0.125625
0.933841 0.097183 0.125625
0.933841 0.097183 0.125625
0.933841 0.097183 0.125625
0.933841 0.097183 0.125625
0.933841 0.097183 0.125625
0.933841 0.097183 0.125625
0.933841 0.097183 0.125625
0.933841 0.097183 0.125625
0.933841 0.097183 0.125625
0.933841 0.097183 0.125625
0.933841 0.097183 0.125625
0.933841 0.097183 0.125625
0.933841 0.097183 0.125625
0.933841 0.097183 0.125625
0.933841 0.097183 0.125625
0.005859 0.005859 0.005859
0.005859 0.005859 0.005859
0.005859 0.005859 0.005859
0.005859 0.005859 0.005859
0.005859 0.005859 0.005859
0.005859 0.005859 0.005859
0.005859 0.005859 0.005859
0.017980 0.005918 0.008035
0.031078 0.007287 0.009456
0.052974 0.007460 0.011102
0.066465 0.006821 0.013278
0.082300 0.006461 0.016428
0.094423 0.006855 0.016875
0.111234 0.007807 0.019273
0.126677 0.009120 0.023402
0.142514 0.009096 0.024825
0.157373 0.007760 0.027001
0.171839 0.008097 0.030151
0.185330 0.007794 0.030598
0.205858 0.008328 0.033973
0.226384 0.008861 0.037347
0.250627 0.009314 0.039968
0.277607 0.008370 0.042590
0.304195 0.008430 0.049649
0.340167 0.010950 0.053691
0.375553 0.010147 0.059243
0.416215 0.013224 0.065238
0.460401 0.011224 0.071013
0.503800 0.012572 0.078738
0.551892 0.015486 0.083226
0.603116 0.014323 0.091930
0.652767 0.021200 0.097618
0.704383 0.018362 0.105343
0.757167 0.021498 0.113515
0.809556 0.026981 0.119202
0.865078 0.028386 0.129106
0.917469 0.033868 0.134792
0.934472 0.039817 0.136660
0.933688 0.043838 0.135153
0.934654 0.056818 0.134313
0.934644 0.068821 0.132496
0.934242 0.083170 0.128194
0.933841 0.097183 0.125625
0.933841 0.097183 0.125625
0.933841 0.097183 0.125625
0.933841 0.097183 0.125625
0.933841 0.097183 0.125625
0.933841 0.097183 0.125625
0.933841 0.097183 0.125625
0.933841 0.097183 0.125625
0.933841 0.097183 0.125625
0.933841 0.097183 0.125625
0.933841 0.097183 0.125625
0.933841 0.097183 0.125625
0.933841 0.097183 0.125625
0.933841 0.097183 0.125625
0.933841 0.097183 0.125625
0.933841 0.097183 0.125625
0.933841 0.097183 0.125625
0.933841 0.097183 0.125625
0.933841 0.097183 0.125625
0.933841 0.097183 0.125625
0.933841 0.097183 0.125625
0.933841 0.097183 0.125625
0.933841 0.097183 0.125625
0.005859 0.005859 0.005859
0.005859 0.005859 0.005859
0.005859 0.005859 0.005859
0.005859 0.005859 0.005859
0.005859 0.005859 0.005859
0.005859 0.005859 0.005859
0.005859 0.005859 0.005859
0.017980 0.005918 0.008035
0.031078 0.007287 0.009456
0.044569 0.006985 0.009902
0.066465 0.006821 0.013278
0.082300 0.006461 0.016428
0.094423 0.006855 0.016875
0.107520 0.007890 0.020028
0.122963 0.009875 0.020695
0.142514 0.009096 0.024825
0.153658 0.008178 0.026024
0.171839 0.008097 0.030151
0.185330 0.007794 0.030598
0.208203 0.008607 0.034949
0.228338 0.011152 0.037570
0.252974 0.009929 0.039216
0.281322 0.007617 0.045296
0.307910 0.008348 0.048895
0.343881 0.010867 0.052938
0.382982 0.009646 0.059465
0.422668 0.011412 0.066215
0.467045 0.014408 0.071456
0.514946 0.011989 0.078207
0.564406 0.013869 0.084426
0.614059 0.020411 0.091844
0.665281 0.019248 0.100548
0.718064 0.022719 0.106988
0.771634 0.022508 0.113207
0.825000 0.028631 0.121601
0.881891 0.029674 0.129773
0.933889 0.036831 0.136436
0.934081 0.041827 0.135906
0.934271 0.046825 0.135375
0.934846 0.062151 0.132051
0.935027 0.079150 0.129702
0.934626 0.092827 0.128864
0.933841 0.097183 0.125625
0.933841 0.097183 0.125625
0.933841 0.097183 0.125625
0.933841 0.097183 0.125625
0.933841 0.097183 0.125625
0.933841 0.097183 0.125625
0.933841 0.097183 0.125625
0.933841 0.097183 0.125625
0.933841 0.097183 0.125625
0.933841 0.097183 0.125625
0.933841 0.097183 0.125625
0.933841 0.097183 0.125625
0.933841 0.097183 0.125625
0.933841 0.097183 0.125625
0.933841 0.097183 0.125625
0.933841 0.097183 0.125625
0.933841 0.097183 0.125625
0.933841 0.097183 0.125625
0.933841 0.097183 0.125625
0.933841 0.097183 0.125625
0.933841 0.097183 0.125625
0.933841 0.097183 0.125625
0.933841 0.097183 0.125625
0.005859 0.005859 0.005859
0.005859 0.005859 0.005859
0.005859 0.005859 0.005859
0.005859 0.005859 0.005859
0.005859 0.005859 0.005859
0.005859 0.005859 0.005859
0.005859 0.005859 0.005859
0.010551 0.006755 0.006082
0.031078 0.007287 0.009456
0.044569 0.006985 0.009902
0.061774 0.005927 0.013056
0.078586 0.006880 0.015452
0.090707 0.006937 0.017629
0.107520 0.007890 0.020028
0.122963 0.009875 0.020695
0.137823 0.008202 0.024601
0.153658 0.008178 0.026024
0.171839 0.008097 0.030151
0.189045 0.007375 0.031574
0.208203 0.008607 0.034949
0.232446 0.009059 0.037570
0.258056 0.008477 0.041921
0.283669 0.008232 0.044544
0.313970 0.008208 0.050848
0.348573 0.011762 0.053160
0.387673 0.010205 0.061418
0.429706 0.012921 0.065684
0.475452 0.014884 0.072657
0.522375 0.011153 0.080160
0.575743 0.017611 0.086825
0.625203 0.019492 0.093042
0.677794 0.017631 0.101746
0.729602 0.019792 0.108942
0.786684 0.025832 0.116582
0.841813 0.029583 0.123999
0.896941 0.033334 0.131417
0.934281 0.034821 0.137192
0.934271 0.046825 0.135375
0.934856 0.049811 0.135598
0.934061 0.066170 0.130543
0.934242 0.083170 0.128194
0.933841 0.097183 0.125625
0.933841 0.097183 0.125625
0.933841 0.097183 0.125625
0.933841 0.097183 0.125625
0.933841 0.097183 0.125625
0.933841 0.097183 0.125625
0.933841 0.097183 0.125625
0.933841 0.097183 0.125625
0.933841 0.097183 0.125625
0.933841 0.097183 0.125625
0.933841 0.097183 0.125625
0.933841 0.097183 0.125625
0.933841 0.097183 0.125625
0.933841 0.097183 0.125625
0.933841 0.097183 0.125625
0.933841 0.097183 0.125625
0.933841 0.097183 0.125625
0.933841 0.097183 0.125625
0.933841 0.097183 0.125625
0.933841 0.097183 0.125625
0.933841 0.097183 0.125625
0.933841 0.097183 0.125625
0.933841 0.097183 0.125625
0.933841 0.097183 0.125625
0.006243 0.015853 0.004798
0.006243 0.015853 0.004798
0.006243 0.015853 0.004798
0.006243 0.015853 0.004798
0.006243 0.015853 0.004798
0.006243 0.015853 0.004798
0.006243 0.015853 0.004798
0.014648 0.016664 0.004266
0.029115 0.017338 0.005686
0.042021 0.013712 0.007639
0.062548 0.013910 0.012746
0.080731 0.014165 0.015145
0.094221 0.013862 0.015590
0.104973 0.014617 0.017765
0.122178 0.013559 0.020919
0.140359 0.013814 0.023315
0.155220 0.012477 0.025493
0.173401 0.012732 0.027891
0.191774 0.017983 0.029757
0.212693 0.016507 0.033886
0.232244 0.016066 0.036286
0.259224 0.014786 0.040637
0.287181 0.014483 0.045965
0.317876 0.013459 0.047831
0.354634 0.011623 0.055113
0.391388 0.010123 0.060663
0.437135 0.012085 0.067637
0.482881 0.014048 0.074610
0.533319 0.016905 0.081804
0.584541 0.016078 0.088778
0.637717 0.017540 0.095972
0.690500 0.020676 0.104145
0.744653 0.023450 0.110586
0.800566 0.023183 0.119512
0.857256 0.031234 0.126399
0.911993 0.036993 0.133063
0.934472 0.039817 0.136660
0.933688 0.043838 0.135153
0.934263 0.058828 0.133558
0.934253 0.070831 0.131743
0.933458 0.086854 0.128419
0.933841 0.097183 0.125625
0.933841 0.097183 0.125625
0.933841 0.097183 0.125625
0.933841 0.097183 0.125625
0.933841 0.097183 0.125625
0.933841 0.097183 0.125625
0.933841 0.097183 0.125625
0.933841 0.097183 0.125625
0.933841 0.097183 0.125625
0.933841 0.097183 0.125625
0.933841 0.097183 0.125625
0.933841 0.097183 0.125625
0.933841 0.097183 0.125625
0.933841 0.097183 0.125625
0.933841 0.097183 0.125625
0.933841 0.097183 0.125625
0.933841 0.097183 0.125625
0.933841 0.097183 0.125625
0.933841 0.097183 0.125625
0.933841 0.097183 0.125625
0.933841 0.097183 0.125625
0.933841 0.097183 0.125625
0.933841 0.097183 0.125625
0.933841 0.097183 0.125625
0.005256 0.026879 0.002004
0.005256 0.026879 0.002004
0.005256 0.026879 0.002004
0.005256 0.026879 0.002004
0.005256 0.026879 0.002004
0.005256 0.026879 0.002004
0.005256 0.026879 0.002004
0.009947 0.027437 0.003957
0.023438 0.027135 0.004403
0.037904 0.027471 0.007554
0.060194 0.025634 0.009953
0.078375 0.025889 0.012351
0.090496 0.025947 0.014526
0.107701 0.024889 0.017680
0.124906 0.024168 0.019102
0.143087 0.024422 0.021500
0.157948 0.023086 0.023676
0.173974 0.027722 0.026296
0.193525 0.027279 0.028694
0.214446 0.026140 0.031094
0.238688 0.026255 0.035445
0.262931 0.026371 0.039797
0.292649 0.023697 0.044149
0.324712 0.021303 0.049477
0.361268 0.026810 0.053742
0.399392 0.024612 0.059294
0.445924 0.022554 0.067774
0.491670 0.024854 0.073015
0.542308 0.020704 0.081497
0.593138 0.021887 0.087714
0.646516 0.016342 0.096196
0.703013 0.019060 0.105343
0.757559 0.019825 0.112540
0.814641 0.025529 0.121910
0.872699 0.032883 0.128797
0.928222 0.034624 0.136970
0.934081 0.042163 0.134176
0.934271 0.046825 0.135375
0.934846 0.062151 0.132051
0.934253 0.070831 0.131743
0.934242 0.083170 0.128194
0.933841 0.097183 0.125625
0.933841 0.097183 0.125625
0.933841 0.097183 0.125625
0.933841 0.097183 0.125625
0.933841 0.097183 0.125625
0.933841 0.097183 0.125625
0.933841 0.097183 0.125625
0.933841 0.097183 0.125625
0.933841 0.097183 0.125625
0.933841 0.097183 0.125625
0.933841 0.097183 0.125625
0.933841 0.097183 0.125625
0.933841 0.097183 0.125625
0.933841 0.097183 0.125625
0.933841 0.097183 0.125625
0.933841 0.097183 0.125625
0.933841 0.097183 0.125625
0.933841 0.097183 0.125625
0.933841 0.097183 0.125625
0.933841 0.097183 0.125625
0.933841 0.097183 0.125625
0.933841 0.097183 0.125625
0.933841 0.097183 0.125625
0.933841 0.097183 0.125625
0.005246 0.038883 0.000187
0.005246 0.038883 0.000187
0.005246 0.038883 0.000187
0.005246 0.038883 0.000187
0.005246 0.038883 0.000187
0.005246 0.038883 0.000187
0.005246 0.038883 0.000187
0.007593 0.039498 0.000000
0.021083 0.038858 0.001609
0.042002 0.037382 0.005737
0.056469 0.038055 0.007160
0.074650 0.038310 0.009558
0.093024 0.043562 0.011426
0.105537 0.041946 0.012624
0.126064 0.042480 0.015999
0.139554 0.041505 0.019905
0.158129 0.040085 0.021328
0.176311 0.040341 0.023727
0.197230 0.038865 0.027855
0.215412 0.039119 0.030253
0.241416 0.036528 0.035360
0.267027 0.036283 0.037981
0.296152 0.042289 0.042023
0.330563 0.040510 0.046599
0.367319 0.039010 0.052149
0.409158 0.036395 0.058676
0.453535 0.039055 0.065648
0.502806 0.035938 0.072399
0.552659 0.035809 0.079371
0.605834 0.036935 0.088296
0.659403 0.036722 0.094515
0.714732 0.033131 0.104948
0.770062 0.030212 0.111922
0.828906 0.033545 0.120317
0.886189 0.032579 0.129242
0.934866 0.037808 0.137413
0.934664 0.045150 0.134398
0.934664 0.045150 0.134398
0.934654 0.057154 0.132581
0.934644 0.068821 0.132496
0.933849 0.085180 0.127442
0.933841 0.097183 0.125625
0.933841 0.097183 0.125625
0.933841 0.097183 0.125625
0.933841 0.097183 0.125625
0.933841 0.097183 0.125625
0.933841 0.097183 0.125625
0.933841 0.097183 0.125625
0.933841 0.097183 0.125625
0.933841 0.097183 0.125625
0.933841 0.097183 0.125625
0.933841 0.097183 0.125625
0.933841 0.097183 0.125625
0.933841 0.097183 0.125625
0.933841 0.097183 0.125625
0.933841 0.097183 0.125625
0.933841 0.097183 0.125625
0.933841 0.097183 0.125625
0.933841 0.097183 0.125625
0.933841 0.097183 0.125625
0.933841 0.097183 0.125625
0.933841 0.097183 0.125625
0.933841 0.097183 0.125625
0.933841 0.097183 0.125625
0.933841 0.097183 0.125625
0.005428 0.055547 0.000000
0.005428 0.055547 0.000000
0.005428 0.055547 0.000000
0.005428 0.055547 0.000000
0.005428 0.055547 0.000000
0.005428 0.055547 0.000000
0.006213 0.051863 0.000000
0.006213 0.051863 0.000000
0.016180 0.056638 0.000016
0.035731 0.056195 0.002413
0.057627 0.056032 0.005788
0.075809 0.056623 0.006458
0.090668 0.055287 0.008633
0.108849 0.055541 0.011031
0.123710 0.054205 0.013207
0.143261 0.053426 0.017336
0.159287 0.058062 0.019956
0.176492 0.057340 0.021379
0.194674 0.057260 0.025507
0.220285 0.057014 0.028129
0.245897 0.056769 0.030750
0.269555 0.053898 0.034880
0.300048 0.058871 0.040652
0.335435 0.058068 0.046203
0.372192 0.056905 0.050023
0.416770 0.052893 0.056551
0.463492 0.055833 0.064500
0.510608 0.057098 0.071473
0.564569 0.054540 0.080176
0.618137 0.054329 0.086394
0.672099 0.051771 0.095098
0.727227 0.055522 0.102515
0.785487 0.055868 0.110687
0.844139 0.053869 0.121345
0.901423 0.052903 0.130270
0.933677 0.055841 0.133335
0.934071 0.054167 0.132360
0.934856 0.049811 0.135598
0.934654 0.056818 0.134313
0.934253 0.070831 0.131743
0.934242 0.083170 0.128194
0.934626 0.093500 0.125402
0.933841 0.097183 0.125625
0.933841 0.097183 0.125625
0.933841 0.097183 0.125625
0.933841 0.097183 0.125625
0.933841 0.097183 0.125625
0.933841 0.097183 0.125625
0.933841 0.097183 0.125625
0.933841 0.097183 0.125625
0.933841 0.097183 0.125625
0.933841 0.097183 0.125625
0.933841 0.097183 0.125625
0.933841 0.097183 0.125625
0.933841 0.097183 0.125625
0.933841 0.097183 0.125625
0.933841 0.097183 0.125625
0.933841 0.097183 0.125625
0.933841 0.097183 0.125625
0.933841 0.097183 0.125625
0.933841 0.097183 0.125625
0.933841 0.097183 0.125625
0.933841 0.097183 0.125625
0.933841 0.097183 0.125625
0.933841 0.097183 0.125625
0.005217 0.073884 0.000000
0.005217 0.073884 0.000000
0.006394 0.068190 0.000460
0.006394 0.068190 0.000460
0.006394 0.068190 0.000460
0.006394 0.068190 0.000460
0.006394 0.068190 0.000460
0.006394 0.068190 0.000460
0.019884 0.068223 0.000000
0.030828 0.074310 0.000000
0.054094 0.073786 0.000734
0.072276 0.073705 0.004863
0.090850 0.072623 0.004556
0.105316 0.072959 0.007707
0.126237 0.071484 0.011835
0.142073 0.071460 0.013258
0.159076 0.077409 0.015125
0.181365 0.075235 0.019255
0.198178 0.076187 0.021651
0.223789 0.075942 0.024274
0.248816 0.072037 0.030133
0.274428 0.071792 0.032754
0.306291 0.076404 0.036796
0.340701 0.074625 0.041372
0.382149 0.073683 0.048875
0.421835 0.075784 0.053895
0.469735 0.073030 0.062375
0.520172 0.075887 0.069571
0.572371 0.076372 0.075789
0.628286 0.076104 0.084716
0.683222 0.074859 0.092664
0.739721 0.077912 0.100082
0.798372 0.076249 0.109007
0.847049 0.081813 0.115449
0.895141 0.084055 0.123398
0.934242 0.083170 0.128194
0.933458 0.086854 0.128419
0.933849 0.085180 0.127442
0.934434 0.088166 0.127664
0.934434 0.088166 0.127664
0.935602 0.094476 0.126378
0.934424 0.100170 0.125847
0.934424 0.100170 0.125847
0.933448 0.098858 0.126602
0.933841 0.097183 0.125625
0.933841 0.097183 0.125625
0.933841 0.097183 0.125625
0.933841 0.097183 0.125625
0.933841 0.097183 0.125625
0.933841 0.097183 0.125625
0.933841 0.097183 0.125625
0.933841 0.097183 0.125625
0.933841 0.097183 0.125625
0.933841 0.097183 0.125625
0.933841 0.097183 0.125625
0.933841 0.097183 0.125625
0.933841 0.097183 0.125625
0.933841 0.097183 0.125625
0.933841 0.097183 0.125625
0.933841 0.097183 0.125625
0.933841 0.097183 0.125625
0.933841 0.097183 0.125625
0.933841 0.097183 0.125625
0.933841 0.097183 0.125625
0.933841 0.097183 0.125625
0.006768 0.089515 0.001044
0.006768 0.089515 0.001044
0.005599 0.083878 0.000000
0.005599 0.083878 0.000000
0.005599 0.083878 0.000000
0.006768 0.089515 0.001044
0.006768 0.089515 0.001044
0.006768 0.089515 0.001044
0.015567 0.088317 0.001266
0.028080 0.087373 0.000000
0.048608 0.088242 0.000649
0.068158 0.087801 0.003046
0.090245 0.093306 0.002429
0.104712 0.093643 0.005583
0.125633 0.092839 0.006250
0.142446 0.093456 0.010379
0.161020 0.092037 0.011801
0.181940 0.090560 0.015930
0.200121 0.090815 0.018327
0.222602 0.093974 0.020194
0.250559 0.093673 0.025524
0.276170 0.093091 0.029875
0.309604 0.089999 0.035203
0.342835 0.093914 0.039246
0.385653 0.092611 0.045020
0.430029 0.095271 0.051992
0.477931 0.092516 0.060473
0.528760 0.093698 0.066691
0.582912 0.096138 0.074864
0.637849 0.094892 0.082813
0.694348 0.097947 0.090231
0.741463 0.099212 0.097203
0.790924 0.101091 0.103422
0.839408 0.101659 0.110395
0.888476 0.105214 0.117589
0.934616 0.105167 0.125316
0.933831 0.109187 0.123809
0.934222 0.107176 0.124563
0.934222 0.107176 0.124563
0.934807 0.110163 0.124785
0.935784 0.111476 0.124030
0.936367 0.114799 0.122523
0.934998 0.115496 0.122523
0.935784 0.111476 0.124030
0.934807 0.110163 0.124785
0.934616 0.105503 0.123587
0.935985 0.104469 0.125316
0.934424 0.100170 0.125847
0.933841 0.097183 0.125625
0.933841 0.097183 0.125625
0.933841 0.097183 0.125625
0.933841 0.097183 0.125625
0.933841 0.097183 0.125625
0.933841 0.097183 0.125625
0.933841 0.097183 0.125625
0.933841 0.097183 0.125625
0.933841 0.097183 0.125625
0.933841 0.097183 0.125625
0.933841 0.097183 0.125625
0.933841 0.097183 0.125625
0.933841 0.097183 0.125625
0.933841 0.097183 0.125625
0.933841 0.097183 0.125625
0.933841 0.097183 0.125625
0.933841 0.097183 0.125625
0.005781 0.100206 0.000000
0.005781 0.100206 0.000000
0.005781 0.100206 0.000000
0.005388 0.102215 0.000000
0.005388 0.102215 0.000000
0.005388 0.102215 0.000000
0.005388 0.102215 0.000000
0.005388 0.102215 0.000000
0.007734 0.102495 0.000204
0.029631 0.103003 0.000116
0.051528 0.103512 0.000031
0.070101 0.102430 0.000000
0.091214 0.106286 0.001590
0.106072 0.105285 0.002035
0.120539 0.105622 0.005188
0.140090 0.105179 0.007585
0.162964 0.106329 0.010208
0.179192 0.103959 0.014114
0.201673 0.107118 0.015981
0.223569 0.106955 0.019355
0.251526 0.106652 0.024683
0.278506 0.105710 0.027306
0.313107 0.108591 0.033078
0.349863 0.107091 0.038629
0.391310 0.106148 0.046133
0.436080 0.107471 0.050399
0.485541 0.109351 0.056616
0.537347 0.111174 0.065542
0.593263 0.111242 0.072739
0.639008 0.113205 0.079711
0.688077 0.116759 0.086907
0.735977 0.114005 0.095387
0.783676 0.118593 0.100851
0.834114 0.121785 0.106316
0.880835 0.124724 0.114264
0.927559 0.127999 0.120484
0.935572 0.130486 0.120929
0.934596 0.129510 0.119953
