lut/FujiFilm/gfx-eterna-55-F-Log2/PRO-Neg.Std.cube
#title:FLog2_to_PRONeg.Std
#model:GFX ETERNA 55
#FUJIFILM Corporation
#Gamma:F-Log2 to PRO Neg.Std
#Gamut:F-Gamut to ITU-R BT.709
#Version:1.00
LUT_3D_SIZE 65
0.000000 0.000000 0.000000
0.000000 0.000000 0.000000
0.000000 0.000000 0.000000
0.000000 0.000000 0.000000
0.000000 0.000000 0.000000
0.000000 0.000000 0.000000
0.003323 0.001592 0.000222
0.011729 0.002068 0.001422
0.018767 0.002906 0.004352
0.028149 0.004694 0.004798
0.038901 0.005113 0.008704
0.048283 0.006566 0.010878
0.056298 0.008716 0.013056
0.067049 0.009472 0.015231
0.077801 0.010227 0.017405
0.088553 0.010646 0.021311
0.102627 0.012994 0.023711
0.118070 0.014307 0.027840
0.134490 0.016598 0.032945
0.151303 0.016877 0.038804
0.171438 0.019086 0.043156
0.192941 0.020596 0.047507
0.216791 0.022385 0.052836
0.239665 0.022863 0.058918
0.267229 0.024235 0.065223
0.297139 0.026222 0.070773
0.328418 0.026839 0.079785
0.363413 0.027374 0.088044
0.410528 0.027967 0.098477
0.457643 0.028560 0.108910
0.514926 0.026922 0.121298
0.565755 0.026424 0.136167
0.627731 0.025009 0.152239
0.690098 0.021582 0.169061
0.744643 0.019658 0.190102
0.796450 0.018122 0.216332
0.845518 0.017307 0.246023
0.894587 0.016157 0.277446
0.925474 0.014079 0.309931
0.928010 0.011961 0.348446
0.929380 0.009919 0.355367
0.929380 0.009919 0.355367
0.929380 0.010255 0.353638
0.929380 0.010591 0.351906
0.929380 0.010591 0.351906
0.929380 0.010591 0.351906
0.929380 0.010591 0.351906
0.929380 0.010591 0.351906
0.929380 0.010591 0.351906
0.929380 0.010591 0.351906
0.929380 0.010591 0.351906
0.929380 0.010591 0.351906
0.929380 0.010591 0.351906
0.929380 0.010591 0.351906
0.929380 0.010591 0.351906
0.929380 0.010591 0.351906
0.929380 0.010591 0.351906
0.929380 0.010591 0.351906
0.929380 0.010591 0.351906
0.929380 0.010591 0.351906
0.929380 0.010591 0.351906
0.929380 0.010591 0.351906
0.929380 0.010591 0.351906
0.929380 0.010591 0.351906
0.929380 0.010591 0.351906
0.000000 0.000000 0.000000
0.000000 0.000000 0.000000
0.000000 0.000000 0.000000
0.000000 0.000000 0.000000
0.000000 0.000000 0.000000
0.000000 0.000000 0.000000
0.003323 0.001592 0.000222
0.011729 0.002068 0.001422
0.018767 0.002906 0.004352
0.028149 0.004694 0.004798
0.035184 0.005532 0.007727
0.044569 0.006648 0.011634
0.056298 0.008716 0.013056
0.063727 0.008216 0.013278
0.074086 0.010309 0.018160
0.088553 0.010646 0.021311
0.102627 0.012994 0.023711
0.114355 0.014725 0.026863
0.133513 0.015284 0.033699
0.148957 0.016599 0.037828
0.169091 0.019142 0.040450
0.190596 0.020317 0.046531
0.214446 0.021435 0.055320
0.239665 0.022863 0.058918
0.265861 0.024932 0.065223
0.292448 0.025328 0.070551
0.332133 0.026756 0.079030
0.375533 0.027432 0.090218
0.421280 0.028722 0.100653
0.477193 0.027446 0.114769
0.528025 0.027620 0.126181
0.582569 0.027041 0.140298
0.644936 0.023278 0.158852
0.705933 0.020214 0.177407
0.761455 0.019267 0.199423
0.811893 0.018427 0.225653
0.865068 0.015521 0.255343
0.914136 0.013698 0.290226
0.926450 0.012367 0.324750
0.929380 0.009919 0.355367
0.929380 0.009919 0.355367
0.929380 0.010255 0.353638
0.929380 0.010255 0.353638
0.929380 0.010591 0.351906
0.929380 0.010591 0.351906
0.929380 0.010591 0.351906
0.929380 0.010591 0.351906
0.929380 0.010591 0.351906
0.929380 0.010591 0.351906
0.929380 0.010591 0.351906
0.929380 0.010591 0.351906
0.929380 0.010591 0.351906
0.929380 0.010591 0.351906
0.929380 0.010591 0.351906
0.929380 0.010591 0.351906
0.929380 0.010591 0.351906
0.929380 0.010591 0.351906
0.929380 0.010591 0.351906
0.929380 0.010591 0.351906
0.929380 0.010591 0.351906
0.929380 0.010591 0.351906
0.929380 0.010591 0.351906
0.929380 0.010591 0.351906
0.929380 0.010591 0.351906
0.929380 0.010591 0.351906
0.000000 0.000000 0.000000
0.000000 0.000000 0.000000
0.000000 0.000000 0.000000
0.000000 0.000000 0.000000
0.000000 0.000000 0.000000
0.000000 0.000000 0.000000
0.000000 0.000000 0.000000
0.011729 0.002068 0.001422
0.018767 0.002906 0.004352
0.025802 0.004079 0.005550
0.035184 0.005532 0.007727
0.044569 0.006648 0.011634
0.053951 0.008101 0.013808
0.063727 0.008216 0.013278
0.074086 0.010309 0.018160
0.084838 0.010729 0.022067
0.100282 0.012378 0.024465
0.114355 0.014725 0.026863
0.128822 0.015062 0.030015
0.148957 0.016599 0.037828
0.166747 0.018863 0.039474
0.190596 0.020317 0.046531
0.213469 0.020794 0.052612
0.237318 0.022584 0.057941
0.267229 0.024235 0.065223
0.301830 0.026780 0.072726
0.344254 0.026479 0.082937
0.385309 0.027211 0.091419
0.436138 0.027049 0.104559
0.484231 0.028619 0.115969
0.538775 0.028040 0.130087
0.599774 0.025647 0.145181
0.663118 0.022861 0.164712
0.727830 0.019379 0.184243
0.781006 0.017480 0.208742
0.830074 0.017337 0.234973
0.882858 0.015769 0.267371
0.924497 0.014110 0.303762
0.928403 0.011967 0.338816
0.929380 0.009919 0.355367
0.929380 0.009919 0.355367
0.929380 0.010255 0.353638
0.929380 0.010255 0.353638
0.929380 0.010591 0.351906
0.929380 0.010591 0.351906
0.929380 0.010591 0.351906
0.929380 0.010591 0.351906
0.929380 0.010591 0.351906
0.929380 0.010591 0.351906
0.929380 0.010591 0.351906
0.929380 0.010591 0.351906
0.929380 0.010591 0.351906
0.929380 0.010591 0.351906
0.929380 0.010591 0.351906
0.929380 0.010591 0.351906
0.929380 0.010591 0.351906
0.929380 0.010591 0.351906
0.929380 0.010591 0.351906
0.929380 0.010591 0.351906
0.929380 0.010591 0.351906
0.929380 0.010591 0.351906
0.929380 0.010591 0.351906
0.929380 0.010591 0.351906
0.929380 0.010591 0.351906
0.929380 0.010591 0.351906
0.000000 0.000000 0.000000
0.000000 0.000000 0.000000
0.000000 0.000000 0.000000
0.000000 0.000000 0.000000
0.000000 0.000000 0.000000
0.000000 0.000000 0.000000
0.000000 0.000000 0.000000
0.008014 0.002486 0.000445
0.018767 0.002906 0.004352
0.025802 0.004079 0.005550
0.032840 0.005253 0.006751
0.042222 0.006369 0.010657
0.053951 0.008101 0.013808
0.062358 0.008578 0.015009
0.073110 0.009333 0.017184
0.084838 0.010729 0.022067
0.100282 0.012378 0.024465
0.113379 0.013413 0.027617
0.128822 0.015062 0.030015
0.146612 0.016319 0.036851
0.164400 0.018248 0.040226
0.186881 0.020735 0.045554
0.213469 0.020794 0.052612
0.239665 0.022863 0.058918
0.271920 0.024794 0.067176
0.312975 0.025526 0.075656
0.349922 0.028349 0.084137
0.394691 0.028328 0.095325
0.444545 0.027526 0.105758
0.500067 0.028259 0.119121
0.554612 0.027343 0.134970
0.617956 0.025230 0.151040
0.682667 0.022419 0.167108
0.740928 0.020077 0.189126
0.795080 0.018820 0.216332
0.845518 0.017307 0.246023
0.898301 0.015738 0.278422
0.925474 0.013071 0.315121
0.929380 0.010255 0.353638
0.929380 0.009919 0.355367
0.929380 0.010255 0.353638
0.929380 0.010255 0.353638
0.929380 0.010591 0.351906
0.929380 0.010591 0.351906
0.929380 0.010591 0.351906
0.929380 0.010591 0.351906
0.929380 0.010591 0.351906
0.929380 0.010591 0.351906
0.929380 0.010591 0.351906
0.929380 0.010591 0.351906
0.929380 0.010591 0.351906
0.929380 0.010591 0.351906
0.929380 0.010591 0.351906
0.929380 0.010591 0.351906
0.929380 0.010591 0.351906
0.929380 0.010591 0.351906
0.929380 0.010591 0.351906
0.929380 0.010591 0.351906
0.929380 0.010591 0.351906
0.929380 0.010591 0.351906
0.929380 0.010591 0.351906
0.929380 0.010591 0.351906
0.929380 0.010591 0.351906
0.929380 0.010591 0.351906
0.929380 0.010591 0.351906
0.000000 0.000000 0.000000
0.000000 0.000000 0.000000
0.000000 0.000000 0.000000
0.000000 0.000000 0.000000
0.000000 0.000000 0.000000
0.000000 0.000000 0.000000
0.000000 0.000000 0.000000
0.008014 0.002486 0.000445
0.015050 0.003324 0.003375
0.025802 0.004079 0.005550
0.032840 0.005253 0.006751
0.042222 0.006369 0.010657
0.050629 0.007182 0.010126
0.062358 0.008578 0.015009
0.073110 0.009333 0.017184
0.082492 0.010786 0.019358
0.097936 0.012100 0.023489
0.109664 0.013831 0.026640
0.126478 0.014447 0.030770
0.142896 0.016738 0.035875
0.164400 0.018248 0.040226
0.190596 0.020317 0.046531
0.216791 0.022385 0.052836
0.245724 0.023060 0.059141
0.283065 0.023874 0.068375
0.320011 0.026363 0.078585
0.361066 0.027095 0.087067
0.406813 0.028385 0.097500
0.457643 0.028560 0.108910
0.514926 0.026922 0.121298
0.569078 0.028016 0.136391
0.633791 0.024870 0.154192
0.698504 0.021723 0.171991
0.759110 0.018987 0.198446
0.809546 0.018148 0.224676
0.865068 0.015521 0.255343
0.916483 0.013977 0.291203
0.927427 0.013007 0.327458
0.929380 0.009919 0.355367
0.929380 0.009919 0.355367
0.929380 0.010255 0.353638
0.929380 0.010255 0.353638
0.929380 0.010591 0.351906
0.929380 0.010591 0.351906
0.929380 0.010591 0.351906
0.929380 0.010591 0.351906
0.929380 0.010591 0.351906
0.929380 0.010591 0.351906
0.929380 0.010591 0.351906
0.929380 0.010591 0.351906
0.929380 0.010591 0.351906
0.929380 0.010591 0.351906
0.929380 0.010591 0.351906
0.929380 0.010591 0.351906
0.929380 0.010591 0.351906
0.929380 0.010591 0.351906
0.929380 0.010591 0.351906
0.929380 0.010591 0.351906
0.929380 0.010591 0.351906
0.929380 0.010591 0.351906
0.929380 0.010591 0.351906
0.929380 0.010591 0.351906
0.929380 0.010591 0.351906
0.929380 0.010591 0.351906
0.929380 0.010591 0.351906
0.000000 0.000000 0.000000
0.000000 0.000000 0.000000
0.000000 0.000000 0.000000
0.000000 0.000000 0.000000
0.000000 0.000000 0.000000
0.000000 0.000000 0.000000
0.000000 0.000000 0.000000
0.008014 0.002486 0.000445
0.015050 0.003324 0.003375
0.022088 0.004162 0.006305
0.032840 0.005253 0.006751
0.042222 0.006369 0.010657
0.050629 0.007182 0.010126
0.060012 0.008298 0.014032
0.069394 0.009750 0.016207
0.082492 0.010786 0.019358
0.095590 0.011820 0.022512
0.109664 0.013831 0.026640
0.126478 0.014447 0.030770
0.146612 0.016319 0.036851
0.166747 0.018863 0.039474
0.192941 0.020596 0.047507
0.220506 0.021632 0.055542
0.250417 0.023618 0.061094
0.285410 0.023818 0.071082
0.326072 0.026559 0.078808
0.369473 0.027235 0.089997
0.417957 0.027131 0.100430
0.471133 0.027585 0.112816
0.528025 0.027620 0.126181
0.586283 0.026286 0.143003
0.650996 0.023477 0.159075
0.717079 0.018959 0.180337
0.774945 0.017956 0.205058
0.826360 0.017756 0.233997
0.880511 0.015490 0.266394
0.924497 0.014110 0.303762
0.928403 0.011631 0.340547
0.929380 0.009919 0.355367
0.929380 0.009919 0.355367
0.929380 0.010255 0.353638
0.929380 0.010591 0.351906
0.929380 0.010591 0.351906
0.929380 0.010591 0.351906
0.929380 0.010591 0.351906
0.929380 0.010591 0.351906
0.929380 0.010591 0.351906
0.929380 0.010591 0.351906
0.929380 0.010591 0.351906
0.929380 0.010591 0.351906
0.929380 0.010591 0.351906
0.929380 0.010591 0.351906
0.929380 0.010591 0.351906
0.929380 0.010591 0.351906
0.929380 0.010591 0.351906
0.929380 0.010591 0.351906
0.929380 0.010591 0.351906
0.929380 0.010591 0.351906
0.929380 0.010591 0.351906
0.929380 0.010591 0.351906
0.929380 0.010591 0.351906
0.929380 0.010591 0.351906
0.929380 0.010591 0.351906
0.929380 0.010591 0.351906
0.929380 0.010591 0.351906
0.000000 0.000000 0.000000
0.000000 0.000000 0.000000
0.000000 0.000000 0.000000
0.000000 0.000000 0.000000
0.000000 0.000000 0.000000
0.000000 0.000000 0.000000
0.000000 0.000000 0.000000
0.003323 0.001592 0.000222
0.015050 0.003324 0.003375
0.022088 0.004162 0.006305
0.028149 0.004694 0.004798
0.038901 0.005113 0.008704
0.048283 0.006566 0.010878
0.060012 0.008298 0.014032
0.069394 0.009750 0.016207
0.080147 0.010507 0.018382
0.095590 0.011820 0.022512
0.109664 0.013831 0.026640
0.128822 0.015062 0.030015
0.146612 0.016319 0.036851
0.171438 0.019086 0.043156
0.196657 0.020178 0.048484
0.222852 0.022248 0.054790
0.255108 0.024176 0.063047
0.292448 0.024991 0.072282
0.330763 0.027118 0.080761
0.375533 0.027432 0.090218
0.424994 0.027968 0.103359
0.479540 0.028061 0.114016
0.537798 0.027399 0.127378
0.599774 0.025647 0.145181
0.665462 0.023477 0.163957
0.731545 0.018961 0.185220
0.788044 0.018317 0.211672
0.840827 0.016749 0.244070
0.894587 0.016157 0.277446
0.925474 0.013071 0.315121
0.929380 0.009919 0.355367
0.929380 0.009919 0.355367
0.929380 0.010255 0.353638
0.929380 0.010255 0.353638
0.929380 0.010591 0.351906
0.929380 0.010591 0.351906
0.929380 0.010591 0.351906
0.929380 0.010591 0.351906
0.929380 0.010591 0.351906
0.929380 0.010591 0.351906
0.929380 0.010591 0.351906
0.929380 0.010591 0.351906
0.929380 0.010591 0.351906
0.929380 0.010591 0.351906
0.929380 0.010591 0.351906
0.929380 0.010591 0.351906
0.929380 0.010591 0.351906
0.929380 0.010591 0.351906
0.929380 0.010591 0.351906
0.929380 0.010591 0.351906
0.929380 0.010591 0.351906
0.929380 0.010591 0.351906
0.929380 0.010591 0.351906
0.929380 0.010591 0.351906
0.929380 0.010591 0.351906
0.929380 0.010591 0.351906
0.929380 0.010591 0.351906
0.929380 0.010591 0.351906
0.000000 0.008681 0.000000
0.000000 0.008681 0.000000
0.000000 0.008681 0.000000
0.000000 0.008681 0.000000
0.000000 0.008681 0.000000
0.000000 0.008681 0.000000
0.000000 0.008681 0.000000
0.006836 0.008180 0.000000
0.014850 0.010666 0.000360
0.023256 0.011143 0.001559
0.031662 0.011283 0.004489
0.040068 0.011423 0.007418
0.050820 0.012179 0.009593
0.059227 0.012654 0.010793
0.068609 0.013770 0.014699
0.084445 0.013411 0.017851
0.097543 0.014445 0.021004
0.112011 0.014446 0.025887
0.130384 0.019361 0.029484
0.150910 0.019224 0.036320
0.170461 0.018444 0.040450
0.199001 0.020793 0.047729
0.226566 0.021829 0.055766
0.258823 0.023759 0.064024
0.294792 0.025607 0.071527
0.334478 0.027036 0.080007
0.381594 0.027293 0.092171
0.436138 0.027049 0.104559
0.490291 0.028480 0.117922
0.546206 0.027539 0.130308
0.615609 0.024950 0.150063
0.682667 0.022419 0.167108
0.744643 0.019658 0.190102
0.799771 0.019042 0.220016
0.854900 0.018088 0.251660
0.911792 0.014091 0.285790
0.927427 0.013007 0.327458
0.929380 0.009919 0.355367
0.929380 0.009919 0.355367
0.929380 0.010255 0.353638
0.929380 0.010255 0.353638
0.929380 0.010591 0.351906
0.929380 0.010591 0.351906
0.929380 0.010591 0.351906
0.929380 0.010591 0.351906
0.929380 0.010591 0.351906
0.929380 0.010591 0.351906
0.929380 0.010591 0.351906
0.929380 0.010591 0.351906
0.929380 0.010591 0.351906
0.929380 0.010591 0.351906
0.929380 0.010591 0.351906
0.929380 0.010591 0.351906
0.929380 0.010591 0.351906
0.929380 0.010591 0.351906
0.929380 0.010591 0.351906
0.929380 0.010591 0.351906
0.929380 0.010591 0.351906
0.929380 0.010591 0.351906
0.929380 0.010591 0.351906
0.929380 0.010591 0.351906
0.929380 0.010591 0.351906
0.929380 0.010591 0.351906
0.929380 0.010591 0.351906
0.929380 0.010591 0.351906
0.002528 0.016942 0.000360
0.002528 0.016942 0.000360
0.002528 0.016942 0.000360
0.002528 0.016942 0.000360
0.002528 0.016942 0.000360
0.002528 0.016942 0.000360
0.002528 0.016942 0.000360
0.005266 0.015548 0.000360
0.014648 0.017001 0.002535
0.021686 0.018174 0.003733
0.031068 0.019291 0.007639
0.040844 0.019406 0.007109
0.050226 0.020522 0.011015
0.062348 0.020581 0.013192
0.072123 0.020695 0.012660
0.085221 0.021730 0.015812
0.098319 0.022428 0.020695
0.115715 0.026031 0.025047
0.132527 0.026984 0.027446
0.154425 0.026148 0.034282
0.179642 0.027577 0.037879
0.203884 0.027020 0.045691
0.234188 0.026661 0.053727
0.264884 0.024291 0.062516
0.304176 0.027394 0.071972
0.344254 0.026815 0.081208
0.390000 0.027434 0.095101
0.444545 0.027862 0.104027
0.501436 0.027562 0.119121
0.558326 0.027261 0.134214
0.627731 0.025009 0.152239
0.694789 0.021804 0.172746
0.757740 0.020021 0.196714
0.814237 0.018370 0.228359
0.872106 0.016022 0.260004
0.924497 0.015119 0.298570
0.928403 0.011967 0.338816
0.929380 0.009919 0.355367
0.929380 0.009919 0.355367
0.929380 0.010255 0.353638
0.929380 0.010255 0.353638
0.929380 0.010591 0.351906
0.929380 0.010591 0.351906
0.929380 0.010591 0.351906
0.929380 0.010591 0.351906
0.929380 0.010591 0.351906
0.929380 0.010591 0.351906
0.929380 0.010591 0.351906
0.929380 0.010591 0.351906
0.929380 0.010591 0.351906
0.929380 0.010591 0.351906
0.929380 0.010591 0.351906
0.929380 0.010591 0.351906
0.929380 0.010591 0.351906
0.929380 0.010591 0.351906
0.929380 0.010591 0.351906
0.929380 0.010591 0.351906
0.929380 0.010591 0.351906
0.929380 0.010591 0.351906
0.929380 0.010591 0.351906
0.929380 0.010591 0.351906
0.929380 0.010591 0.351906
0.929380 0.010591 0.351906
0.929380 0.010591 0.351906
0.929380 0.010591 0.351906
0.003694 0.023252 0.000000
0.003694 0.023252 0.000000
0.003694 0.023252 0.000000
0.003694 0.023252 0.000000
0.003694 0.023252 0.000000
0.003694 0.023252 0.000000
0.003694 0.023252 0.000000
0.005064 0.022554 0.000000
0.013079 0.025041 0.000000
0.025199 0.025099 0.001695
0.032237 0.025937 0.004625
0.042012 0.025715 0.005824
0.052954 0.031131 0.009200
0.061362 0.031271 0.012130
0.075829 0.031944 0.013550
0.086580 0.032364 0.017456
0.102023 0.033677 0.021586
0.118837 0.034294 0.025715
0.141709 0.034770 0.031797
0.158914 0.034385 0.031488
0.183157 0.033829 0.039301
0.208376 0.034585 0.046359
0.240238 0.039198 0.050403
0.276603 0.038699 0.060391
0.311012 0.035911 0.070156
0.353829 0.033600 0.081122
0.402705 0.031486 0.092308
0.456666 0.027919 0.106203
0.513558 0.027955 0.119566
0.575531 0.026203 0.137368
0.642590 0.023672 0.154413
0.710625 0.021108 0.177629
0.773577 0.019325 0.201597
0.830074 0.017337 0.234973
0.885204 0.015712 0.270079
0.925474 0.014079 0.309931
0.929380 0.010591 0.351906
0.929380 0.009919 0.355367
0.929380 0.009919 0.355367
0.929380 0.010255 0.353638
0.929380 0.010255 0.353638
0.929380 0.010591 0.351906
0.929380 0.010591 0.351906
0.929380 0.010591 0.351906
0.929380 0.010591 0.351906
0.929380 0.010591 0.351906
0.929380 0.010591 0.351906
0.929380 0.010591 0.351906
0.929380 0.010591 0.351906
0.929380 0.010591 0.351906
0.929380 0.010591 0.351906
0.929380 0.010591 0.351906
0.929380 0.010591 0.351906
0.929380 0.010591 0.351906
0.929380 0.010591 0.351906
0.929380 0.010591 0.351906
0.929380 0.010591 0.351906
0.929380 0.010591 0.351906
0.929380 0.010591 0.351906
0.929380 0.010591 0.351906
0.929380 0.010591 0.351906
0.929380 0.010591 0.351906
0.929380 0.010591 0.351906
0.929380 0.010591 0.351906
0.929380 0.010591 0.351906
0.005448 0.032212 0.000000
0.005448 0.032212 0.000000
0.005448 0.032212 0.000000
0.005448 0.032212 0.000000
0.005448 0.032212 0.000000
0.005448 0.032212 0.000000
0.005839 0.030202 0.000496
0.005839 0.030202 0.000496
0.011116 0.034420 0.000000
0.022844 0.036150 0.002364
0.034965 0.035873 0.006271
0.043370 0.037357 0.002277
0.051778 0.037497 0.005207
0.064875 0.038532 0.008360
0.075627 0.038951 0.012266
0.088725 0.039986 0.015418
0.107490 0.043227 0.018038
0.122934 0.044541 0.022168
0.141116 0.044123 0.028027
0.163595 0.046611 0.033356
0.189208 0.045357 0.041169
0.215795 0.045416 0.048226
0.249027 0.049331 0.052269
0.285783 0.047830 0.057821
0.322146 0.047332 0.067808
0.364963 0.045020 0.078774
0.418138 0.045474 0.091160
0.470730 0.042942 0.103324
0.525870 0.033682 0.117750
0.589998 0.026877 0.138788
0.659403 0.024287 0.158543
0.725484 0.019771 0.179803
0.785697 0.018374 0.208964
0.840827 0.017421 0.240609
0.898301 0.015738 0.278422
0.925474 0.014079 0.309931
0.927033 0.011993 0.342277
0.929380 0.009919 0.355367
0.929380 0.009919 0.355367
0.929380 0.010255 0.353638
0.929380 0.010255 0.353638
0.929380 0.010591 0.351906
0.929380 0.010591 0.351906
0.929380 0.010591 0.351906
0.929380 0.010591 0.351906
0.929380 0.010591 0.351906
0.929380 0.010591 0.351906
0.929380 0.010591 0.351906
0.929380 0.010591 0.351906
0.929380 0.010591 0.351906
0.929380 0.010591 0.351906
0.929380 0.010591 0.351906
0.929380 0.010591 0.351906
0.929380 0.010591 0.351906
0.929380 0.010591 0.351906
0.929380 0.010591 0.351906
0.929380 0.010591 0.351906
0.929380 0.010591 0.351906
0.929380 0.010591 0.351906
0.929380 0.010591 0.351906
0.929380 0.010591 0.351906
0.929380 0.010591 0.351906
0.929380 0.010591 0.351906
0.929380 0.010591 0.351906
0.929380 0.010591 0.351906
0.006808 0.043182 0.000000
0.006808 0.043182 0.000000
0.005246 0.038883 0.000187
0.005246 0.038883 0.000187
0.005246 0.038883 0.000187
0.005246 0.038883 0.000187
0.005246 0.038883 0.000187
0.005246 0.038883 0.000187
0.014628 0.040671 0.000633
0.022249 0.045168 0.000324
0.032025 0.044947 0.001524
0.042777 0.045366 0.005430
0.055876 0.046400 0.008582
0.064282 0.047213 0.008051
0.077378 0.047911 0.012933
0.094192 0.048527 0.017062
0.111196 0.054140 0.020661
0.128008 0.055092 0.023059
0.146191 0.054675 0.028919
0.169063 0.055152 0.035000
0.193306 0.055940 0.035891
0.223607 0.055581 0.043925
0.258210 0.058126 0.051431
0.293204 0.058997 0.057957
0.334650 0.057384 0.068922
0.378051 0.059067 0.074919
0.426344 0.053629 0.087614
0.486950 0.053584 0.100223
0.543650 0.048287 0.115848
0.607778 0.041817 0.135157
0.674060 0.030294 0.157703
0.739951 0.019772 0.184686
0.798794 0.019073 0.213847
0.844541 0.017338 0.239856
0.891264 0.015910 0.270301
0.924497 0.014110 0.303762
0.927427 0.011327 0.336111
0.929380 0.010255 0.353638
0.929380 0.010255 0.353638
0.929380 0.010591 0.351906
0.929380 0.010591 0.351906
0.929380 0.010591 0.351906
0.929380 0.010591 0.351906
0.929380 0.010591 0.351906
0.929380 0.010591 0.351906
0.929380 0.010591 0.351906
0.929380 0.010591 0.351906
0.929380 0.010591 0.351906
0.929380 0.010591 0.351906
0.929380 0.010591 0.351906
0.929380 0.010591 0.351906
0.929380 0.010591 0.351906
0.929380 0.010591 0.351906
0.929380 0.010591 0.351906
0.929380 0.010591 0.351906
0.929380 0.010591 0.351906
0.929380 0.010591 0.351906
0.929380 0.010591 0.351906
0.929380 0.010591 0.351906
0.929380 0.010591 0.351906
0.929380 0.010591 0.351906
0.929380 0.010591 0.351906
0.929380 0.010591 0.351906
0.929380 0.010591 0.351906
0.929380 0.010591 0.351906
0.007583 0.051166 0.000000
0.007583 0.051166 0.000000
0.006997 0.048178 0.000000
0.006997 0.048178 0.000000
0.006997 0.048178 0.000000
0.007583 0.051166 0.000000
0.007583 0.051166 0.000000
0.007583 0.051166 0.000000
0.012667 0.050049 0.000324
0.020679 0.052871 0.000000
0.032408 0.054267 0.003922
0.042184 0.053710 0.006852
0.054496 0.059101 0.006765
0.067595 0.059799 0.011648
0.082060 0.060136 0.014801
0.095158 0.061171 0.017952
0.111971 0.062796 0.016891
0.131129 0.064027 0.020266
0.147942 0.064307 0.026125
0.172768 0.067746 0.028970
0.201701 0.068420 0.035272
0.230635 0.068758 0.043309
0.262307 0.067701 0.051343
0.298862 0.072871 0.057341
0.340701 0.070256 0.063868
0.389186 0.070152 0.074301
0.443146 0.066586 0.088196
0.496322 0.068048 0.095390
0.559083 0.062947 0.111239
0.627318 0.054050 0.132278
0.693793 0.047860 0.152562
0.745408 0.042334 0.174133
0.792725 0.032896 0.201426
0.838480 0.018486 0.232711
0.884227 0.016080 0.262179
0.925865 0.014757 0.296840
0.927427 0.013007 0.327458
0.929380 0.010591 0.351906
0.929380 0.010591 0.351906
0.928010 0.011961 0.348446
0.928010 0.011961 0.348446
0.928010 0.011961 0.348446
0.928010 0.011961 0.348446
0.928010 0.011961 0.348446
0.928010 0.011961 0.348446
0.929380 0.010591 0.351906
0.929380 0.010591 0.351906
0.929380 0.010591 0.351906
0.929380 0.010591 0.351906
0.929380 0.010591 0.351906
0.929380 0.010591 0.351906
0.929380 0.010591 0.351906
0.929380 0.010591 0.351906
0.929380 0.010591 0.351906
0.929380 0.010591 0.351906
0.929380 0.010591 0.351906
0.929380 0.010591 0.351906
0.929380 0.010591 0.351906
0.929380 0.010591 0.351906
0.929380 0.010591 0.351906
0.929380 0.010591 0.351906
0.929380 0.010591 0.351906
0.929380 0.010591 0.351906
0.929380 0.010591 0.351906
0.929380 0.010591 0.351906
0.010704 0.059427 0.000016
0.010704 0.059427 0.000016
0.010704 0.059427 0.000016
0.008549 0.063809 0.000238
0.008549 0.063809 0.000238
0.008549 0.063809 0.000238
0.008549 0.063809 0.000238
0.008549 0.063809 0.000238
0.008942 0.061799 0.000993
0.023409 0.063144 0.000000
0.033768 0.065909 0.000374
0.043544 0.066024 0.000000
0.055856 0.071079 0.001488
0.067976 0.070801 0.005394
0.079705 0.072533 0.008547
0.094172 0.072870 0.011699
0.113330 0.073766 0.016806
0.130143 0.074381 0.020933
0.154970 0.077484 0.025507
0.175496 0.077683 0.030614
0.205406 0.079669 0.036164
0.236686 0.080622 0.043445
0.272264 0.084480 0.050196
0.306674 0.083036 0.053039
0.351836 0.081004 0.064980
0.402273 0.083525 0.073905
0.456818 0.083282 0.086294
0.512149 0.079691 0.096727
0.578231 0.076855 0.109337
0.636299 0.071533 0.121499
0.689868 0.068631 0.141563
0.741875 0.060760 0.165617
0.789384 0.057327 0.187187
0.836307 0.049226 0.217188
0.880693 0.035178 0.250204
0.925080 0.020458 0.286680
0.926450 0.013039 0.321289
0.927033 0.011321 0.345738
