lut/FujiFilm/gfx-eterna-55-F-Log2/PROVIA.cube
#title:FLog2_to_PROVIA
#model:GFX ETERNA 55
#FUJIFILM Corporation
#Gamma:F-Log2 to PROVIA
#Gamut:F-Gamut to ITU-R BT.709
#Version:1.00
LUT_3D_SIZE 65
0.000000 0.000000 0.000000
0.000000 0.000000 0.000000
0.000000 0.000000 0.000000
0.000000 0.000000 0.000000
0.000000 0.000000 0.000000
0.000000 0.000000 0.000000
0.002347 0.000616 0.000000
0.010752 0.001091 0.000445
0.020528 0.001206 0.000000
0.034995 0.001879 0.001337
0.047115 0.001937 0.003512
0.062951 0.001914 0.004934
0.075072 0.002307 0.005379
0.089540 0.003316 0.005070
0.105375 0.002956 0.008224
0.124926 0.002514 0.010620
0.144477 0.002406 0.011289
0.171065 0.003475 0.013156
0.200391 0.002811 0.016755
0.226003 0.002565 0.019375
0.253958 0.002935 0.021242
0.280939 0.001656 0.025595
0.317302 0.002838 0.026929
0.350344 0.002092 0.029773
0.384754 0.000313 0.034347
0.421117 0.000823 0.039144
0.461588 0.000000 0.043941
0.504012 0.000000 0.050692
0.556212 0.000097 0.056910
0.612125 0.000000 0.065835
0.665301 0.000282 0.078223
0.723561 0.000293 0.088125
0.785142 0.000214 0.106901
0.842034 0.000000 0.123727
0.897161 0.000000 0.150179
0.949553 0.000074 0.181825
0.969879 0.000221 0.221985
0.990205 0.000000 0.267336
0.993910 0.000191 0.321871
1.000000 0.000000 0.376406
0.999960 0.000000 0.387766
0.999960 0.000000 0.387766
0.999960 0.000000 0.384305
1.000000 0.000000 0.376406
1.000000 0.000000 0.376406
1.000000 0.000000 0.376406
1.000000 0.000000 0.376406
1.000000 0.000000 0.376406
1.000000 0.000000 0.376406
1.000000 0.000000 0.376406
1.000000 0.000000 0.376406
1.000000 0.000000 0.376406
1.000000 0.000000 0.376406
1.000000 0.000000 0.376406
1.000000 0.000000 0.376406
1.000000 0.000000 0.376406
1.000000 0.000000 0.376406
1.000000 0.000000 0.376406
1.000000 0.000000 0.376406
1.000000 0.000000 0.376406
1.000000 0.000000 0.376406
1.000000 0.000000 0.376406
1.000000 0.000000 0.376406
1.000000 0.000000 0.376406
1.000000 0.000000 0.376406
0.000000 0.000000 0.000000
0.000000 0.000000 0.000000
0.000000 0.000000 0.000000
0.000000 0.000000 0.000000
0.000000 0.000000 0.000000
0.000000 0.000000 0.000000
0.002347 0.000616 0.000000
0.010752 0.001091 0.000445
0.020528 0.001206 0.000000
0.034995 0.001879 0.001337
0.044769 0.001658 0.002535
0.056891 0.002388 0.001250
0.075072 0.002307 0.005379
0.085824 0.003398 0.005824
0.103030 0.002676 0.007247
0.124926 0.002514 0.010620
0.144477 0.002406 0.011289
0.166373 0.002243 0.014664
0.196676 0.003229 0.015778
0.218572 0.003066 0.019153
0.251614 0.002320 0.021996
0.279571 0.002690 0.023863
0.314957 0.002223 0.027684
0.347997 0.001141 0.032257
0.379669 0.001093 0.035102
0.416425 0.000000 0.038922
0.465303 0.000000 0.043187
0.516132 0.000341 0.049406
0.570677 0.000434 0.060063
0.626592 0.000166 0.068989
0.683482 0.000201 0.082351
0.744088 0.000154 0.094961
0.800979 0.000000 0.111784
0.858845 0.000000 0.131315
0.914951 0.000000 0.162207
0.956197 0.000569 0.196113
0.980239 0.000298 0.237251
0.991766 0.000000 0.285840
0.998209 0.000000 0.340375
0.999568 0.000623 0.390472
0.999960 0.000000 0.387766
0.999960 0.000000 0.384305
0.999960 0.000292 0.382574
1.000000 0.000000 0.376406
1.000000 0.000000 0.376406
1.000000 0.000000 0.376406
1.000000 0.000000 0.376406
1.000000 0.000000 0.376406
1.000000 0.000000 0.376406
1.000000 0.000000 0.376406
1.000000 0.000000 0.376406
1.000000 0.000000 0.376406
1.000000 0.000000 0.376406
1.000000 0.000000 0.376406
1.000000 0.000000 0.376406
1.000000 0.000000 0.376406
1.000000 0.000000 0.376406
1.000000 0.000000 0.376406
1.000000 0.000000 0.376406
1.000000 0.000000 0.376406
1.000000 0.000000 0.376406
1.000000 0.000000 0.376406
1.000000 0.000000 0.376406
1.000000 0.000000 0.376406
1.000000 0.000000 0.376406
0.000000 0.000000 0.000000
0.000000 0.000000 0.000000
0.000000 0.000000 0.000000
0.000000 0.000000 0.000000
0.000000 0.000000 0.000000
0.000000 0.000000 0.000000
0.000000 0.000000 0.000000
0.010752 0.001091 0.000445
0.020528 0.001206 0.000000
0.030303 0.000986 0.001113
0.044769 0.001658 0.002535
0.056891 0.002388 0.001250
0.071358 0.002726 0.004403
0.085824 0.003398 0.005824
0.103030 0.002676 0.007247
0.117497 0.003014 0.010399
0.140761 0.002826 0.010313
0.166373 0.002243 0.014664
0.188269 0.002752 0.014577
0.218572 0.003066 0.019153
0.249267 0.002041 0.021019
0.279571 0.002690 0.023863
0.310266 0.001665 0.025731
0.344283 0.001895 0.029551
0.384754 0.000313 0.034347
0.428548 0.000000 0.041098
0.476055 0.000250 0.043632
0.528255 0.000063 0.053313
0.581823 0.000000 0.061261
0.638714 0.000223 0.071164
0.700688 0.000000 0.082044
0.758555 0.000155 0.099844
0.820137 0.000413 0.116891
0.878003 0.000000 0.141614
0.936456 0.000720 0.170020
0.965580 0.000341 0.206942
0.986883 0.000000 0.256731
0.992350 0.000000 0.305099
1.000000 0.000305 0.363316
0.999960 0.000000 0.387766
0.999960 0.000000 0.387766
0.999960 0.000000 0.384305
0.998984 0.000000 0.378137
1.000000 0.000000 0.376406
1.000000 0.000000 0.376406
1.000000 0.000000 0.376406
1.000000 0.000000 0.376406
1.000000 0.000000 0.376406
1.000000 0.000000 0.376406
1.000000 0.000000 0.376406
1.000000 0.000000 0.376406
1.000000 0.000000 0.376406
1.000000 0.000000 0.376406
1.000000 0.000000 0.376406
1.000000 0.000000 0.376406
1.000000 0.000000 0.376406
1.000000 0.000000 0.376406
1.000000 0.000000 0.376406
1.000000 0.000000 0.376406
1.000000 0.000000 0.376406
1.000000 0.000000 0.376406
1.000000 0.000000 0.376406
1.000000 0.000000 0.376406
1.000000 0.000000 0.376406
1.000000 0.000000 0.376406
0.000000 0.000000 0.000000
0.000000 0.000000 0.000000
0.000000 0.000000 0.000000
0.000000 0.000000 0.000000
0.000000 0.000000 0.000000
0.000000 0.000000 0.000000
0.000000 0.000000 0.000000
0.008406 0.000813 0.000000
0.020528 0.001206 0.000000
0.030303 0.000986 0.001113
0.038709 0.001460 0.002313
0.053176 0.002134 0.003733
0.071358 0.002726 0.004403
0.084848 0.001750 0.008309
0.096969 0.002480 0.007023
0.117497 0.003014 0.010399
0.140761 0.002826 0.010313
0.162659 0.002326 0.015418
0.188269 0.002752 0.014577
0.216227 0.002786 0.018176
0.244184 0.002819 0.021773
0.273510 0.002493 0.023642
0.310266 0.001665 0.025731
0.350344 0.002092 0.029773
0.388077 0.001569 0.036300
0.438322 0.000101 0.040566
0.489545 0.000000 0.045809
0.541745 0.000000 0.053758
0.595313 0.000000 0.059975
0.653181 0.000224 0.076047
0.715155 0.000153 0.085196
0.778105 0.000000 0.102243
0.839687 0.000000 0.121019
0.893447 0.000051 0.149203
0.949553 0.000074 0.181825
0.972224 0.000164 0.224691
0.989812 0.000025 0.273504
0.997625 0.000000 0.326308
0.999960 0.000000 0.384305
0.999960 0.000000 0.387766
0.999960 0.000000 0.384305
0.999960 0.000292 0.382574
1.000000 0.000000 0.376406
1.000000 0.000000 0.376406
1.000000 0.000000 0.376406
1.000000 0.000000 0.376406
1.000000 0.000000 0.376406
1.000000 0.000000 0.376406
1.000000 0.000000 0.376406
1.000000 0.000000 0.376406
1.000000 0.000000 0.376406
1.000000 0.000000 0.376406
1.000000 0.000000 0.376406
1.000000 0.000000 0.376406
1.000000 0.000000 0.376406
1.000000 0.000000 0.376406
1.000000 0.000000 0.376406
1.000000 0.000000 0.376406
1.000000 0.000000 0.376406
1.000000 0.000000 0.376406
1.000000 0.000000 0.376406
1.000000 0.000000 0.376406
1.000000 0.000000 0.376406
1.000000 0.000000 0.376406
1.000000 0.000000 0.376406
0.000000 0.000000 0.000000
0.000000 0.000000 0.000000
0.000000 0.000000 0.000000
0.000000 0.000000 0.000000
0.000000 0.000000 0.000000
0.000000 0.000000 0.000000
0.000000 0.000000 0.000000
0.008406 0.000813 0.000000
0.016813 0.001288 0.000667
0.030303 0.000986 0.001113
0.038709 0.001460 0.002313
0.053176 0.002134 0.003733
0.065297 0.002528 0.004179
0.084848 0.001750 0.008309
0.096969 0.002480 0.007023
0.115150 0.002734 0.009422
0.137046 0.002908 0.011066
0.158943 0.003080 0.012711
0.184555 0.003171 0.013601
0.212512 0.002869 0.018929
0.244184 0.002819 0.021773
0.279571 0.002690 0.023863
0.317302 0.002838 0.026929
0.356405 0.001953 0.031726
0.400590 0.000000 0.037500
0.448098 0.000000 0.041765
0.497951 0.000000 0.048739
0.552496 0.000515 0.055933
0.608410 0.000246 0.064858
0.666670 0.000000 0.076492
0.731966 0.000096 0.092786
0.791203 0.000075 0.108854
0.852786 0.000000 0.127633
0.911237 0.000300 0.161231
0.955220 0.000000 0.195136
0.980239 0.000298 0.237251
0.991766 0.000000 0.287570
1.000000 0.000343 0.347520
0.999568 0.000623 0.390472
0.999960 0.000000 0.387766
0.999960 0.000000 0.384305
0.998984 0.000000 0.379867
1.000000 0.000000 0.376406
1.000000 0.000000 0.376406
1.000000 0.000000 0.376406
1.000000 0.000000 0.376406
1.000000 0.000000 0.376406
1.000000 0.000000 0.376406
1.000000 0.000000 0.376406
1.000000 0.000000 0.376406
1.000000 0.000000 0.376406
1.000000 0.000000 0.376406
1.000000 0.000000 0.376406
1.000000 0.000000 0.376406
1.000000 0.000000 0.376406
1.000000 0.000000 0.376406
1.000000 0.000000 0.376406
1.000000 0.000000 0.376406
1.000000 0.000000 0.376406
1.000000 0.000000 0.376406
1.000000 0.000000 0.376406
1.000000 0.000000 0.376406
1.000000 0.000000 0.376406
1.000000 0.000000 0.376406
1.000000 0.000000 0.376406
0.000000 0.000000 0.000000
0.000000 0.000000 0.000000
0.000000 0.000000 0.000000
0.000000 0.000000 0.000000
0.000000 0.000000 0.000000
0.000000 0.000000 0.000000
0.000000 0.000000 0.000000
0.008406 0.000813 0.000000
0.016813 0.001288 0.000667
0.026587 0.001403 0.000136
0.038709 0.001460 0.002313
0.053176 0.002134 0.003733
0.065297 0.002528 0.004179
0.078788 0.002225 0.004625
0.093254 0.002898 0.006046
0.115150 0.002734 0.009422
0.130987 0.002710 0.010844
0.158943 0.003080 0.012711
0.184555 0.003171 0.013601
0.216227 0.002786 0.018176
0.249267 0.002041 0.021019
0.280939 0.001656 0.025595
0.322387 0.001723 0.027906
0.361488 0.000838 0.032703
0.405282 0.000847 0.037723
0.456504 0.000021 0.044695
0.510073 0.000144 0.049184
0.565986 0.000000 0.058110
0.621900 0.000000 0.067035
0.681137 0.000258 0.079645
0.746433 0.000434 0.095938
0.807039 0.000051 0.110277
0.868230 0.000303 0.136954
0.925703 0.000000 0.167843
0.964603 0.000000 0.205965
0.985906 0.000000 0.250562
0.993326 0.000000 0.307804
0.999377 0.000330 0.366776
0.999960 0.000000 0.387766
0.999960 0.000000 0.387766
0.999960 0.000000 0.384305
1.000000 0.000000 0.378137
1.000000 0.000000 0.376406
1.000000 0.000000 0.376406
1.000000 0.000000 0.376406
1.000000 0.000000 0.376406
1.000000 0.000000 0.376406
1.000000 0.000000 0.376406
1.000000 0.000000 0.376406
1.000000 0.000000 0.376406
1.000000 0.000000 0.376406
1.000000 0.000000 0.376406
1.000000 0.000000 0.376406
1.000000 0.000000 0.376406
1.000000 0.000000 0.376406
1.000000 0.000000 0.376406
1.000000 0.000000 0.376406
1.000000 0.000000 0.376406
1.000000 0.000000 0.376406
1.000000 0.000000 0.376406
1.000000 0.000000 0.376406
1.000000 0.000000 0.376406
1.000000 0.000000 0.376406
1.000000 0.000000 0.376406
1.000000 0.000000 0.376406
0.000000 0.000000 0.000000
0.000000 0.000000 0.000000
0.000000 0.000000 0.000000
0.000000 0.000000 0.000000
0.000000 0.000000 0.000000
0.000000 0.000000 0.000000
0.000000 0.000000 0.000000
0.002347 0.000616 0.000000
0.016813 0.001288 0.000667
0.026587 0.001403 0.000136
0.034995 0.001879 0.001337
0.047115 0.001937 0.003512
0.062951 0.001914 0.004934
0.078788 0.002225 0.004625
0.093254 0.002898 0.006046
0.107721 0.003235 0.009200
0.130987 0.002710 0.010844
0.158943 0.003080 0.012711
0.188269 0.002752 0.014577
0.216227 0.002786 0.018176
0.253958 0.002935 0.021242
0.287976 0.002829 0.026792
0.327078 0.002617 0.028129
0.367549 0.000699 0.034656
0.414081 0.000000 0.037946
0.462565 0.000553 0.043187
0.516132 0.000341 0.049406
0.573416 0.000000 0.058331
0.632653 0.000026 0.070942
0.698341 0.000000 0.081067
0.758555 0.000155 0.099844
0.821506 0.000000 0.116891
0.884064 0.000000 0.143567
0.943885 0.000000 0.175434
0.968902 0.000000 0.219277
0.990205 0.000000 0.267336
0.997233 0.000775 0.327285
0.999960 0.000000 0.387766
0.999960 0.000000 0.387766
0.999960 0.000000 0.384305
0.998984 0.000000 0.379867
1.000000 0.000000 0.376406
1.000000 0.000000 0.376406
1.000000 0.000000 0.376406
1.000000 0.000000 0.376406
1.000000 0.000000 0.376406
1.000000 0.000000 0.376406
1.000000 0.000000 0.376406
1.000000 0.000000 0.376406
1.000000 0.000000 0.376406
1.000000 0.000000 0.376406
1.000000 0.000000 0.376406
1.000000 0.000000 0.376406
1.000000 0.000000 0.376406
1.000000 0.000000 0.376406
1.000000 0.000000 0.376406
1.000000 0.000000 0.376406
1.000000 0.000000 0.376406
1.000000 0.000000 0.376406
1.000000 0.000000 0.376406
1.000000 0.000000 0.376406
1.000000 0.000000 0.376406
1.000000 0.000000 0.376406
1.000000 0.000000 0.376406
1.000000 0.000000 0.376406
0.000775 0.007984 0.000000
0.000775 0.007984 0.000000
0.000775 0.007984 0.000000
0.000775 0.007984 0.000000
0.000775 0.007984 0.000000
0.000775 0.007984 0.000000
0.000775 0.007984 0.000000
0.004883 0.005891 0.000000
0.013289 0.006704 0.000000
0.021696 0.007179 0.000360
0.035185 0.007212 0.000000
0.048676 0.006909 0.000000
0.062166 0.006605 0.000000
0.076633 0.007279 0.001388
0.090123 0.006303 0.005294
0.113389 0.005778 0.006938
0.133917 0.006312 0.010313
0.160896 0.005369 0.012933
0.188461 0.008421 0.010586
0.221502 0.007004 0.016891
0.254543 0.005921 0.021464
0.289929 0.006126 0.021824
0.331769 0.003511 0.028351
0.371263 0.000616 0.033903
0.418772 0.000207 0.039899
0.468626 0.000750 0.043411
0.525908 0.000000 0.054067
0.581823 0.000000 0.061261
0.646143 0.000000 0.073117
0.705379 0.000038 0.085726
0.773022 0.000492 0.102995
0.838318 0.000000 0.122750
0.897161 0.000000 0.150179
0.951899 0.000000 0.187993
0.974571 0.000000 0.230860
0.990789 0.000000 0.283132
0.999186 0.000039 0.343083
0.999568 0.000623 0.390472
0.999960 0.000000 0.387766
0.999960 0.000000 0.384305
0.998984 0.000000 0.378137
1.000000 0.000000 0.376406
1.000000 0.000000 0.376406
1.000000 0.000000 0.376406
1.000000 0.000000 0.376406
1.000000 0.000000 0.376406
1.000000 0.000000 0.376406
1.000000 0.000000 0.376406
1.000000 0.000000 0.376406
1.000000 0.000000 0.376406
1.000000 0.000000 0.376406
1.000000 0.000000 0.376406
1.000000 0.000000 0.376406
1.000000 0.000000 0.376406
1.000000 0.000000 0.376406
1.000000 0.000000 0.376406
1.000000 0.000000 0.376406
1.000000 0.000000 0.376406
1.000000 0.000000 0.376406
1.000000 0.000000 0.376406
1.000000 0.000000 0.376406
1.000000 0.000000 0.376406
1.000000 0.000000 0.376406
1.000000 0.000000 0.376406
1.000000 0.000000 0.376406
0.000575 0.014654 0.000136
0.000575 0.014654 0.000136
0.000575 0.014654 0.000136
0.000575 0.014654 0.000136
0.000575 0.014654 0.000136
0.000575 0.014654 0.000136
0.000575 0.014654 0.000136
0.001943 0.013957 0.000136
0.011719 0.013735 0.001337
0.019148 0.013571 0.000000
0.032247 0.015277 0.000000
0.047105 0.014277 0.000000
0.059227 0.014670 0.000411
0.076432 0.013613 0.003562
0.093637 0.013563 0.001524
0.114557 0.012423 0.003922
0.136453 0.012596 0.005566
0.159911 0.017068 0.006680
0.189629 0.014730 0.009300
0.221301 0.015018 0.010415
0.259426 0.012821 0.015965
0.297550 0.011295 0.018054
0.338022 0.009377 0.024581
0.378493 0.007795 0.029379
0.426977 0.008699 0.034622
0.478985 0.003852 0.043102
0.535684 0.000235 0.050074
0.593943 0.000245 0.059975
0.654549 0.000199 0.072586
0.718869 0.000000 0.087903
0.785142 0.000214 0.106901
0.852786 0.000000 0.127633
0.912605 0.000000 0.161231
0.956197 0.000233 0.197844
0.982584 0.000000 0.243418
0.992350 0.000261 0.299907
1.000000 0.000305 0.363316
0.999960 0.000000 0.387766
0.999960 0.000000 0.387766
0.999960 0.000000 0.384305
0.998984 0.000000 0.379867
1.000000 0.000000 0.376406
1.000000 0.000000 0.376406
1.000000 0.000000 0.376406
1.000000 0.000000 0.376406
1.000000 0.000000 0.376406
1.000000 0.000000 0.376406
1.000000 0.000000 0.376406
1.000000 0.000000 0.376406
1.000000 0.000000 0.376406
1.000000 0.000000 0.376406
1.000000 0.000000 0.376406
1.000000 0.000000 0.376406
1.000000 0.000000 0.376406
1.000000 0.000000 0.376406
1.000000 0.000000 0.376406
1.000000 0.000000 0.376406
1.000000 0.000000 0.376406
1.000000 0.000000 0.376406
1.000000 0.000000 0.376406
1.000000 0.000000 0.376406
1.000000 0.000000 0.376406
1.000000 0.000000 0.376406
1.000000 0.000000 0.376406
1.000000 0.000000 0.376406
0.000373 0.021324 0.000582
0.000373 0.021324 0.000582
0.000373 0.021324 0.000582
0.000373 0.021324 0.000582
0.000373 0.021324 0.000582
0.000373 0.021324 0.000582
0.000373 0.021324 0.000582
0.000373 0.021324 0.000582
0.006434 0.021521 0.000803
0.019925 0.021554 0.000000
0.028330 0.022030 0.000718
0.043582 0.019355 0.000187
0.057264 0.024048 0.000102
0.072123 0.023048 0.000547
0.091674 0.023278 0.000000
0.108486 0.024230 0.001882
0.135467 0.023288 0.004505
0.162447 0.022344 0.007125
0.195489 0.021935 0.008238
0.222469 0.021663 0.007398
0.262939 0.019745 0.013926
0.302042 0.019196 0.016993
0.340750 0.020322 0.021035
0.387673 0.017262 0.025077
0.433229 0.014901 0.029121
0.490320 0.008602 0.040308
0.546234 0.009341 0.044043
0.605672 0.003321 0.056207
0.668039 0.000232 0.071302
0.737051 0.000326 0.086840
0.802347 0.000165 0.104863
0.861192 0.000137 0.130563
0.923357 0.000021 0.165137
0.964603 0.000000 0.204234
0.986883 0.000000 0.256731
0.992934 0.000223 0.315703
0.998984 0.000000 0.378137
0.999960 0.000000 0.387766
0.999960 0.000000 0.387766
0.999960 0.000000 0.384305
0.998984 0.000000 0.379867
1.000000 0.000000 0.376406
1.000000 0.000000 0.376406
1.000000 0.000000 0.376406
1.000000 0.000000 0.376406
1.000000 0.000000 0.376406
1.000000 0.000000 0.376406
1.000000 0.000000 0.376406
1.000000 0.000000 0.376406
1.000000 0.000000 0.376406
1.000000 0.000000 0.376406
1.000000 0.000000 0.376406
1.000000 0.000000 0.376406
1.000000 0.000000 0.376406
1.000000 0.000000 0.376406
1.000000 0.000000 0.376406
1.000000 0.000000 0.376406
1.000000 0.000000 0.376406
1.000000 0.000000 0.376406
1.000000 0.000000 0.376406
1.000000 0.000000 0.376406
1.000000 0.000000 0.376406
1.000000 0.000000 0.376406
1.000000 0.000000 0.376406
1.000000 0.000000 0.376406
0.000000 0.032015 0.000000
0.000000 0.032015 0.000000
0.000000 0.032015 0.000000
0.000000 0.032015 0.000000
0.000000 0.032015 0.000000
0.000000 0.032015 0.000000
0.001542 0.027298 0.001028
0.001542 0.027298 0.001028
0.000000 0.032015 0.000000
0.014247 0.031014 0.000000
0.027737 0.030710 0.000411
0.041227 0.030743 0.000000
0.053348 0.031138 0.000000
0.072899 0.031031 0.000238
0.090496 0.028971 0.000000
0.110048 0.028865 0.000000
0.134873 0.032976 0.000000
0.163222 0.031336 0.001626
0.189811 0.032067 0.005223
0.230282 0.031156 0.006560
0.265669 0.030690 0.010379
0.301446 0.027877 0.016683
0.346217 0.029871 0.017489
0.393141 0.027148 0.019800
0.442410 0.024032 0.026551
0.499109 0.020751 0.031793
0.556785 0.017776 0.041472
0.615044 0.017450 0.053105
0.680936 0.009617 0.066246
0.750150 0.002704 0.083070
0.817207 0.000000 0.103577
0.878397 0.000000 0.130254
0.940563 0.000000 0.166559
0.972618 0.000507 0.213333
0.991181 0.000336 0.268312
0.993910 0.000527 0.320139
0.999377 0.000000 0.368507
0.999960 0.000000 0.387766
0.999960 0.000000 0.387766
0.999960 0.000000 0.384305
0.998984 0.000000 0.379867
1.000000 0.000000 0.376406
1.000000 0.000000 0.376406
1.000000 0.000000 0.376406
1.000000 0.000000 0.376406
1.000000 0.000000 0.376406
1.000000 0.000000 0.376406
1.000000 0.000000 0.376406
1.000000 0.000000 0.376406
1.000000 0.000000 0.376406
1.000000 0.000000 0.376406
1.000000 0.000000 0.376406
1.000000 0.000000 0.376406
1.000000 0.000000 0.376406
1.000000 0.000000 0.376406
1.000000 0.000000 0.376406
1.000000 0.000000 0.376406
1.000000 0.000000 0.376406
1.000000 0.000000 0.376406
1.000000 0.000000 0.376406
1.000000 0.000000 0.376406
1.000000 0.000000 0.376406
1.000000 0.000000 0.376406
1.000000 0.000000 0.376406
1.000000 0.000000 0.376406
0.000162 0.039999 0.000000
0.000162 0.039999 0.000000
0.000000 0.037011 0.000000
0.000000 0.037011 0.000000
0.000000 0.037011 0.000000
0.000000 0.037011 0.000000
0.000000 0.037011 0.000000
0.000000 0.037011 0.000000
0.001925 0.037290 0.000000
0.009937 0.039777 0.000411
0.022059 0.040506 0.000000
0.036918 0.039507 0.000000
0.055099 0.040097 0.000238
0.067221 0.040491 0.000683
0.089510 0.039327 0.000000
0.109061 0.039220 0.000289
0.134280 0.041320 0.000425
0.164582 0.042642 0.000000
0.197623 0.041559 0.004382
0.233011 0.041093 0.008204
0.268790 0.039960 0.005855
0.309259 0.038378 0.010653
0.353053 0.038724 0.013941
0.399977 0.035328 0.019715
0.452568 0.033804 0.026687
0.505160 0.033624 0.026738
0.564597 0.027940 0.037171
0.628335 0.025161 0.047075
0.694809 0.020316 0.060438
0.762653 0.013763 0.078992
0.827365 0.009608 0.101984
0.893840 0.002410 0.127460
0.955030 0.000000 0.167982
0.986108 0.001548 0.206855
1.000000 0.007832 0.248969
0.999780 0.000000 0.300129
1.000000 0.000000 0.352712
0.998984 0.000000 0.379867
0.998984 0.000000 0.379867
1.000000 0.000000 0.376406
1.000000 0.000000 0.376406
0.999377 0.000000 0.371968
0.999377 0.000000 0.371968
1.000000 0.000000 0.374676
1.000000 0.000000 0.376406
1.000000 0.000000 0.376406
1.000000 0.000000 0.376406
1.000000 0.000000 0.376406
1.000000 0.000000 0.376406
1.000000 0.000000 0.376406
1.000000 0.000000 0.376406
1.000000 0.000000 0.376406
1.000000 0.000000 0.376406
1.000000 0.000000 0.376406
1.000000 0.000000 0.376406
1.000000 0.000000 0.376406
1.000000 0.000000 0.376406
1.000000 0.000000 0.376406
1.000000 0.000000 0.376406
1.000000 0.000000 0.376406
1.000000 0.000000 0.376406
1.000000 0.000000 0.376406
1.000000 0.000000 0.376406
1.000000 0.000000 0.376406
1.000000 0.000000 0.376406
0.001521 0.050632 0.000854
0.001521 0.050632 0.000854
0.000000 0.046669 0.000000
0.000000 0.046669 0.000000
0.000000 0.046669 0.000000
0.001521 0.050632 0.000854
0.001521 0.050632 0.000854
0.001521 0.050632 0.000854
0.001521 0.050632 0.000854
0.002891 0.050270 0.000000
0.017358 0.050943 0.000547
0.031240 0.048967 0.000016
0.047660 0.052265 0.000000
0.065841 0.052856 0.000598
0.085393 0.053086 0.000000
0.107682 0.051584 0.000204
0.133294 0.052011 0.000000
0.166333 0.051937 0.000000
0.194290 0.052307 0.000613
0.228308 0.053546 0.000000
0.270148 0.051266 0.004039
0.306904 0.050438 0.006128
0.354805 0.048355 0.011147
0.400944 0.048981 0.015414
0.457643 0.046036 0.018926
0.513949 0.044765 0.023413
0.575733 0.039025 0.036555
0.637124 0.036639 0.042019
0.705943 0.032408 0.054629
0.776133 0.026135 0.074160
0.840846 0.022653 0.093692
0.893045 0.019441 0.118946
0.946613 0.014189 0.151122
0.990991 0.011135 0.187513
0.999186 0.021884 0.230602
0.999770 0.014789 0.282738
1.000000 0.008028 0.333144
0.999377 0.000000 0.368507
0.999377 0.000000 0.370239
1.000000 0.000971 0.369484
0.999960 0.003653 0.365269
1.000000 0.006641 0.365493
0.999176 0.007338 0.365493
0.999568 0.005664 0.364516
0.999960 0.003653 0.365269
0.999377 0.000000 0.368507
1.000000 0.000299 0.372945
0.999377 0.000000 0.371968
1.000000 0.000000 0.376406
1.000000 0.000000 0.376406
1.000000 0.000000 0.376406
1.000000 0.000000 0.376406
1.000000 0.000000 0.376406
1.000000 0.000000 0.376406
1.000000 0.000000 0.376406
1.000000 0.000000 0.376406
1.000000 0.000000 0.376406
1.000000 0.000000 0.376406
1.000000 0.000000 0.376406
1.000000 0.000000 0.376406
1.000000 0.000000 0.376406
1.000000 0.000000 0.376406
1.000000 0.000000 0.376406
1.000000 0.000000 0.376406
1.000000 0.000000 0.376406
0.000928 0.059312 0.000547
0.000928 0.059312 0.000547
0.000928 0.059312 0.000547
0.000142 0.063332 0.000000
0.000142 0.063332 0.000000
0.000142 0.063332 0.000000
0.000142 0.063332 0.000000
0.000142 0.063332 0.000000
0.000142 0.063332 0.000000
0.000142 0.063332 0.000000
0.015978 0.063309 0.000460
0.029468 0.063341 0.000000
0.045888 0.066303 0.000820
0.063093 0.065918 0.000511
0.080298 0.065532 0.000204
0.102196 0.066041 0.000116
0.132891 0.065352 0.000254
0.157526 0.064466 0.000167
0.196235 0.066263 0.000749
0.228298 0.064877 0.000887
0.268770 0.064303 0.000493
0.314323 0.061605 0.006264
0.359094 0.063263 0.008802
0.408363 0.061492 0.008629
0.464086 0.056562 0.016356
0.522738 0.055235 0.023550
0.582367 0.054884 0.031723
0.651581 0.050660 0.034703
0.719032 0.046454 0.050774
0.775730 0.041157 0.066399
0.833014 0.038846 0.082246
0.889321 0.033880 0.105771
0.941127 0.031334 0.137192
0.994695 0.025745 0.171098
0.999961 0.033227 0.212988
0.999760 0.030489 0.261886
1.000000 0.023392 0.314024
0.999951 0.016664 0.358262
