lut/FujiFilm/gfx-eterna-55-F-Log2/REALA-ACE.cube
#title:FLog2_to_REALA-ACE
#model:GFX ETERNA 55
#FUJIFILM Corporation
#Gamma:F-Log2 to REALA ACE
#Gamut:F-Gamut to ITU-R BT.709
#Version:1.00
LUT_3D_SIZE 65
0.000000 0.000000 0.000000
0.000000 0.000000 0.000000
0.000000 0.000000 0.000000
0.000000 0.000000 0.000000
0.000000 0.000000 0.000000
0.000000 0.000000 0.000000
0.000977 0.000977 0.000977
0.006061 0.000197 0.000222
0.009776 0.000115 0.000000
0.019551 0.000000 0.000667
0.029326 0.000009 0.000136
0.035386 0.000205 0.000360
0.045162 0.000000 0.001559
0.054938 0.000099 0.001028
0.064713 0.000213 0.000496
0.075858 0.000000 0.000000
0.091693 0.000000 0.000000
0.111244 0.000000 0.002055
0.136855 0.000000 0.001215
0.160121 0.000000 0.001130
0.196877 0.000000 0.001488
0.232264 0.000000 0.001848
0.282117 0.000331 0.003630
0.327280 0.000315 0.005188
0.372442 0.000299 0.006747
0.413889 0.000366 0.009058
0.455336 0.000000 0.014832
0.494438 0.000219 0.012708
0.538230 0.000229 0.017727
0.585739 0.000155 0.021991
0.628161 0.000191 0.030473
0.670586 0.000225 0.038953
0.719071 0.000457 0.047657
0.767163 0.000011 0.069449
0.808207 0.007033 0.105531
0.852124 0.084635 0.156141
0.869692 0.109848 0.194398
0.887260 0.134052 0.237848
0.896039 0.146107 0.289812
0.902473 0.155529 0.352913
0.903450 0.156170 0.355622
0.903841 0.155840 0.347723
0.902865 0.155200 0.345016
0.903841 0.157521 0.339071
0.903841 0.158865 0.332147
0.903841 0.158865 0.332147
0.903841 0.158865 0.332147
0.903841 0.158865 0.332147
0.903841 0.158865 0.332147
0.903841 0.158865 0.332147
0.903841 0.158865 0.332147
0.903841 0.158865 0.332147
0.903841 0.158865 0.332147
0.903841 0.158865 0.332147
0.903841 0.158865 0.332147
0.903841 0.158865 0.332147
0.903841 0.158865 0.332147
0.903841 0.158865 0.332147
0.903841 0.158865 0.332147
0.903841 0.158865 0.332147
0.903841 0.158865 0.332147
0.903841 0.158865 0.332147
0.903841 0.158865 0.332147
0.903841 0.158865 0.332147
0.903841 0.158865 0.332147
0.000000 0.000000 0.000000
0.000000 0.000000 0.000000
0.000000 0.000000 0.000000
0.000000 0.000000 0.000000
0.000000 0.000000 0.000000
0.000000 0.000000 0.000000
0.000977 0.000977 0.000977
0.006061 0.000197 0.000222
0.009776 0.000115 0.000000
0.019551 0.000000 0.000667
0.023266 0.000000 0.000000
0.033042 0.000000 0.000000
0.045162 0.000000 0.001559
0.052592 0.000000 0.001780
0.062368 0.000000 0.000000
0.075858 0.000000 0.000000
0.091693 0.000000 0.000000
0.107530 0.000000 0.001079
0.134510 0.000000 0.001969
0.156406 0.000000 0.001882
0.195508 0.000000 0.001488
0.230894 0.000150 0.001848
0.278402 0.000413 0.004382
0.324933 0.000372 0.002480
0.370095 0.000356 0.004039
0.406851 0.000000 0.006128
0.461396 0.000293 0.013324
0.508905 0.000220 0.017591
0.551721 0.000000 0.018172
0.596490 0.000240 0.027629
0.640284 0.000000 0.034380
0.686422 0.000000 0.042105
0.731191 0.000515 0.049831
0.782606 0.000000 0.082231
0.821868 0.032035 0.120848
0.862081 0.098053 0.172297
0.875158 0.115701 0.209887
0.893311 0.141883 0.258751
0.900137 0.150641 0.315684
0.902473 0.154857 0.356374
0.902473 0.155529 0.352913
0.903841 0.155504 0.349453
0.903841 0.156848 0.342531
0.903841 0.158193 0.335610
0.903841 0.158865 0.332147
0.903841 0.158865 0.332147
0.903841 0.158865 0.332147
0.903841 0.158865 0.332147
0.903841 0.158865 0.332147
0.903841 0.158865 0.332147
0.903841 0.158865 0.332147
0.903841 0.158865 0.332147
0.903841 0.158865 0.332147
0.903841 0.158865 0.332147
0.903841 0.158865 0.332147
0.903841 0.158865 0.332147
0.903841 0.158865 0.332147
0.903841 0.158865 0.332147
0.903841 0.158865 0.332147
0.903841 0.158865 0.332147
0.903841 0.158865 0.332147
0.903841 0.158865 0.332147
0.903841 0.158865 0.332147
0.903841 0.158865 0.332147
0.903841 0.158865 0.332147
0.000000 0.000000 0.000000
0.000000 0.000000 0.000000
0.000000 0.000000 0.000000
0.000000 0.000000 0.000000
0.000000 0.000000 0.000000
0.000000 0.000000 0.000000
0.000000 0.000000 0.000000
0.006061 0.000197 0.000222
0.009776 0.000115 0.000000
0.015837 0.000312 0.000000
0.023266 0.000000 0.000000
0.033042 0.000000 0.000000
0.042816 0.000000 0.000582
0.052592 0.000000 0.001780
0.062368 0.000000 0.000000
0.074488 0.000000 0.001695
0.090325 0.000304 0.001388
0.107530 0.000000 0.001079
0.127081 0.000000 0.001746
0.156406 0.000000 0.001882
0.182018 0.000248 0.001044
0.230894 0.000150 0.001848
0.276056 0.000134 0.003406
0.322589 0.000000 0.003235
0.372442 0.000299 0.006747
0.418973 0.000000 0.008306
0.472542 0.000046 0.011062
0.518681 0.000335 0.017058
0.563841 0.000000 0.022078
0.609003 0.000000 0.023637
0.653774 0.000000 0.033094
0.698543 0.000000 0.044281
0.743314 0.000000 0.057199
0.795703 0.000000 0.090575
0.835924 0.055029 0.136919
0.866570 0.103938 0.181616
0.879256 0.122252 0.225375
0.895456 0.145473 0.277477
0.901305 0.152245 0.338625
0.903450 0.156170 0.355622
0.902473 0.155529 0.352913
0.902865 0.155200 0.345016
0.903841 0.157521 0.339071
0.903841 0.158865 0.332147
0.903841 0.158865 0.332147
0.903841 0.158865 0.332147
0.903841 0.158865 0.332147
0.903841 0.158865 0.332147
0.903841 0.158865 0.332147
0.903841 0.158865 0.332147
0.903841 0.158865 0.332147
0.903841 0.158865 0.332147
0.903841 0.158865 0.332147
0.903841 0.158865 0.332147
0.903841 0.158865 0.332147
0.903841 0.158865 0.332147
0.903841 0.158865 0.332147
0.903841 0.158865 0.332147
0.903841 0.158865 0.332147
0.903841 0.158865 0.332147
0.903841 0.158865 0.332147
0.903841 0.158865 0.332147
0.903841 0.158865 0.332147
0.903841 0.158865 0.332147
0.903841 0.158865 0.332147
0.000000 0.000000 0.000000
0.000000 0.000000 0.000000
0.000000 0.000000 0.000000
0.000000 0.000000 0.000000
0.000000 0.000000 0.000000
0.000000 0.000000 0.000000
0.000000 0.000000 0.000000
0.003715 0.000000 0.000000
0.009776 0.000115 0.000000
0.015837 0.000312 0.000000
0.019551 0.000000 0.000667
0.029326 0.000009 0.000136
0.042816 0.000000 0.000582
0.048876 0.000000 0.000803
0.062368 0.000000 0.000000
0.074488 0.000000 0.001695
0.090325 0.000304 0.001388
0.103815 0.000337 0.000102
0.127081 0.000000 0.001746
0.152691 0.000239 0.000905
0.180649 0.000609 0.002774
0.226203 0.000000 0.000000
0.276056 0.000134 0.003406
0.327280 0.000315 0.005188
0.376156 0.000217 0.005992
0.433439 0.000000 0.011456
0.480948 0.000187 0.013992
0.529824 0.000000 0.016527
0.572248 0.000123 0.023277
0.621126 0.000000 0.027544
0.663549 0.000000 0.036023
0.710664 0.000000 0.046456
0.761102 0.000486 0.065766
0.806647 0.003406 0.102601
0.853100 0.085948 0.155386
0.869692 0.109848 0.194398
0.888236 0.134356 0.242285
0.897600 0.148389 0.299664
0.903450 0.156170 0.355622
0.903450 0.156170 0.355622
0.903841 0.155840 0.347723
0.903841 0.156848 0.342531
0.903841 0.158193 0.335610
0.903841 0.158865 0.332147
0.903841 0.158865 0.332147
0.903841 0.158865 0.332147
0.903841 0.158865 0.332147
0.903841 0.158865 0.332147
0.903841 0.158865 0.332147
0.903841 0.158865 0.332147
0.903841 0.158865 0.332147
0.903841 0.158865 0.332147
0.903841 0.158865 0.332147
0.903841 0.158865 0.332147
0.903841 0.158865 0.332147
0.903841 0.158865 0.332147
0.903841 0.158865 0.332147
0.903841 0.158865 0.332147
0.903841 0.158865 0.332147
0.903841 0.158865 0.332147
0.903841 0.158865 0.332147
0.903841 0.158865 0.332147
0.903841 0.158865 0.332147
0.903841 0.158865 0.332147
0.903841 0.158865 0.332147
0.000000 0.000000 0.000000
0.000000 0.000000 0.000000
0.000000 0.000000 0.000000
0.000000 0.000000 0.000000
0.000000 0.000000 0.000000
0.000000 0.000000 0.000000
0.000000 0.000000 0.000000
0.003715 0.000000 0.000000
0.009382 0.001789 0.000445
0.015837 0.000312 0.000000
0.019551 0.000000 0.000667
0.029326 0.000009 0.000136
0.037733 0.000484 0.001337
0.048876 0.000000 0.000803
0.062368 0.000000 0.000000
0.072142 0.000000 0.000718
0.087978 0.000025 0.000411
0.103815 0.000001 0.001831
0.123364 0.000231 0.000769
0.146630 0.000042 0.000683
0.180649 0.000609 0.002774
0.230894 0.000150 0.001848
0.282117 0.000331 0.003630
0.338424 0.000000 0.004656
0.389647 0.000000 0.006438
0.441846 0.000735 0.010926
0.490724 0.000302 0.013461
0.538230 0.000000 0.019457
0.583393 0.000000 0.021015
0.631878 0.000000 0.031450
0.676646 0.000086 0.040906
0.722786 0.000039 0.048634
0.773222 0.000000 0.074864
0.820309 0.028073 0.119648
0.862081 0.098725 0.168836
0.875158 0.115701 0.209887
0.893311 0.141547 0.260480
0.899160 0.148656 0.319898
0.903450 0.156170 0.355622
0.903841 0.155168 0.351184
0.903841 0.155840 0.347723
0.903841 0.157185 0.340800
0.903841 0.158865 0.332147
0.903841 0.158865 0.332147
0.903841 0.158865 0.332147
0.903841 0.158865 0.332147
0.903841 0.158865 0.332147
0.903841 0.158865 0.332147
0.903841 0.158865 0.332147
0.903841 0.158865 0.332147
0.903841 0.158865 0.332147
0.903841 0.158865 0.332147
0.903841 0.158865 0.332147
0.903841 0.158865 0.332147
0.903841 0.158865 0.332147
0.903841 0.158865 0.332147
0.903841 0.158865 0.332147
0.903841 0.158865 0.332147
0.903841 0.158865 0.332147
0.903841 0.158865 0.332147
0.903841 0.158865 0.332147
0.903841 0.158865 0.332147
0.903841 0.158865 0.332147
0.903841 0.158865 0.332147
0.903841 0.158865 0.332147
0.000000 0.000000 0.000000
0.000000 0.000000 0.000000
0.000000 0.000000 0.000000
0.000000 0.000000 0.000000
0.000000 0.000000 0.000000
0.000000 0.000000 0.000000
0.000000 0.000000 0.000000
0.003715 0.000000 0.000000
0.009382 0.001789 0.000445
0.012120 0.000394 0.000445
0.019551 0.000000 0.000667
0.029326 0.000009 0.000136
0.037733 0.000484 0.001337
0.045162 0.000000 0.001559
0.056307 0.000000 0.000000
0.072142 0.000000 0.000718
0.084264 0.000444 0.000000
0.103815 0.000001 0.001831
0.123364 0.000231 0.000769
0.152691 0.000239 0.000905
0.182018 0.000248 0.001044
0.232264 0.000000 0.001848
0.299322 0.000000 0.003321
0.340770 0.000000 0.007363
0.393361 0.000000 0.005683
0.448300 0.000000 0.010171
0.499521 0.000000 0.011954
0.548006 0.000344 0.017196
0.594145 0.000000 0.026652
0.640284 0.000000 0.034380
0.686422 0.000000 0.042105
0.738621 0.000000 0.053517
0.787297 0.000201 0.084184
0.829873 0.044509 0.129859
0.864617 0.101985 0.179663
0.879256 0.122924 0.221915
0.895456 0.145473 0.277477
0.901305 0.151573 0.342086
0.902473 0.155529 0.352913
0.903841 0.155504 0.349453
0.902865 0.155872 0.341555
0.903841 0.158529 0.333879
0.903841 0.158865 0.332147
0.903841 0.158865 0.332147
0.903841 0.158865 0.332147
0.903841 0.158865 0.332147
0.903841 0.158865 0.332147
0.903841 0.158865 0.332147
0.903841 0.158865 0.332147
0.903841 0.158865 0.332147
0.903841 0.158865 0.332147
0.903841 0.158865 0.332147
0.903841 0.158865 0.332147
0.903841 0.158865 0.332147
0.903841 0.158865 0.332147
0.903841 0.158865 0.332147
0.903841 0.158865 0.332147
0.903841 0.158865 0.332147
0.903841 0.158865 0.332147
0.903841 0.158865 0.332147
0.903841 0.158865 0.332147
0.903841 0.158865 0.332147
0.903841 0.158865 0.332147
0.903841 0.158865 0.332147
0.903841 0.158865 0.332147
0.000000 0.000000 0.000000
0.000000 0.000000 0.000000
0.000000 0.000000 0.000000
0.000000 0.000000 0.000000
0.000000 0.000000 0.000000
0.000000 0.000000 0.000000
0.000000 0.000000 0.000000
0.000977 0.000977 0.000977
0.009382 0.001789 0.000445
0.012120 0.000394 0.000445
0.019551 0.000000 0.000667
0.029326 0.000009 0.000136
0.035386 0.000205 0.000360
0.045162 0.000000 0.001559
0.056307 0.000000 0.000000
0.069797 0.000000 0.000000
0.084264 0.000444 0.000000
0.103815 0.000001 0.001831
0.127081 0.000000 0.001746
0.152691 0.000239 0.000905
0.196877 0.000000 0.001488
0.248099 0.000000 0.001539
0.300692 0.000000 0.001590
0.346831 0.000208 0.005855
0.405482 0.000000 0.007859
0.461396 0.000000 0.015053
0.508905 0.000220 0.017591
0.555436 0.000000 0.019149
0.601574 0.000000 0.025145
0.650059 0.000027 0.033848
0.698543 0.000000 0.044281
0.748005 0.000123 0.059152
0.798049 0.000000 0.093280
0.845487 0.071464 0.147129
0.870083 0.108846 0.189960
0.887260 0.134052 0.237848
0.897992 0.146716 0.298688
0.903450 0.155834 0.357351
0.902473 0.155529 0.352913
0.903841 0.155840 0.347723
0.903841 0.157185 0.340800
0.903841 0.158865 0.332147
0.903841 0.158865 0.332147
0.903841 0.158865 0.332147
0.903841 0.158865 0.332147
0.903841 0.158865 0.332147
0.903841 0.158865 0.332147
0.903841 0.158865 0.332147
0.903841 0.158865 0.332147
0.903841 0.158865 0.332147
0.903841 0.158865 0.332147
0.903841 0.158865 0.332147
0.903841 0.158865 0.332147
0.903841 0.158865 0.332147
0.903841 0.158865 0.332147
0.903841 0.158865 0.332147
0.903841 0.158865 0.332147
0.903841 0.158865 0.332147
0.903841 0.158865 0.332147
0.903841 0.158865 0.332147
0.903841 0.158865 0.332147
0.903841 0.158865 0.332147
0.903841 0.158865 0.332147
0.903841 0.158865 0.332147
0.903841 0.158865 0.332147
0.000192 0.004997 0.000000
0.000192 0.004997 0.000000
0.000192 0.004997 0.000000
0.000192 0.004997 0.000000
0.000192 0.004997 0.000000
0.000192 0.004997 0.000000
0.000192 0.004997 0.000000
0.000192 0.004997 0.000000
0.008991 0.003799 0.000000
0.012705 0.003380 0.000667
0.022481 0.003495 0.000136
0.031279 0.002298 0.000360
0.037733 0.000821 0.000000
0.045162 0.000321 0.000000
0.058652 0.000017 0.000273
0.070773 0.000411 0.000718
0.085634 0.000000 0.000000
0.105183 0.000000 0.000102
0.129426 0.000428 0.000993
0.167551 0.000000 0.000000
0.196877 0.000000 0.000000
0.251815 0.000000 0.000785
0.310074 0.000701 0.005496
0.357975 0.000000 0.003593
0.409198 0.000000 0.007105
0.462766 0.000000 0.011593
0.513987 0.000000 0.016836
0.563841 0.000000 0.022078
0.611350 0.000000 0.024614
0.658465 0.000167 0.036778
0.710664 0.000000 0.048187
0.761102 0.000486 0.065766
0.808207 0.007033 0.105531
0.854660 0.089239 0.160047
0.873205 0.114420 0.204473
0.892334 0.141579 0.254311
0.900137 0.150641 0.315684
0.903450 0.155834 0.357351
0.903841 0.155504 0.349453
0.902865 0.155200 0.345016
0.903841 0.157521 0.339071
0.903841 0.158865 0.332147
0.903841 0.158865 0.332147
0.903841 0.158865 0.332147
0.903841 0.158865 0.332147
0.903841 0.158865 0.332147
0.903841 0.158865 0.332147
0.903841 0.158865 0.332147
0.903841 0.158865 0.332147
0.903841 0.158865 0.332147
0.903841 0.158865 0.332147
0.903841 0.158865 0.332147
0.903841 0.158865 0.332147
0.903841 0.158865 0.332147
0.903841 0.158865 0.332147
0.903841 0.158865 0.332147
0.903841 0.158865 0.332147
0.903841 0.158865 0.332147
0.903841 0.158865 0.332147
0.903841 0.158865 0.332147
0.903841 0.158865 0.332147
0.903841 0.158865 0.332147
0.903841 0.158865 0.332147
0.903841 0.158865 0.332147
0.903841 0.158865 0.332147
0.000000 0.008681 0.000000
0.000000 0.008681 0.000000
0.000000 0.008681 0.000000
0.000000 0.008681 0.000000
0.000000 0.008681 0.000000
0.000000 0.008681 0.000000
0.000000 0.008681 0.000000
0.000000 0.006671 0.000445
0.005859 0.006867 0.000667
0.011921 0.007401 0.000000
0.021696 0.007179 0.000360
0.029125 0.006679 0.000582
0.037531 0.007491 0.000051
0.049068 0.004899 0.000273
0.060213 0.004317 0.000000
0.076441 0.002618 0.000187
0.091301 0.001953 0.000000
0.112221 0.001150 0.000000
0.136855 0.000264 0.000000
0.175957 0.000050 0.000820
0.226203 0.000000 0.000000
0.277426 0.000109 0.000000
0.322589 0.000429 0.000000
0.371465 0.000000 0.002309
0.422688 0.000176 0.004090
0.475280 0.000000 0.007601
0.521419 0.000285 0.010137
0.571272 0.000155 0.017109
0.617411 0.000107 0.024836
0.667264 0.000000 0.033539
0.720439 0.000000 0.049386
0.771854 0.000233 0.073133
0.820309 0.028073 0.119648
0.862081 0.098053 0.172297
0.876719 0.119327 0.212816
0.894871 0.143831 0.270332
0.901305 0.152917 0.335165
0.902473 0.155529 0.352913
0.903841 0.155504 0.349453
0.902865 0.155200 0.345016
0.903841 0.157185 0.340800
0.903841 0.158865 0.332147
0.903841 0.158865 0.332147
0.903841 0.158865 0.332147
0.903841 0.158865 0.332147
0.903841 0.158865 0.332147
0.903841 0.158865 0.332147
0.903841 0.158865 0.332147
0.903841 0.158865 0.332147
0.903841 0.158865 0.332147
0.903841 0.158865 0.332147
0.903841 0.158865 0.332147
0.903841 0.158865 0.332147
0.903841 0.158865 0.332147
0.903841 0.158865 0.332147
0.903841 0.158865 0.332147
0.903841 0.158865 0.332147
0.903841 0.158865 0.332147
0.903841 0.158865 0.332147
0.903841 0.158865 0.332147
0.903841 0.158865 0.332147
0.903841 0.158865 0.332147
0.903841 0.158865 0.332147
0.903841 0.158865 0.332147
0.903841 0.158865 0.332147
0.000967 0.012981 0.000000
0.000967 0.012981 0.000000
0.000967 0.012981 0.000000
0.000967 0.012981 0.000000
0.000967 0.012981 0.000000
0.000967 0.012981 0.000000
0.000967 0.012981 0.000000
0.000967 0.012981 0.000000
0.002337 0.012283 0.000000
0.013089 0.013374 0.000000
0.018171 0.012258 0.000582
0.027556 0.014383 0.000000
0.040652 0.016089 0.000000
0.049452 0.014892 0.000000
0.064311 0.013892 0.000000
0.079170 0.012890 0.000102
0.096767 0.010831 0.000000
0.119057 0.009330 0.000000
0.156598 0.005154 0.000000
0.186316 0.003488 0.000000
0.238325 0.000000 0.000340
0.284855 0.000000 0.000167
0.337447 0.000000 0.000218
0.386323 0.000000 0.000000
0.437547 0.000183 0.000000
0.486424 0.000000 0.003610
0.533932 0.000000 0.006144
0.580071 0.000000 0.013872
0.628555 0.000000 0.022574
0.679385 0.000372 0.032253
0.730215 0.000547 0.043663
0.782606 0.000651 0.077039
0.829873 0.044845 0.128130
0.867547 0.105587 0.179133
0.884138 0.127470 0.228528
0.897409 0.146081 0.286351
0.903450 0.156170 0.355622
0.903450 0.156170 0.355622
0.902473 0.155529 0.352913
0.903841 0.155840 0.347723
0.903841 0.157185 0.340800
0.903841 0.158193 0.335610
0.903841 0.158865 0.332147
0.903841 0.158865 0.332147
0.903841 0.158865 0.332147
0.903841 0.158865 0.332147
0.903841 0.158865 0.332147
0.903841 0.158865 0.332147
0.903841 0.158865 0.332147
0.903841 0.158865 0.332147
0.903841 0.158865 0.332147
0.903841 0.158865 0.332147
0.903841 0.158865 0.332147
0.903841 0.158865 0.332147
0.903841 0.158865 0.332147
0.903841 0.158865 0.332147
0.903841 0.158865 0.332147
0.903841 0.158865 0.332147
0.903841 0.158865 0.332147
0.903841 0.158865 0.332147
0.903841 0.158865 0.332147
0.903841 0.158865 0.332147
0.903841 0.158865 0.332147
0.903841 0.158865 0.332147
0.903841 0.158865 0.332147
0.000000 0.020348 0.000000
0.000000 0.020348 0.000000
0.000000 0.020348 0.000000
0.000000 0.020348 0.000000
0.000000 0.020348 0.000000
0.000000 0.020348 0.000000
0.000000 0.018338 0.000360
0.000000 0.018338 0.000360
0.000765 0.019651 0.000000
0.009172 0.020462 0.000000
0.019925 0.021554 0.000000
0.031462 0.018961 0.000000
0.039474 0.021448 0.000187
0.051988 0.020168 0.000000
0.064501 0.018887 0.000000
0.079362 0.017887 0.000000
0.105165 0.022974 0.000000
0.130192 0.020078 0.000598
0.161279 0.017716 0.000000
0.210550 0.015944 0.000000
0.255911 0.009257 0.000700
0.298537 0.004302 0.000082
0.348199 0.000519 0.000663
0.396099 0.000000 0.000000
0.444977 0.000000 0.000000
0.493853 0.000000 0.000000
0.542730 0.000000 0.001176
0.588869 0.000000 0.007172
0.637354 0.000000 0.017605
0.688183 0.000182 0.027285
0.741361 0.000000 0.043133
0.791404 0.000000 0.075531
0.841975 0.067901 0.131863
0.873598 0.116106 0.186192
0.892728 0.142593 0.239492
0.900922 0.151998 0.289505
0.904235 0.155175 0.341555
0.903450 0.156170 0.355622
0.903841 0.155168 0.351184
0.902865 0.155200 0.345016
0.903841 0.157185 0.340800
0.903841 0.158193 0.335610
0.903841 0.158865 0.332147
0.903841 0.158865 0.332147
0.903841 0.158865 0.332147
0.903841 0.158865 0.332147
0.903841 0.158865 0.332147
0.903841 0.158865 0.332147
0.903841 0.158865 0.332147
0.903841 0.158865 0.332147
0.903841 0.158865 0.332147
0.903841 0.158865 0.332147
0.903841 0.158865 0.332147
0.903841 0.158865 0.332147
0.903841 0.158865 0.332147
0.903841 0.158865 0.332147
0.903841 0.158865 0.332147
0.903841 0.158865 0.332147
0.903841 0.158865 0.332147
0.903841 0.158865 0.332147
0.903841 0.158865 0.332147
0.903841 0.158865 0.332147
0.903841 0.158865 0.332147
0.903841 0.158865 0.332147
0.903841 0.158865 0.332147
0.000000 0.030005 0.000273
0.000000 0.030005 0.000273
0.000956 0.024311 0.000803
0.000956 0.024311 0.000803
0.000956 0.024311 0.000803
0.000956 0.024311 0.000803
0.000956 0.024311 0.000803
0.000956 0.024311 0.000803
0.000565 0.026321 0.000051
0.006233 0.028528 0.000000
0.018353 0.028922 0.000000
0.028522 0.027027 0.000187
0.043965 0.029348 0.000000
0.052764 0.028152 0.000000
0.068599 0.028462 0.000000
0.089127 0.029332 0.000683
0.117669 0.033362 0.000000
0.150708 0.032952 0.000425
0.184143 0.030867 0.000562
0.226768 0.025913 0.000000
0.270370 0.022269 0.000000
0.312994 0.016978 0.000000
0.360311 0.012916 0.000000
0.405673 0.006231 0.000405
0.453383 0.000159 0.000765
0.501284 0.000000 0.000000
0.552506 0.000000 0.000000
0.597668 0.000000 0.002204
0.648891 0.000000 0.005715
0.703043 0.000000 0.024270
0.753481 0.000022 0.045309
0.804694 0.005821 0.078152
0.850562 0.084033 0.137637
0.884923 0.132188 0.185043
0.899564 0.153462 0.225562
0.900922 0.155023 0.273931
0.902282 0.155574 0.327489
0.903841 0.156848 0.342531
0.903841 0.157185 0.340800
0.903841 0.157521 0.339071
0.903841 0.158529 0.333879
0.903841 0.158529 0.333879
0.903841 0.158865 0.332147
0.903841 0.158529 0.333879
0.903841 0.158865 0.332147
0.903841 0.158865 0.332147
0.903841 0.158865 0.332147
0.903841 0.158865 0.332147
0.903841 0.158865 0.332147
0.903841 0.158865 0.332147
0.903841 0.158865 0.332147
0.903841 0.158865 0.332147
0.903841 0.158865 0.332147
0.903841 0.158865 0.332147
0.903841 0.158865 0.332147
0.903841 0.158865 0.332147
0.903841 0.158865 0.332147
0.903841 0.158865 0.332147
0.903841 0.158865 0.332147
0.903841 0.158865 0.332147
0.903841 0.158865 0.332147
0.903841 0.158865 0.332147
0.903841 0.158865 0.332147
0.903841 0.158865 0.332147
0.903841 0.158865 0.332147
0.000000 0.035002 0.000000
0.000000 0.035002 0.000000
0.000000 0.035002 0.000000
0.000000 0.035002 0.000000
0.000000 0.035002 0.000000
0.000000 0.035002 0.000000
0.000000 0.035002 0.000000
0.000000 0.035002 0.000000
0.000000 0.036675 0.000718
0.004270 0.037907 0.000000
0.014437 0.036011 0.000000
0.027535 0.037717 0.000000
0.040241 0.041098 0.000000
0.057637 0.045709 0.000000
0.078557 0.044905 0.000000
0.098501 0.043126 0.000000
0.123720 0.045226 0.000000
0.168488 0.047220 0.000254
0.196253 0.043265 0.000000
0.236725 0.042355 0.000527
0.280325 0.038376 0.000887
0.318844 0.035513 0.000269
0.366362 0.024780 0.000000
0.412309 0.021417 0.000000
0.464518 0.011244 0.000149
0.507535 0.004279 0.000285
0.556221 0.000000 0.000000
0.605097 0.000000 0.000000
0.661011 0.000000 0.006161
0.713795 0.000609 0.026445
0.761886 0.000498 0.046507
0.805076 0.016823 0.071898
0.844119 0.077539 0.119442
0.881994 0.131275 0.171731
0.901517 0.158440 0.211941
0.900922 0.158383 0.256625
0.903652 0.158573 0.308454
0.903841 0.158865 0.332147
0.903841 0.158865 0.332147
0.903841 0.158865 0.332147
0.904818 0.160514 0.329664
0.904818 0.161186 0.326203
0.904818 0.161522 0.324473
0.903450 0.161547 0.327934
0.904818 0.160850 0.327934
0.903450 0.160875 0.331395
0.903841 0.158865 0.332147
0.903841 0.158865 0.332147
0.903841 0.158865 0.332147
0.903841 0.158865 0.332147
0.903841 0.158865 0.332147
0.903841 0.158865 0.332147
0.903841 0.158865 0.332147
0.903841 0.158865 0.332147
0.903841 0.158865 0.332147
0.903841 0.158865 0.332147
0.903841 0.158865 0.332147
0.903841 0.158865 0.332147
0.903841 0.158865 0.332147
0.903841 0.158865 0.332147
0.903841 0.158865 0.332147
0.903841 0.158865 0.332147
0.903841 0.158865 0.332147
0.903841 0.158865 0.332147
0.903841 0.158865 0.332147
0.000353 0.044659 0.000411
0.000353 0.044659 0.000411
0.000353 0.044659 0.000411
0.000545 0.049656 0.000000
0.000545 0.049656 0.000000
0.000545 0.049656 0.000000
0.000545 0.049656 0.000000
0.000545 0.049656 0.000000
0.000545 0.049656 0.000000
0.002306 0.047284 0.000000
0.016382 0.049967 0.000000
0.028109 0.052372 0.000000
0.045505 0.056647 0.000153
0.061534 0.061955 0.000000
0.079715 0.062546 0.000000
0.103957 0.063333 0.000871
0.136998 0.063260 0.000254
0.166325 0.063268 0.000391
0.207771 0.064007 0.000000
0.242182 0.062899 0.000356
0.285783 0.058921 0.000714
0.330170 0.051258 0.000851
0.377095 0.049207 0.000000
0.419920 0.037581 0.000000
0.464307 0.029581 0.000507
0.515146 0.020442 0.000000
0.566963 0.012279 0.000251
0.616041 0.005510 0.000609
0.669810 0.000000 0.000000
0.712818 0.001313 0.016816
0.757185 0.012951 0.037547
0.802922 0.023220 0.061738
0.842749 0.081261 0.103866
0.878087 0.130393 0.152250
0.902493 0.162441 0.197343
0.901898 0.163056 0.238566
0.903652 0.161934 0.291149
0.903450 0.162555 0.322742
