lut/FujiFilm/gfx-eterna-55-F-Log2/Velvia.cube
#title:FLog2_to_Velvia
#model:GFX ETERNA 55
#FUJIFILM Corporation
#Gamma:F-Log2 to Velvia
#Gamut:F-Gamut to ITU-R BT.709
#Version:1.00
LUT_3D_SIZE 65
0.000000 0.000000 0.000000
0.000000 0.000000 0.000000
0.000000 0.000000 0.000000
0.000000 0.000000 0.000000
0.000000 0.000000 0.000000
0.000000 0.000000 0.000000
0.000000 0.000000 0.000000
0.000000 0.000000 0.000000
0.000977 0.000977 0.000977
0.003715 0.000000 0.000000
0.009776 0.000115 0.000000
0.016813 0.001288 0.000667
0.024243 0.001124 0.000000
0.037733 0.000821 0.000000
0.054938 0.000435 0.000000
0.069404 0.001108 0.000718
0.091693 0.000000 0.000000
0.117305 0.000033 0.000547
0.148977 0.000321 0.001660
0.177326 0.000000 0.000820
0.215059 0.000174 0.000425
0.257874 0.000215 0.000000
0.300692 0.000000 0.000000
0.342138 0.000323 0.000442
0.390040 0.000000 0.000269
0.438916 0.000000 0.000000
0.484079 0.000000 0.000000
0.530609 0.000000 0.000000
0.591607 0.000000 0.000251
0.652606 0.000022 0.001500
0.715950 0.000000 0.008918
0.782615 0.000075 0.020020
0.861402 0.000000 0.038488
0.938428 0.000000 0.066586
0.968922 0.000000 0.098316
0.992571 0.000166 0.145621
0.999990 0.000243 0.202863
0.999981 0.000000 0.268535
1.000000 0.000000 0.350980
1.000000 0.000204 0.433427
0.999559 0.000527 0.450954
0.999950 0.000197 0.443054
1.000000 0.000000 0.435156
1.000000 0.000210 0.423797
0.999950 0.004566 0.420558
0.999950 0.004566 0.420558
0.999950 0.004566 0.420558
0.999950 0.004566 0.420558
0.999950 0.004566 0.420558
0.999950 0.004566 0.420558
0.999950 0.004566 0.420558
0.999950 0.004566 0.420558
0.999950 0.004566 0.420558
0.999950 0.004566 0.420558
0.999950 0.004566 0.420558
0.999950 0.004566 0.420558
0.999950 0.004566 0.420558
0.999950 0.004566 0.420558
0.999950 0.004566 0.420558
0.999950 0.004566 0.420558
0.999950 0.004566 0.420558
0.999950 0.004566 0.420558
0.999950 0.004566 0.420558
0.999950 0.004566 0.420558
0.999950 0.004566 0.420558
0.000000 0.000000 0.000000
0.000000 0.000000 0.000000
0.000000 0.000000 0.000000
0.000000 0.000000 0.000000
0.000000 0.000000 0.000000
0.000000 0.000000 0.000000
0.000000 0.000000 0.000000
0.000000 0.000000 0.000000
0.000977 0.000977 0.000977
0.003715 0.000000 0.000000
0.008406 0.000813 0.000000
0.014467 0.001009 0.000000
0.024243 0.001124 0.000000
0.035386 0.000205 0.000360
0.049853 0.001215 0.000051
0.069404 0.001108 0.000718
0.091693 0.000000 0.000000
0.113591 0.000452 0.000000
0.145262 0.000739 0.000683
0.173611 0.000000 0.001575
0.211345 0.000256 0.001181
0.251815 0.000000 0.000785
0.296977 0.000002 0.000613
0.339794 0.000044 0.000000
0.384955 0.000363 0.000000
0.429141 0.000000 0.000000
0.486424 0.000086 0.000149
0.548792 0.000021 0.000000
0.605097 0.000000 0.000000
0.672157 0.000000 0.002168
0.732761 0.000205 0.013046
0.803143 0.000000 0.028585
0.881930 0.000000 0.043594
0.951526 0.000000 0.074930
0.976936 0.000242 0.109144
0.999215 0.000000 0.165101
0.999205 0.000000 0.225582
0.999780 0.000096 0.298399
0.999960 0.000292 0.382574
0.999559 0.000191 0.452683
0.999950 0.000000 0.444785
0.998974 0.000000 0.438617
0.999367 0.000000 0.430719
0.999950 0.004566 0.420558
0.999950 0.004566 0.420558
0.999950 0.004566 0.420558
0.999950 0.004566 0.420558
0.999950 0.004566 0.420558
0.999950 0.004566 0.420558
0.999950 0.004566 0.420558
0.999950 0.004566 0.420558
0.999950 0.004566 0.420558
0.999950 0.004566 0.420558
0.999950 0.004566 0.420558
0.999950 0.004566 0.420558
0.999950 0.004566 0.420558
0.999950 0.004566 0.420558
0.999950 0.004566 0.420558
0.999950 0.004566 0.420558
0.999950 0.004566 0.420558
0.999950 0.004566 0.420558
0.999950 0.004566 0.420558
0.999950 0.004566 0.420558
0.999950 0.004566 0.420558
0.999950 0.004566 0.420558
0.000000 0.000000 0.000000
0.000000 0.000000 0.000000
0.000000 0.000000 0.000000
0.000000 0.000000 0.000000
0.000000 0.000000 0.000000
0.000000 0.000000 0.000000
0.000000 0.000000 0.000000
0.000000 0.000000 0.000000
0.000977 0.000977 0.000977
0.002347 0.000616 0.000000
0.008406 0.000813 0.000000
0.014467 0.001009 0.000000
0.021896 0.000509 0.000000
0.035386 0.000205 0.000360
0.049853 0.001215 0.000051
0.065690 0.001526 0.000000
0.086610 0.000722 0.000411
0.113591 0.000452 0.000000
0.135487 0.000289 0.002946
0.173611 0.000000 0.001575
0.205283 0.000395 0.000000
0.251815 0.000000 0.000785
0.292285 0.000000 0.000000
0.333732 0.000000 0.000000
0.390040 0.000000 0.000269
0.441262 0.000000 0.000320
0.503629 0.000000 0.000000
0.558566 0.000135 0.000000
0.620934 0.000000 0.000387
0.684278 0.000000 0.004344
0.749966 0.000156 0.011007
0.825039 0.000446 0.026769
0.905779 0.000591 0.054113
0.960909 0.000000 0.085757
0.983580 0.000064 0.126895
0.999800 0.000000 0.180899
0.999396 0.000000 0.251007
0.999971 0.000000 0.329017
0.999760 0.000242 0.417629
0.999559 0.000527 0.450954
0.999950 0.000000 0.446516
1.000000 0.000000 0.435156
1.000000 0.000000 0.425527
0.999950 0.004566 0.420558
0.999950 0.004566 0.420558
0.999950 0.004566 0.420558
0.999950 0.004566 0.420558
0.999950 0.004566 0.420558
0.999950 0.004566 0.420558
0.999950 0.004566 0.420558
0.999950 0.004566 0.420558
0.999950 0.004566 0.420558
0.999950 0.004566 0.420558
0.999950 0.004566 0.420558
0.999950 0.004566 0.420558
0.999950 0.004566 0.420558
0.999950 0.004566 0.420558
0.999950 0.004566 0.420558
0.999950 0.004566 0.420558
0.999950 0.004566 0.420558
0.999950 0.004566 0.420558
0.999950 0.004566 0.420558
0.999950 0.004566 0.420558
0.999950 0.004566 0.420558
0.999950 0.004566 0.420558
0.000000 0.000000 0.000000
0.000000 0.000000 0.000000
0.000000 0.000000 0.000000
0.000000 0.000000 0.000000
0.000000 0.000000 0.000000
0.000000 0.000000 0.000000
0.000000 0.000000 0.000000
0.000000 0.000000 0.000000
0.000977 0.000977 0.000977
0.002347 0.000616 0.000000
0.006061 0.000197 0.000222
0.010752 0.001091 0.000445
0.021896 0.000509 0.000000
0.031672 0.000624 0.000000
0.046138 0.001297 0.000803
0.065690 0.001526 0.000000
0.086610 0.000722 0.000411
0.107530 0.000255 0.000000
0.135487 0.000289 0.002946
0.166182 0.000000 0.001351
0.202938 0.000000 0.000000
0.248099 0.000101 0.000000
0.292285 0.000000 0.000000
0.342138 0.000323 0.000442
0.396099 0.000000 0.000000
0.457099 0.000077 0.000013
0.512034 0.000512 0.000000
0.573425 0.000000 0.000000
0.633054 0.000128 0.000832
0.700113 0.000000 0.007496
0.770494 0.000353 0.016114
0.846935 0.000000 0.033605
0.930021 0.000035 0.061925
0.967946 0.000000 0.093879
0.992571 0.000166 0.145621
0.999990 0.000243 0.202863
0.999588 0.000000 0.276434
0.999770 0.000000 0.360610
0.999950 0.000000 0.446516
0.999559 0.000527 0.450954
0.998974 0.000000 0.440348
0.999367 0.000000 0.430719
0.999367 0.001243 0.422066
0.999950 0.004566 0.420558
0.999950 0.004566 0.420558
0.999950 0.004566 0.420558
0.999950 0.004566 0.420558
0.999950 0.004566 0.420558
0.999950 0.004566 0.420558
0.999950 0.004566 0.420558
0.999950 0.004566 0.420558
0.999950 0.004566 0.420558
0.999950 0.004566 0.420558
0.999950 0.004566 0.420558
0.999950 0.004566 0.420558
0.999950 0.004566 0.420558
0.999950 0.004566 0.420558
0.999950 0.004566 0.420558
0.999950 0.004566 0.420558
0.999950 0.004566 0.420558
0.999950 0.004566 0.420558
0.999950 0.004566 0.420558
0.999950 0.004566 0.420558
0.999950 0.004566 0.420558
0.999950 0.004566 0.420558
0.000000 0.000000 0.000000
0.000000 0.000000 0.000000
0.000000 0.000000 0.000000
0.000000 0.000000 0.000000
0.000000 0.000000 0.000000
0.000000 0.000000 0.000000
0.000000 0.000000 0.000000
0.000000 0.000000 0.000000
0.000000 0.000000 0.000000
0.002347 0.000616 0.000000
0.006061 0.000197 0.000222
0.010752 0.001091 0.000445
0.019158 0.001904 0.000000
0.031672 0.000624 0.000000
0.046138 0.001297 0.000803
0.060998 0.000633 0.000000
0.081526 0.001839 0.000000
0.102445 0.001035 0.000102
0.129426 0.000428 0.000993
0.162467 0.000354 0.000374
0.202938 0.000000 0.000000
0.251815 0.000000 0.000785
0.300692 0.000000 0.000000
0.349569 0.000158 0.000000
0.410566 0.000454 0.000184
0.468242 0.000000 0.000000
0.525525 0.000209 0.000000
0.587892 0.000143 0.000000
0.651236 0.000383 0.003232
0.718294 0.000000 0.009894
0.784961 0.000354 0.020997
0.872154 0.000031 0.042394
0.950549 0.000000 0.068761
0.974591 0.000000 0.109899
0.998238 0.000020 0.157202
0.999205 0.000230 0.222122
0.999780 0.000000 0.301860
0.999568 0.000623 0.390472
1.000000 0.000166 0.449223
0.999950 0.000000 0.446516
0.998974 0.000000 0.438617
0.999367 0.000235 0.427258
0.999950 0.004566 0.420558
0.999950 0.004566 0.420558
0.999950 0.004566 0.420558
0.999950 0.004566 0.420558
0.999950 0.004566 0.420558
0.999950 0.004566 0.420558
0.999950 0.004566 0.420558
0.999950 0.004566 0.420558
0.999950 0.004566 0.420558
0.999950 0.004566 0.420558
0.999950 0.004566 0.420558
0.999950 0.004566 0.420558
0.999950 0.004566 0.420558
0.999950 0.004566 0.420558
0.999950 0.004566 0.420558
0.999950 0.004566 0.420558
0.999950 0.004566 0.420558
0.999950 0.004566 0.420558
0.999950 0.004566 0.420558
0.999950 0.004566 0.420558
0.999950 0.004566 0.420558
0.999950 0.004566 0.420558
0.999950 0.004566 0.420558
0.000000 0.000000 0.000000
0.000000 0.000000 0.000000
0.000000 0.000000 0.000000
0.000000 0.000000 0.000000
0.000000 0.000000 0.000000
0.000000 0.000000 0.000000
0.000000 0.000000 0.000000
0.000000 0.000000 0.000000
0.000000 0.000000 0.000000
0.002347 0.000616 0.000000
0.006061 0.000197 0.000222
0.010752 0.001091 0.000445
0.019158 0.001904 0.000000
0.030303 0.001322 0.000000
0.041447 0.000738 0.000000
0.060998 0.000633 0.000000
0.077811 0.001920 0.000187
0.102445 0.001035 0.000102
0.129426 0.000428 0.000993
0.166182 0.000000 0.001351
0.205283 0.000395 0.000000
0.257874 0.000215 0.000000
0.306752 0.000117 0.000082
0.360713 0.000000 0.000133
0.415650 0.000000 0.000000
0.476648 0.000000 0.000680
0.535300 0.000323 0.000000
0.597668 0.000000 0.000473
0.666096 0.000054 0.000215
0.731785 0.000000 0.010340
0.808227 0.000000 0.022641
0.890335 0.000000 0.048253
0.956217 0.000087 0.078614
0.982603 0.000000 0.122457
0.999800 0.000623 0.175707
0.999396 0.000185 0.247546
0.999578 0.000382 0.331722
0.999760 0.000000 0.419360
0.999559 0.000527 0.450954
0.999950 0.000197 0.443054
1.000000 0.000204 0.433427
0.999367 0.000571 0.425527
0.999950 0.004566 0.420558
0.999950 0.004566 0.420558
0.999950 0.004566 0.420558
0.999950 0.004566 0.420558
0.999950 0.004566 0.420558
0.999950 0.004566 0.420558
0.999950 0.004566 0.420558
0.999950 0.004566 0.420558
0.999950 0.004566 0.420558
0.999950 0.004566 0.420558
0.999950 0.004566 0.420558
0.999950 0.004566 0.420558
0.999950 0.004566 0.420558
0.999950 0.004566 0.420558
0.999950 0.004566 0.420558
0.999950 0.004566 0.420558
0.999950 0.004566 0.420558
0.999950 0.004566 0.420558
0.999950 0.004566 0.420558
0.999950 0.004566 0.420558
0.999950 0.004566 0.420558
0.999950 0.004566 0.420558
0.999950 0.004566 0.420558
0.000000 0.000000 0.000000
0.000000 0.000000 0.000000
0.000000 0.000000 0.000000
0.000000 0.000000 0.000000
0.000000 0.000000 0.000000
0.000000 0.000000 0.000000
0.000000 0.000000 0.000000
0.000000 0.000000 0.000000
0.000000 0.000000 0.000000
0.002347 0.000616 0.000000
0.003715 0.000000 0.000000
0.009776 0.000115 0.000000
0.016813 0.001288 0.000667
0.030303 0.001322 0.000000
0.041447 0.000738 0.000000
0.057283 0.000715 0.000273
0.077811 0.001920 0.000187
0.102445 0.001035 0.000102
0.135487 0.000289 0.002946
0.166182 0.000000 0.001351
0.215059 0.000174 0.000425
0.265306 0.000000 0.000000
0.310466 0.000035 0.000000
0.366774 0.000000 0.000356
0.425426 0.000000 0.000000
0.484079 0.000000 0.000000
0.548792 0.000021 0.000000
0.608814 0.000000 0.000000
0.678217 0.000000 0.005852
0.747621 0.000000 0.010030
0.825039 0.000446 0.026769
0.908518 0.000000 0.054113
0.961886 0.000278 0.088465
0.988271 0.000000 0.132309
1.000000 0.000000 0.194965
0.999981 0.000000 0.268535
0.999770 0.000001 0.358879
0.999559 0.000527 0.450954
0.999559 0.000527 0.450954
0.998974 0.000000 0.440348
0.999367 0.000235 0.427258
0.999950 0.004566 0.420558
0.999950 0.004566 0.420558
0.999950 0.004566 0.420558
0.999950 0.004566 0.420558
0.999950 0.004566 0.420558
0.999950 0.004566 0.420558
0.999950 0.004566 0.420558
0.999950 0.004566 0.420558
0.999950 0.004566 0.420558
0.999950 0.004566 0.420558
0.999950 0.004566 0.420558
0.999950 0.004566 0.420558
0.999950 0.004566 0.420558
0.999950 0.004566 0.420558
0.999950 0.004566 0.420558
0.999950 0.004566 0.420558
0.999950 0.004566 0.420558
0.999950 0.004566 0.420558
0.999950 0.004566 0.420558
0.999950 0.004566 0.420558
0.999950 0.004566 0.420558
0.999950 0.004566 0.420558
0.999950 0.004566 0.420558
0.999950 0.004566 0.420558
0.000000 0.000000 0.000000
0.000000 0.000000 0.000000
0.000000 0.000000 0.000000
0.000000 0.000000 0.000000
0.000000 0.000000 0.000000
0.000000 0.000000 0.000000
0.000000 0.000000 0.000000
0.000000 0.000000 0.000000
0.000000 0.000000 0.000000
0.000977 0.000977 0.000977
0.004691 0.000895 0.000222
0.009776 0.000115 0.000000
0.016813 0.001288 0.000667
0.024243 0.001124 0.000000
0.040077 0.001100 0.000582
0.059629 0.001330 0.000000
0.079180 0.001223 0.000187
0.106160 0.000953 0.000000
0.135487 0.000961 0.000000
0.175957 0.000050 0.000820
0.212713 0.000000 0.000000
0.267650 0.000000 0.000476
0.317897 0.000000 0.000000
0.371465 0.000331 0.000578
0.431486 0.000000 0.000000
0.490138 0.000003 0.000000
0.556221 0.000000 0.000000
0.620934 0.000000 0.000387
0.691707 0.000000 0.002836
0.759742 0.000000 0.013937
0.845567 0.000308 0.033605
0.927676 0.000000 0.060949
0.968922 0.000000 0.098316
0.994917 0.000000 0.150059
0.999598 0.000000 0.214223
1.000000 0.000000 0.292230
0.999960 0.000000 0.386035
1.000000 0.000166 0.449223
0.999950 0.000197 0.443054
1.000000 0.000000 0.435156
0.999367 0.000000 0.428987
0.999950 0.004566 0.420558
0.999950 0.004566 0.420558
0.999950 0.004566 0.420558
0.999950 0.004566 0.420558
0.999950 0.004566 0.420558
0.999950 0.004566 0.420558
0.999950 0.004566 0.420558
0.999950 0.004566 0.420558
0.999950 0.004566 0.420558
0.999950 0.004566 0.420558
0.999950 0.004566 0.420558
0.999950 0.004566 0.420558
0.999950 0.004566 0.420558
0.999950 0.004566 0.420558
0.999950 0.004566 0.420558
0.999950 0.004566 0.420558
0.999950 0.004566 0.420558
0.999950 0.004566 0.420558
0.999950 0.004566 0.420558
0.999950 0.004566 0.420558
0.999950 0.004566 0.420558
0.999950 0.004566 0.420558
0.999950 0.004566 0.420558
0.999950 0.004566 0.420558
0.000977 0.000977 0.000977
0.000977 0.000977 0.000977
0.000977 0.000977 0.000977
0.000977 0.000977 0.000977
0.000977 0.000977 0.000977
0.000977 0.000977 0.000977
0.000977 0.000977 0.000977
0.000977 0.000977 0.000977
0.000977 0.000977 0.000977
0.000977 0.001313 0.000000
0.003323 0.001592 0.000222
0.008406 0.000813 0.000000
0.015443 0.001985 0.000667
0.025219 0.002100 0.000136
0.041054 0.002413 0.000000
0.060605 0.002306 0.000496
0.080157 0.002536 0.000000
0.103422 0.002348 0.000000
0.135487 0.000961 0.000000
0.175957 0.000386 0.000000
0.224835 0.000289 0.000000
0.273711 0.000190 0.000700
0.326303 0.000346 0.000000
0.382609 0.000000 0.000047
0.441262 0.000000 0.000320
0.502261 0.000397 0.000000
0.565996 0.000000 0.000000
0.630710 0.000000 0.000000
0.700113 0.000285 0.004035
0.775578 0.000000 0.015359
0.861402 0.000000 0.038488
0.946834 0.000000 0.069516
0.974591 0.000000 0.109899
0.999215 0.000000 0.165101
1.000000 0.000000 0.233480
0.998994 0.000000 0.319387
0.998783 0.000000 0.413191
0.999559 0.000527 0.450954
0.999950 0.000197 0.443054
1.000000 0.000000 0.435156
0.999367 0.000235 0.427258
0.999950 0.004566 0.420558
0.999950 0.004566 0.420558
0.999950 0.004566 0.420558
0.999950 0.004566 0.420558
0.999950 0.004566 0.420558
0.999950 0.004566 0.420558
0.999950 0.004566 0.420558
0.999950 0.004566 0.420558
0.999950 0.004566 0.420558
0.999950 0.004566 0.420558
0.999950 0.004566 0.420558
0.999950 0.004566 0.420558
0.999950 0.004566 0.420558
0.999950 0.004566 0.420558
0.999950 0.004566 0.420558
0.999950 0.004566 0.420558
0.999950 0.004566 0.420558
0.999950 0.004566 0.420558
0.999950 0.004566 0.420558
0.999950 0.004566 0.420558
0.999950 0.004566 0.420558
0.999950 0.004566 0.420558
0.999950 0.004566 0.420558
0.999950 0.004566 0.420558
0.000977 0.000977 0.000977
0.000977 0.000977 0.000977
0.000977 0.000977 0.000977
0.000977 0.000977 0.000977
0.000977 0.000977 0.000977
0.000977 0.000977 0.000977
0.000977 0.000977 0.000977
0.000977 0.000977 0.000977
0.000977 0.000977 0.000977
0.000977 0.001313 0.000000
0.000977 0.001313 0.000000
0.007038 0.001510 0.000000
0.012705 0.003380 0.000667
0.023849 0.002798 0.000136
0.039686 0.003110 0.000000
0.056891 0.002724 0.000000
0.078788 0.003233 0.000000
0.103422 0.002348 0.000000
0.146239 0.001716 0.001660
0.182018 0.000584 0.000000
0.228549 0.000000 0.000871
0.277426 0.000109 0.000000
0.331387 0.000000 0.000000
0.393755 0.000000 0.000000
0.451038 0.000000 0.000000
0.515751 0.000094 0.000285
0.579487 0.000000 0.000000
0.651629 0.000000 0.000000
0.718688 0.000000 0.003726
0.793760 0.000501 0.014297
0.877239 0.000000 0.038181
0.955240 0.000455 0.070714
0.982603 0.000431 0.118996
0.999800 0.000000 0.180899
1.000000 0.000153 0.253715
0.999186 0.000000 0.346544
0.998974 0.000000 0.438617
0.999559 0.000527 0.450954
0.999950 0.000000 0.446516
0.998974 0.000000 0.438617
0.999367 0.000000 0.428987
0.999950 0.004566 0.420558
0.999950 0.004566 0.420558
0.999950 0.004566 0.420558
0.999950 0.004566 0.420558
0.999950 0.004566 0.420558
0.999950 0.004566 0.420558
0.999950 0.004566 0.420558
0.999950 0.004566 0.420558
0.999950 0.004566 0.420558
0.999950 0.004566 0.420558
0.999950 0.004566 0.420558
0.999950 0.004566 0.420558
0.999950 0.004566 0.420558
0.999950 0.004566 0.420558
0.999950 0.004566 0.420558
0.999950 0.004566 0.420558
0.999950 0.004566 0.420558
0.999950 0.004566 0.420558
0.999950 0.004566 0.420558
0.999950 0.004566 0.420558
0.999950 0.004566 0.420558
0.999950 0.004566 0.420558
0.999950 0.004566 0.420558
0.999950 0.004566 0.420558
0.000192 0.004661 0.001199
0.000192 0.004661 0.001199
0.000192 0.004661 0.001199
0.000192 0.004661 0.001199
0.000192 0.004661 0.001199
0.000192 0.004661 0.001199
0.000192 0.004661 0.001199
0.000192 0.004661 0.001199
0.000192 0.004661 0.001199
0.000192 0.004661 0.001199
0.002930 0.003602 0.000000
0.005276 0.003880 0.000445
0.012705 0.003380 0.000667
0.022481 0.003495 0.000136
0.035578 0.005202 0.000000
0.054153 0.004119 0.000000
0.079764 0.004209 0.000411
0.105375 0.004637 0.000000
0.139784 0.003865 0.000000
0.183971 0.002874 0.000000
0.229526 0.001183 0.000116
0.281140 0.000026 0.000000
0.339794 0.000044 0.000000
0.402160 0.000000 0.000714
0.463158 0.000274 0.000234
0.525525 0.000209 0.000000
0.591607 0.000000 0.000251
0.660035 0.000000 0.000000
0.732178 0.000000 0.000000
0.812334 0.000000 0.013988
0.900505 0.000000 0.038093
0.965016 0.000000 0.073644
0.992379 0.000000 0.123656
0.999800 0.000000 0.182630
0.999981 0.000000 0.266806
0.999186 0.000000 0.344812
0.999760 0.000000 0.419360
0.999950 0.000000 0.446516
0.999950 0.000000 0.446516
0.998974 0.000000 0.438617
0.999367 0.000235 0.427258
0.999367 0.001243 0.422066
0.999950 0.004566 0.420558
0.999950 0.004566 0.420558
0.999950 0.004566 0.420558
0.999950 0.004566 0.420558
0.999950 0.004566 0.420558
0.999950 0.004566 0.420558
0.999950 0.004566 0.420558
0.999950 0.004566 0.420558
0.999950 0.004566 0.420558
0.999950 0.004566 0.420558
0.999950 0.004566 0.420558
0.999950 0.004566 0.420558
0.999950 0.004566 0.420558
0.999950 0.004566 0.420558
0.999950 0.004566 0.420558
0.999950 0.004566 0.420558
0.999950 0.004566 0.420558
0.999950 0.004566 0.420558
0.999950 0.004566 0.420558
0.999950 0.004566 0.420558
0.999950 0.004566 0.420558
0.999950 0.004566 0.420558
0.999950 0.004566 0.420558
0.000000 0.006671 0.000445
0.000000 0.006671 0.000445
0.000000 0.006671 0.000445
0.000000 0.006671 0.000445
0.000000 0.006671 0.000445
0.000000 0.006671 0.000445
0.000000 0.006671 0.000445
0.000000 0.006671 0.000445
0.000000 0.006671 0.000445
0.000000 0.006671 0.000445
0.000000 0.006671 0.000445
0.004883 0.005891 0.000000
0.010944 0.006088 0.000000
0.019350 0.006900 0.000000
0.035185 0.007212 0.000000
0.057082 0.007720 0.000000
0.078978 0.008229 0.000000
0.110651 0.008517 0.000016
0.145061 0.007747 0.000000
0.186900 0.006139 0.000734
0.234800 0.005064 0.000562
0.291893 0.001118 0.000000
0.348199 0.000855 0.000000
0.410566 0.000454 0.000184
0.474304 0.000000 0.000000
0.536670 0.000000 0.000000
0.600015 0.000538 0.000000
0.674895 0.000000 0.000000
0.745668 0.000000 0.000000
0.831885 0.000656 0.007734
0.915363 0.000000 0.035078
0.974791 0.000349 0.071384
0.999808 0.000000 0.122148
1.000000 0.000000 0.173000
0.999981 0.005188 0.237387
0.998994 0.000083 0.317656
0.999568 0.000623 0.390472
0.999367 0.000000 0.428987
1.000000 0.000000 0.425527
1.000000 0.000210 0.423797
1.000000 0.002892 0.419582
0.999559 0.007584 0.414614
0.999559 0.007584 0.414614
0.999950 0.005238 0.417097
0.999950 0.004566 0.420558
0.999950 0.004566 0.420558
0.999950 0.004566 0.420558
0.999950 0.004566 0.420558
0.999950 0.004566 0.420558
0.999950 0.004566 0.420558
0.999950 0.004566 0.420558
0.999950 0.004566 0.420558
0.999950 0.004566 0.420558
0.999950 0.004566 0.420558
0.999950 0.004566 0.420558
0.999950 0.004566 0.420558
0.999950 0.004566 0.420558
0.999950 0.004566 0.420558
0.999950 0.004566 0.420558
0.999950 0.004566 0.420558
0.999950 0.004566 0.420558
0.999950 0.004566 0.420558
0.999950 0.004566 0.420558
0.999950 0.004566 0.420558
0.999950 0.004566 0.420558
0.000000 0.011667 0.000000
0.000000 0.011667 0.000000
0.000000 0.010690 0.000000
0.000000 0.010690 0.000000
0.000000 0.010690 0.000000
0.000000 0.011667 0.000000
0.000000 0.011667 0.000000
0.000000 0.011667 0.000000
0.000000 0.011667 0.000000
0.000000 0.011667 0.000000
0.000000 0.011667 0.000000
0.002728 0.010273 0.000000
0.010742 0.012758 0.000360
0.018171 0.012594 0.000000
0.034985 0.013883 0.000000
0.053166 0.014474 0.000187
0.080147 0.013867 0.001079
0.110843 0.013178 0.001215
0.141538 0.012825 0.000000
0.184353 0.012530 0.000204
0.239683 0.010955 0.000254
0.292667 0.009101 0.000000
0.354452 0.005713 0.000356
0.413496 0.004057 0.000000
0.478018 0.000000 0.000000
0.546446 0.000000 0.000000
0.614873 0.000000 0.000000
0.685646 0.000284 0.000000
0.763850 0.000194 0.000095
0.848113 0.000000 0.002987
0.927877 0.000000 0.027625
0.981637 0.000000 0.057539
1.000000 0.000000 0.101160
1.000000 0.007978 0.153433
1.000000 0.020223 0.210366
0.999377 0.015453 0.288906
1.000000 0.013647 0.364207
1.000000 0.011243 0.411375
1.000000 0.009233 0.412130
1.000000 0.011243 0.411375
0.999751 0.014261 0.405430
1.000000 0.017584 0.403923
0.999941 0.019930 0.401438
0.999357 0.016607 0.402946
0.999751 0.014261 0.405430
1.000000 0.011243 0.411375
1.000000 0.008561 0.415591
0.999559 0.007584 0.414614
0.999950 0.004566 0.420558
0.999950 0.004566 0.420558
0.999950 0.004566 0.420558
0.999950 0.004566 0.420558
0.999950 0.004566 0.420558
0.999950 0.004566 0.420558
0.999950 0.004566 0.420558
0.999950 0.004566 0.420558
0.999950 0.004566 0.420558
0.999950 0.004566 0.420558
0.999950 0.004566 0.420558
0.999950 0.004566 0.420558
0.999950 0.004566 0.420558
0.999950 0.004566 0.420558
0.999950 0.004566 0.420558
0.999950 0.004566 0.420558
0.999950 0.004566 0.420558
0.000182 0.016664 0.000000
0.000182 0.016664 0.000000
0.000182 0.016664 0.000000
0.000000 0.018338 0.000360
0.000000 0.018338 0.000360
0.000000 0.018338 0.000360
0.000000 0.018338 0.000360
0.000000 0.018338 0.000360
0.000000 0.018338 0.000360
0.000000 0.018338 0.000360
0.000765 0.019651 0.000000
0.002135 0.018953 0.000000
0.007802 0.020824 0.000803
0.016208 0.021637 0.000273
0.028330 0.022030 0.000718
0.047881 0.022260 0.000000
0.076230 0.020955 0.000547
0.101842 0.021383 0.000000
0.144266 0.023098 0.000000
0.183760 0.021211 0.000000
0.239090 0.019636 0.000000
0.300873 0.016583 0.000000
0.360895 0.015904 0.000000
0.422678 0.012515 0.000543
0.487592 0.006058 0.000594
0.560519 0.002424 0.000000
0.630710 0.000000 0.000000
0.699136 0.000000 0.000000
0.778709 0.000000 0.000000
0.847137 0.000000 0.000000
0.917518 0.000000 0.010629
0.987113 0.000122 0.040235
1.000000 0.005099 0.073473
0.999396 0.024718 0.121222
0.999770 0.034617 0.180640
0.999367 0.034178 0.252480
1.000000 0.032035 0.329513
0.999741 0.028953 0.389771
