lut/Sony/S-Gamut3Cine_Slog3/To_Cine+709.cube
#Sony LookProfile LUT, SLog3SGamut3.CineToCine+709 full in full out v1.04.04
TITLE 	SLog3SGamut3.CineToCine+709
LUT_3D_SIZE 9
0.040001 0.038870 0.029575
0.049019 0.039464 0.029965
0.121782 0.031730 0.034759
0.365801 0.076598 0.076600
0.548044 0.114759 0.114762
0.619368 0.129694 0.129697
0.633839 0.132724 0.132728
0.633839 0.132724 0.132728
0.633839 0.132724 0.132728
0.040854 0.050372 0.031306
0.056542 0.053036 0.031018
0.108414 0.051237 0.032480
0.340689 0.071339 0.071342
0.548161 0.114783 0.114787
0.619378 0.129696 0.129700
0.633839 0.132724 0.132728
0.633839 0.132724 0.132728
0.633839 0.132724 0.132728
0.042561 0.126219 0.042737
0.040784 0.120600 0.040663
0.133191 0.145233 0.053170
0.394549 0.144097 0.089188
0.532450 0.111494 0.111497
0.619395 0.129700 0.129703
0.633839 0.132724 0.132728
0.633839 0.132724 0.132728
0.633839 0.132724 0.132728
0.105241 0.312118 0.105230
0.101828 0.301993 0.101816
0.148195 0.372651 0.126191
0.436700 0.461224 0.169953
0.765399 0.455637 0.205300
0.716710 0.150077 0.150081
0.633839 0.132724 0.132728
0.633839 0.132724 0.132728
0.633839 0.132724 0.132728
0.135282 0.401210 0.135267
0.137637 0.408193 0.137621
0.169744 0.492920 0.166265
0.424840 0.618257 0.216763
0.799791 0.733335 0.279534
0.993759 0.739110 0.301542
0.891224 0.370881 0.208328
0.633839 0.132724 0.132728
0.633839 0.132724 0.132728
0.150481 0.446285 0.150464
0.168595 0.500006 0.168576
0.214863 0.564653 0.190952
0.430070 0.659303 0.229910
0.768800 0.773872 0.288183
0.990923 0.833789 0.325911
1.000000 0.844469 0.336576
1.000000 0.703798 0.297229
0.633839 0.132724 0.132728
0.215865 0.639760 0.234576
0.223790 0.662555 0.235392
0.251001 0.688529 0.238165
0.436271 0.746120 0.258374
0.732556 0.824147 0.299920
0.966588 0.850499 0.327975
1.000000 0.860074 0.340159
1.000000 0.865790 0.343669
1.000000 0.834846 0.334967
0.370384 0.815465 0.503686
0.398984 0.822964 0.502777
0.440596 0.833753 0.501214
0.542759 0.860603 0.495769
0.735667 0.906153 0.478860
0.931122 0.939513 0.427061
1.000000 0.936062 0.359258
1.000000 0.865587 0.343546
1.000000 0.865790 0.343669
0.781815 0.981014 0.847564
0.787257 0.982050 0.847506
0.795667 0.983649 0.847412
0.820061 0.988257 0.847050
0.872929 0.997489 0.844024
0.955080 1.000000 0.830192
1.000000 1.000000 0.798627
1.000000 1.000000 0.707128
1.000000 0.865790 0.343669
0.039618 0.039834 0.043857
0.050788 0.040106 0.046747
0.126476 0.033370 0.049522
0.368316 0.077124 0.077126
0.548438 0.114841 0.114845
0.619368 0.129694 0.129698
0.633839 0.132724 0.132728
0.633839 0.132724 0.132728
0.633839 0.132724 0.132728
0.036290 0.051895 0.047816
0.050392 0.050133 0.042100
0.099355 0.043728 0.039959
0.339599 0.071111 0.071117
0.548595 0.114874 0.114877
0.619379 0.129696 0.129700
0.633839 0.132724 0.132728
0.633839 0.132724 0.132728
0.633839 0.132724 0.132728
0.035659 0.105592 0.042142
0.038055 0.096127 0.032594
0.122668 0.113963 0.043288
0.362824 0.123841 0.080839
0.526112 0.110166 0.110169
0.619396 0.129700 0.129703
0.633839 0.132724 0.132728
0.633839 0.132724 0.132728
0.633839 0.132724 0.132728
0.094935 0.281550 0.094924
0.091419 0.271123 0.091408
0.140253 0.333323 0.113091
0.422831 0.409488 0.153897
0.747649 0.408630 0.192775
0.718193 0.150388 0.150392
0.633839 0.132724 0.132728
0.633839 0.132724 0.132728
0.633839 0.132724 0.132728
0.130759 0.387796 0.130745
0.133258 0.395208 0.133243
0.165320 0.477765 0.161171
0.420399 0.599318 0.210608
0.792355 0.708179 0.271867
0.993793 0.739254 0.301583
0.891774 0.372071 0.208612
0.633839 0.132724 0.132728
0.633839 0.132724 0.132728
0.158176 0.469107 0.158158
0.174647 0.517957 0.174628
0.195010 0.578342 0.194986
0.422072 0.664818 0.231237
0.768365 0.770904 0.287294
0.990768 0.827787 0.324288
1.000000 0.844479 0.336579
1.000000 0.704047 0.297301
0.633839 0.132724 0.132728
0.220056 0.650937 0.283514
0.227785 0.674097 0.280603
0.245113 0.700596 0.274714
0.425221 0.758875 0.272005
0.728540 0.837375 0.303550
0.965201 0.865697 0.332008
1.000000 0.860161 0.340212
1.000000 0.865790 0.343669
1.000000 0.834866 0.334973
0.368664 0.818371 0.517440
0.397042 0.825854 0.516599
0.438541 0.836638 0.515217
0.541388 0.863576 0.510614
0.734892 0.909181 0.494332
0.930342 0.942661 0.446008
1.000000 0.940402 0.361763
1.000000 0.865610 0.343560
1.000000 0.865790 0.343669
0.781704 0.981388 0.850473
0.787141 0.982434 0.850486
0.795543 0.984049 0.850502
0.819922 0.988664 0.850235
0.872780 0.997901 0.847263
0.954976 1.000000 0.833619
1.000000 1.000000 0.802618
1.000000 1.000000 0.712965
1.000000 0.865790 0.343669
0.030629 0.037183 0.185037
0.044309 0.034262 0.185854
0.138497 0.037050 0.200759
0.394472 0.084033 0.179559
0.566471 0.118670 0.125176
0.619454 0.129712 0.129716
0.633839 0.132724 0.132728
0.633839 0.132724 0.132728
0.633839 0.132724 0.132728
0.024850 0.054091 0.146468
0.039154 0.047551 0.132177
0.098280 0.032939 0.127824
0.362164 0.076624 0.138561
0.567407 0.118877 0.126663
0.619476 0.129717 0.129720
0.633839 0.132724 0.132728
0.633839 0.132724 0.132728
0.633839 0.132724 0.132728
0.040237 0.112856 0.133874
0.035942 0.100958 0.118245
0.105756 0.114918 0.116545
0.360483 0.091370 0.097355
0.533325 0.111680 0.112080
0.619241 0.129667 0.129671
0.633839 0.132724 0.132728
0.633839 0.132724 0.132728
0.633839 0.132724 0.132728
0.100291 0.296688 0.128515
0.094381 0.279555 0.108892
0.109763 0.325166 0.109920
0.403277 0.373825 0.142078
0.706222 0.337598 0.172642
0.735824 0.154086 0.154084
0.633839 0.132724 0.132728
0.633839 0.132724 0.132728
0.633839 0.132724 0.132728
0.139132 0.412613 0.139842
0.140108 0.415523 0.140112
0.165025 0.489420 0.165007
0.402756 0.604645 0.211293
0.784390 0.683383 0.264298
0.980582 0.698443 0.289840
0.892689 0.374124 0.209097
0.633839 0.132724 0.132728
0.633839 0.132724 0.132728
0.166140 0.492428 0.178951
0.182983 0.542622 0.185576
0.203098 0.602333 0.203078
0.392476 0.694354 0.239236
0.760287 0.793782 0.293211
0.990441 0.819478 0.322038
1.000000 0.844495 0.336583
1.000000 0.704386 0.297398
0.633839 0.132724 0.132728
0.225424 0.664930 0.343287
0.233107 0.688155 0.340512
0.242511 0.714938 0.335123
0.409252 0.774698 0.319790
0.722446 0.855957 0.309840
0.963109 0.885642 0.337327
1.000000 0.860235 0.340256
1.000000 0.865790 0.343669
1.000000 0.834898 0.334982
0.366169 0.822757 0.538401
0.394199 0.830217 0.537677
0.435481 0.840963 0.536461
0.539060 0.867849 0.532272
0.733676 0.913692 0.517950
0.929160 0.947265 0.472718
1.000000 0.946559 0.370827
1.000000 0.865634 0.343574
1.000000 0.865790 0.343669
0.781548 0.981929 0.854738
0.786984 0.982975 0.854757
0.795386 0.984589 0.854783
0.819736 0.989236 0.854775
0.872549 0.998542 0.852312
0.954814 1.000000 0.838958
1.000000 1.000000 0.808832
1.000000 1.000000 0.722025
1.000000 0.865790 0.343669
0.097678 0.053490 0.388541
0.114029 0.056271 0.403395
0.192731 0.067502 0.444272
0.436972 0.105005 0.473427
0.603585 0.134194 0.449529
0.656125 0.141668 0.371461
0.633839 0.132724 0.132728
0.633839 0.132724 0.132728
0.633839 0.132724 0.132728
0.075470 0.048861 0.360228
0.090407 0.048040 0.347759
0.149537 0.056224 0.379665
0.399694 0.095786 0.428917
0.603857 0.134301 0.450839
0.656310 0.141766 0.373480
0.633839 0.132724 0.132728
0.633839 0.132724 0.132728
0.633839 0.132724 0.132728
0.064729 0.132117 0.403669
0.061174 0.121678 0.387912
0.119081 0.106739 0.400094
0.366698 0.087686 0.390114
0.572769 0.125531 0.380423
0.656601 0.141919 0.376646
0.633839 0.132724 0.132728
0.633839 0.132724 0.132728
0.633839 0.132724 0.132728
0.118697 0.330531 0.412955
0.111324 0.310064 0.386814
0.123213 0.347770 0.392277
0.378240 0.380074 0.381285
0.699689 0.304370 0.327812
0.678282 0.143169 0.239508
0.633839 0.132724 0.132728
0.633839 0.132724 0.132728
0.633839 0.132724 0.132728
0.162694 0.473117 0.370633
0.162588 0.474364 0.347641
0.185794 0.545192 0.344301
0.330013 0.654849 0.320607
0.775176 0.721046 0.277880
0.949645 0.658825 0.276392
0.914651 0.426520 0.221643
0.633839 0.132724 0.132728
0.633839 0.132724 0.132728
0.183857 0.537178 0.381200
0.199980 0.586531 0.376004
0.219361 0.645458 0.370892
0.318103 0.739688 0.338173
0.744353 0.844993 0.306997
0.987019 0.865591 0.334119
1.000000 0.820305 0.329585
1.000000 0.705440 0.297699
0.633839 0.132724 0.132728
0.237979 0.696755 0.469336
0.245497 0.719638 0.468737
0.254182 0.746142 0.465852
0.380909 0.806723 0.457109
0.709911 0.889413 0.428577
0.953495 0.928685 0.359071
1.000000 0.897441 0.349849
1.000000 0.865790 0.343669
1.000000 0.834997 0.335010
0.359482 0.834212 0.594832
0.386507 0.841641 0.594590
0.427179 0.852338 0.594088
0.532685 0.879241 0.591824
0.729383 0.925338 0.581358
0.925564 0.959407 0.542236
1.000000 0.961965 0.444811
1.000000 0.878535 0.346910
1.000000 0.865790 0.343669
0.781086 0.983552 0.867541
0.786521 0.984597 0.867579
0.794920 0.986211 0.867634
0.819231 0.990849 0.867709
0.871977 1.000000 0.865911
0.954334 1.000000 0.854982
1.000000 1.000000 0.827180
1.000000 1.000000 0.748846
1.000000 0.907078 0.354340
0.073836 0.073742 0.553892
0.079324 0.077252 0.579897
0.228968 0.092688 0.639334
0.541331 0.138676 0.709341
0.699386 0.164645 0.701923
0.734147 0.169487 0.677497
0.705629 0.160393 0.602470
0.633839 0.132724 0.132728
0.633839 0.132724 0.132728
0.067968 0.067882 0.509871
0.097182 0.068486 0.507644
0.183719 0.079028 0.552924
0.450705 0.118556 0.630240
0.699782 0.164740 0.702359
0.734478 0.169574 0.677988
0.705796 0.160447 0.602934
0.633839 0.132724 0.132728
0.633839 0.132724 0.132728
0.084310 0.147779 0.568898
0.079876 0.122272 0.559763
0.145170 0.085922 0.585033
0.385972 0.107238 0.607700
0.615693 0.144403 0.608691
0.735000 0.169710 0.678764
0.706058 0.160532 0.603665
0.633839 0.132724 0.132728
0.633839 0.132724 0.132728
0.129769 0.327826 0.628586
0.124456 0.310543 0.617857
0.135607 0.343389 0.653595
0.374559 0.361224 0.692759
0.692937 0.273599 0.687496
0.689085 0.155978 0.574881
0.706870 0.160794 0.605928
0.633839 0.132724 0.132728
0.633839 0.132724 0.132728
0.185167 0.515667 0.643893
0.186350 0.520486 0.636766
0.208070 0.587001 0.664796
0.254955 0.688160 0.694597
0.742689 0.735206 0.697085
0.918382 0.647321 0.646155
0.824602 0.222159 0.538852
0.633839 0.132724 0.132728
0.633839 0.132724 0.132728
0.205981 0.585099 0.623386
0.222672 0.636579 0.635224
0.242130 0.696242 0.648587
0.275299 0.798024 0.658811
0.714289 0.907524 0.649585
0.964777 0.934541 0.591552
1.000000 0.901304 0.433974
1.000000 0.721744 0.302381
0.633839 0.132724 0.132728
0.257265 0.741324 0.671679
0.264958 0.764799 0.676645
0.273976 0.792331 0.681608
0.347881 0.852052 0.686136
0.690508 0.934086 0.681644
0.936453 0.975625 0.640464
1.000000 0.974290 0.533260
1.000000 0.892071 0.350227
1.000000 0.835300 0.335095
0.343289 0.855734 0.709825
0.368063 0.863111 0.710635
0.408140 0.873747 0.711704
0.519608 0.900791 0.713843
0.718428 0.947188 0.712400
0.915492 0.982687 0.690871
1.000000 0.991632 0.629383
1.000000 0.963205 0.419567
1.000000 0.865790 0.343669
0.779471 0.987466 0.899230
0.784922 0.988524 0.899387
0.793345 0.990159 0.899627
0.817632 0.994837 0.900241
0.870466 1.000000 0.900010
0.953326 1.000000 0.893799
1.000000 1.000000 0.872715
1.000000 1.000000 0.813360
1.000000 0.970458 0.462274
0.092631 0.172148 0.609431
0.098127 0.186658 0.638149
0.209786 0.218577 0.710399
0.562721 0.236099 0.789646
0.777851 0.223593 0.815176
0.841575 0.253233 0.835510
0.854163 0.266186 0.841985
0.835601 0.200422 0.814936
0.633839 0.132724 0.132728
0.104883 0.221829 0.637243
0.105535 0.219786 0.648810
0.155436 0.234009 0.707081
0.500970 0.235141 0.778679
0.768016 0.224183 0.814137
0.841585 0.253244 0.835515
0.854163 0.266186 0.841985
0.835672 0.200541 0.815041
0.633839 0.132724 0.132728
0.124685 0.294463 0.676039
0.122657 0.284553 0.680472
0.124285 0.272250 0.727134
0.441977 0.207817 0.778231
0.719303 0.184593 0.794202
0.841601 0.253260 0.835524
0.854163 0.266186 0.841985
0.835784 0.200732 0.815205
0.633839 0.132724 0.132728
0.150090 0.383573 0.708953
0.148146 0.376134 0.710004
0.161953 0.415522 0.758068
0.387582 0.445066 0.819250
0.725645 0.389848 0.848652
0.800583 0.187895 0.790520
0.854163 0.266186 0.841985
0.836134 0.201343 0.815719
0.633839 0.132724 0.132728
0.192594 0.524148 0.750224
0.195669 0.533158 0.758334
0.215499 0.593118 0.797832
0.257142 0.679004 0.858512
0.729759 0.708751 0.908472
0.902290 0.609517 0.898808
0.853560 0.266076 0.817732
0.837204 0.203377 0.817290
0.633839 0.132724 0.132728
0.219416 0.610745 0.765175
0.234168 0.655901 0.786048
0.254277 0.716743 0.817534
0.288629 0.820248 0.863924
0.692405 0.927896 0.912407
0.946558 0.953467 0.919755
1.000000 0.920588 0.891071
0.933373 0.537647 0.807426
0.633839 0.132724 0.132728
0.270950 0.768839 0.827320
0.278302 0.791218 0.835965
0.287187 0.818246 0.846190
0.311740 0.878233 0.870231
0.672547 0.962262 0.902186
0.921248 1.000000 0.905875
1.000000 1.000000 0.880681
1.000000 1.000000 0.772356
1.000000 0.808995 0.326624
0.311151 0.879917 0.854294
0.321785 0.887254 0.856921
0.354005 0.897833 0.860720
0.496080 0.925107 0.870691
0.708128 0.971311 0.885379
0.904260 1.000000 0.886576
1.000000 1.000000 0.863076
1.000000 1.000000 0.802683
1.000000 0.961783 0.411478
0.775976 0.993310 0.950777
0.781480 0.994420 0.951181
0.789986 0.996133 0.951805
0.814297 1.000000 0.953522
0.867591 1.000000 0.956451
0.950683 1.000000 0.957533
1.000000 1.000000 0.951080
1.000000 1.000000 0.922792
1.000000 1.000000 0.805514
0.114763 0.258850 0.657431
0.116920 0.261738 0.675058
0.139153 0.281610 0.727706
0.466771 0.276584 0.788189
0.735859 0.227493 0.811404
0.842024 0.253683 0.835739
0.854163 0.266186 0.841985
0.854163 0.266186 0.841985
0.854163 0.266186 0.841985
0.124522 0.293809 0.675981
0.127388 0.299937 0.693500
0.138911 0.323535 0.744435
0.451805 0.328156 0.804524
0.724436 0.238544 0.814354
0.842034 0.253694 0.835745
0.854163 0.266186 0.841985
0.854163 0.266186 0.841985
0.854163 0.266186 0.841985
0.133988 0.326933 0.692012
0.137766 0.336794 0.709285
0.150938 0.373133 0.762310
0.434342 0.400033 0.827882
0.733083 0.326924 0.845615
0.838475 0.250144 0.833925
0.854163 0.266186 0.841985
0.854163 0.266186 0.841985
0.854163 0.266186 0.841985
0.156365 0.403469 0.722013
0.160792 0.415911 0.737944
0.177861 0.466026 0.788867
0.388450 0.517339 0.855429
0.743087 0.500570 0.899033
0.855155 0.354580 0.870720
0.854163 0.266186 0.841985
0.854163 0.266186 0.841985
0.854163 0.266186 0.841985
0.193032 0.523799 0.761087
0.202345 0.551699 0.782061
0.224118 0.617139 0.827763
0.280949 0.702026 0.892743
0.735653 0.742361 0.951761
0.914391 0.681012 0.957960
0.916956 0.481578 0.915361
0.854163 0.266186 0.841985
0.854163 0.266186 0.841985
0.228421 0.634845 0.803535
0.242404 0.677197 0.827199
0.261847 0.735888 0.859697
0.293751 0.828589 0.912002
0.695548 0.922319 0.974256
0.935356 0.940761 0.997124
1.000000 0.910400 0.996517
0.956554 0.631839 0.948284
0.854163 0.266186 0.841985
0.278182 0.786362 0.875601
0.284730 0.806117 0.885477
0.292934 0.830798 0.898199
0.318781 0.887083 0.928823
0.671286 0.967682 0.974094
0.914829 1.000000 0.999443
1.000000 1.000000 1.000000
1.000000 1.000000 0.997759
1.000000 0.867047 0.976273
0.320281 0.895227 0.928439
0.331383 0.902343 0.932310
0.366565 0.912498 0.937860
0.500584 0.938595 0.952298
0.704472 0.982306 0.976414
0.898661 1.000000 0.995681
1.000000 1.000000 1.000000
1.000000 1.000000 0.994952
1.000000 1.000000 0.977553
0.775555 0.997957 0.989922
0.780952 0.999063 0.990496
0.789296 1.000000 0.991384
0.812712 1.000000 0.993826
0.864905 1.000000 0.998952
0.947192 1.000000 1.000000
1.000000 1.000000 1.000000
1.000000 1.000000 1.000000
1.000000 1.000000 0.993092
0.144953 0.364700 0.708005
0.157249 0.400695 0.747674
0.169218 0.434986 0.788539
0.422141 0.471476 0.847644
0.739952 0.449587 0.884782
0.840898 0.301678 0.852303
0.854163 0.266186 0.841985
0.854163 0.266186 0.841985
0.854163 0.266186 0.841985
0.148383 0.376366 0.712639
0.160951 0.413326 0.751767
0.173474 0.449533 0.792486
0.416051 0.488698 0.851511
0.740092 0.470643 0.890710
0.848852 0.336549 0.864333
0.854163 0.266186 0.841985
0.854163 0.266186 0.841985
0.854163 0.266186 0.841985
0.153513 0.393636 0.719557
0.166712 0.432824 0.757929
0.179841 0.471071 0.798333
0.407057 0.514394 0.857181
0.740128 0.501352 0.898875
0.862002 0.393057 0.883168
0.854163 0.266186 0.841985
0.854163 0.266186 0.841985
0.854163 0.266186 0.841985
0.167938 0.441507 0.737745
0.182009 0.483724 0.773505
0.197244 0.528902 0.813463
0.380770 0.582062 0.872202
0.739990 0.583075 0.919089
0.882983 0.496637 0.914158
0.854163 0.266186 0.841985
0.854163 0.266186 0.841985
0.854163 0.266186 0.841985
0.198400 0.539851 0.773436
0.212715 0.582989 0.803405
0.230206 0.635534 0.839407
0.299234 0.708350 0.896884
0.732467 0.747842 0.952457
0.914423 0.699282 0.961363
0.935856 0.564831 0.935812
0.854163 0.266186 0.841985
0.854163 0.266186 0.841985
0.236396 0.658705 0.819340
0.250075 0.699969 0.843193
0.264951 0.744853 0.867940
0.298453 0.827235 0.917535
0.701824 0.911231 0.977071
0.932171 0.926452 1.000000
1.000000 0.896285 1.000000
0.965375 0.668017 0.959620
0.854163 0.266186 0.841985
0.282981 0.800286 0.887660
0.288541 0.817007 0.896459
0.296238 0.840057 0.909316
0.331384 0.893346 0.939949
0.681996 0.968587 0.985356
0.915336 1.000000 1.000000
1.000000 1.000000 1.000000
1.000000 1.000000 1.000000
1.000000 0.861911 0.997400
0.333054 0.906494 0.945695
0.353225 0.912834 0.949298
0.398217 0.922232 0.954680
0.528302 0.946157 0.968616
0.713436 0.986155 0.992197
0.896635 1.000000 1.000000
1.000000 1.000000 1.000000
1.000000 1.000000 1.000000
1.000000 1.000000 1.000000
0.781309 1.000000 1.000000
0.786524 1.000000 1.000000
0.794588 1.000000 1.000000
0.816306 1.000000 1.000000
0.866035 1.000000 1.000000
0.945697 1.000000 1.000000
1.000000 1.000000 1.000000
1.000000 1.000000 1.000000
1.000000 1.000000 1.000000
0.224111 0.617132 0.827659
0.232229 0.641520 0.844068
0.241938 0.670389 0.865337
0.412268 0.721558 0.911028
0.752021 0.745319 0.953998
0.915788 0.696007 0.960910
0.935690 0.563720 0.935578
0.854163 0.266186 0.841985
0.854163 0.266186 0.841985
0.225592 0.621843 0.828958
0.233728 0.646291 0.845241
0.243499 0.675364 0.866382
0.409005 0.727215 0.911981
0.751447 0.752830 0.955330
0.917074 0.705530 0.962689
0.938793 0.577870 0.938726
0.854163 0.266186 0.841985
0.854163 0.266186 0.841985
0.227751 0.628699 0.830835
0.236019 0.653571 0.847041
0.245887 0.682961 0.868008
0.404087 0.735833 0.913448
0.750582 0.764256 0.957367
0.919032 0.719980 0.965400
0.943412 0.598887 0.943441
0.854163 0.266186 0.841985
0.854163 0.266186 0.841985
0.233809 0.647884 0.836121
0.242134 0.672957 0.851766
0.252311 0.703347 0.872316
0.390452 0.759626 0.917462
0.747672 0.795208 0.962650
0.923570 0.760316 0.972835
0.956185 0.657059 0.956660
0.854163 0.266186 0.841985
0.854163 0.266186 0.841985
0.246989 0.689356 0.847681
0.255367 0.714646 0.862079
0.265980 0.746455 0.881564
0.367848 0.808648 0.925060
0.739143 0.861584 0.972991
0.931472 0.848959 0.988306
0.980878 0.782827 0.982069
0.854163 0.266186 0.841985
0.854163 0.266186 0.841985
0.267293 0.752450 0.867445
0.274311 0.773609 0.878675
0.284131 0.803041 0.895521
0.354302 0.865638 0.933742
0.716188 0.936865 0.982471
0.933515 0.958206 1.000000
1.000000 0.944042 1.000000
0.998747 0.823040 0.990610
0.854163 0.266186 0.841985
0.295921 0.839136 0.908553
0.300186 0.851880 0.915828
0.306195 0.869814 0.926209
0.402574 0.912469 0.950738
0.702921 0.974552 0.988488
0.917045 1.000000 1.000000
1.000000 1.000000 1.000000
1.000000 1.000000 1.000000
1.000000 0.921056 1.000000
0.393549 0.921375 0.954186
0.425970 0.927018 0.957444
0.468346 0.934915 0.962034
0.571914 0.955133 0.973891
0.730646 0.989842 0.994374
0.900528 1.000000 1.000000
1.000000 1.000000 1.000000
1.000000 1.000000 1.000000
1.000000 1.000000 1.000000
0.794088 1.000000 1.000000
0.799075 1.000000 1.000000
0.806428 1.000000 1.000000
0.825908 1.000000 1.000000
0.872339 1.000000 1.000000
0.948303 1.000000 1.000000
1.000000 1.000000 1.000000
1.000000 1.000000 1.000000
1.000000 1.000000 1.000000
