lut/Sony/S-Gamut3Cine_Slog3/To_Cine+709.cube
#Sony LookProfile LUT, SLog3SGamut3.CineToCine+709 full in full out v1.04.04
TITLE 	SLog3SGamut3.CineToCine+709
LUT_3D_SIZE 65
0.040001 0.038870 0.029575
0.040001 0.038870 0.029575
0.040001 0.038870 0.029575
0.040006 0.038870 0.029576
0.042139 0.038933 0.029656
0.043811 0.039188 0.029744
0.045439 0.039343 0.029823
0.047253 0.039409 0.029900
0.049019 0.039464 0.029965
0.051145 0.039533 0.030013
0.053551 0.039616 0.030062
0.056914 0.039700 0.030149
0.061996 0.039778 0.030334
0.069076 0.039530 0.030650
0.079838 0.038173 0.031215
0.099101 0.034466 0.032578
0.121782 0.031730 0.034759
0.146534 0.032269 0.037753
0.171639 0.036127 0.041130
0.199660 0.041840 0.044981
0.231304 0.048445 0.049842
0.266674 0.055843 0.056168
0.302816 0.063409 0.063441
0.335428 0.070238 0.070241
0.365801 0.076598 0.076600
0.394617 0.082632 0.082634
0.423871 0.088757 0.088760
0.451498 0.094542 0.094545
0.476587 0.099796 0.099799
0.497082 0.104088 0.104091
0.514781 0.107794 0.107797
0.531701 0.111337 0.111340
0.548044 0.114759 0.114762
0.563217 0.117936 0.117939
0.575808 0.120573 0.120576
0.586913 0.122898 0.122901
0.596836 0.124976 0.124979
0.603607 0.126394 0.126397
0.609736 0.127677 0.127680
0.615092 0.128799 0.128802
0.619368 0.129694 0.129697
0.623387 0.130535 0.130539
0.626936 0.131279 0.131282
0.630109 0.131943 0.131947
0.633236 0.132598 0.132601
0.633839 0.132724 0.132728
0.633839 0.132724 0.132728
0.633839 0.132724 0.132728
0.633839 0.132724 0.132728
0.633839 0.132724 0.132728
0.633839 0.132724 0.132728
0.633839 0.132724 0.132728
0.633839 0.132724 0.132728
0.633839 0.132724 0.132728
0.633839 0.132724 0.132728
0.633839 0.132724 0.132728
0.633839 0.132724 0.132728
0.633839 0.132724 0.132728
0.633839 0.132724 0.132728
0.633839 0.132724 0.132728
0.633839 0.132724 0.132728
0.633839 0.132724 0.132728
0.633839 0.132724 0.132728
0.633839 0.132724 0.132728
0.633839 0.132724 0.132728
0.040001 0.038870 0.029575
0.040001 0.038870 0.029575
0.040001 0.038870 0.029575
0.040001 0.038870 0.029575
0.041754 0.038920 0.029641
0.043466 0.039140 0.029726
0.045008 0.039327 0.029804
0.046845 0.039396 0.029885
0.048660 0.039453 0.029951
0.050625 0.039516 0.030003
0.053028 0.039598 0.030051
0.056231 0.039682 0.030130
0.060932 0.039768 0.030289
0.067168 0.039794 0.030569
0.077982 0.038390 0.031105
0.096181 0.034955 0.032333
0.119230 0.031916 0.034489
0.145086 0.032113 0.037579
0.171533 0.036108 0.041115
0.199842 0.041878 0.045008
0.231500 0.048486 0.049874
0.266840 0.055878 0.056201
0.302958 0.063439 0.063470
0.335535 0.070260 0.070263
0.365886 0.076616 0.076618
0.394691 0.082647 0.082650
0.423936 0.088771 0.088774
0.451550 0.094553 0.094556
0.476621 0.099803 0.099806
0.497112 0.104094 0.104097
0.514803 0.107798 0.107801
0.531719 0.111340 0.111344
0.548059 0.114762 0.114765
0.563230 0.117939 0.117942
0.575817 0.120574 0.120578
0.586919 0.122899 0.122903
0.596840 0.124977 0.124980
0.603610 0.126394 0.126398
0.609738 0.127677 0.127681
0.615094 0.128799 0.128802
0.619369 0.129694 0.129698
0.623388 0.130536 0.130539
0.626937 0.131279 0.131283
0.630110 0.131943 0.131947
0.633236 0.132598 0.132602
0.633839 0.132724 0.132728
0.633839 0.132724 0.132728
0.633839 0.132724 0.132728
0.633839 0.132724 0.132728
0.633839 0.132724 0.132728
0.633839 0.132724 0.132728
0.633839 0.132724 0.132728
0.633839 0.132724 0.132728
0.633839 0.132724 0.132728
0.633839 0.132724 0.132728
0.633839 0.132724 0.132728
0.633839 0.132724 0.132728
0.633839 0.132724 0.132728
0.633839 0.132724 0.132728
0.633839 0.132724 0.132728
0.633839 0.132724 0.132728
0.633839 0.132724 0.132728
0.633839 0.132724 0.132728
0.633839 0.132724 0.132728
0.633839 0.132724 0.132728
0.040001 0.038870 0.029575
0.040001 0.038870 0.029575
0.040001 0.038870 0.029575
0.040001 0.038870 0.029575
0.041333 0.038905 0.029624
0.043125 0.039088 0.029708
0.044622 0.039301 0.029786
0.046477 0.039382 0.029868
0.048289 0.039441 0.029937
0.050106 0.039499 0.029994
0.052506 0.039580 0.030040
0.055548 0.039665 0.030112
0.059869 0.039759 0.030246
0.065946 0.039826 0.030512
0.076042 0.038624 0.030995
0.092371 0.035649 0.032034
0.114588 0.032367 0.034022
0.140351 0.031709 0.036993
0.166730 0.035232 0.040421
0.195788 0.041036 0.044417
0.229039 0.047972 0.049478
0.267016 0.055915 0.056235
0.303100 0.063468 0.063499
0.335642 0.070282 0.070286
0.365972 0.076634 0.076636
0.394766 0.082663 0.082665
0.424002 0.088785 0.088787
0.451601 0.094564 0.094567
0.476656 0.099810 0.099813
0.497143 0.104100 0.104103
0.514825 0.107803 0.107806
0.531737 0.111344 0.111347
0.548074 0.114765 0.114768
0.563243 0.117941 0.117945
0.575825 0.120576 0.120580
0.586926 0.122901 0.122904
0.596844 0.124977 0.124981
0.603613 0.126395 0.126398
0.609740 0.127678 0.127681
0.615095 0.128799 0.128803
0.619370 0.129694 0.129698
0.623389 0.130536 0.130539
0.626938 0.131279 0.131283
0.630110 0.131943 0.131947
0.633237 0.132598 0.132602
0.633839 0.132724 0.132728
0.633839 0.132724 0.132728
0.633839 0.132724 0.132728
0.633839 0.132724 0.132728
0.633839 0.132724 0.132728
0.633839 0.132724 0.132728
0.633839 0.132724 0.132728
0.633839 0.132724 0.132728
0.633839 0.132724 0.132728
0.633839 0.132724 0.132728
0.633839 0.132724 0.132728
0.633839 0.132724 0.132728
0.633839 0.132724 0.132728
0.633839 0.132724 0.132728
0.633839 0.132724 0.132728
0.633839 0.132724 0.132728
0.633839 0.132724 0.132728
0.633839 0.132724 0.132728
0.633839 0.132724 0.132728
0.633839 0.132724 0.132728
0.040085 0.040034 0.029703
0.040061 0.039707 0.029667
0.040036 0.039359 0.029629
0.040008 0.038973 0.029587
0.040870 0.038891 0.029607
0.042770 0.039032 0.029689
0.044325 0.039260 0.029771
0.046094 0.039368 0.029851
0.047904 0.039429 0.029923
0.049587 0.039482 0.029986
0.051985 0.039562 0.030029
0.054866 0.039648 0.030094
0.058808 0.039752 0.030205
0.064865 0.039811 0.030461
0.074105 0.038867 0.030892
0.088566 0.036400 0.031759
0.109951 0.032958 0.033589
0.135665 0.031497 0.036388
0.161927 0.034413 0.039748
0.190259 0.039891 0.043638
0.222197 0.046542 0.048417
0.260366 0.054523 0.054960
0.299811 0.062780 0.062822
0.335748 0.070305 0.070308
0.366058 0.076651 0.076654
0.394840 0.082678 0.082681
0.424067 0.088799 0.088801
0.451653 0.094575 0.094578
0.476691 0.099818 0.099820
0.497173 0.104107 0.104109
0.514847 0.107808 0.107811
0.531756 0.111348 0.111351
0.548088 0.114768 0.114771
0.563256 0.117944 0.117947
0.575834 0.120578 0.120581
0.586932 0.122902 0.122905
0.596848 0.124978 0.124982
0.603617 0.126396 0.126399
0.609743 0.127678 0.127682
0.615097 0.128800 0.128803
0.619372 0.129695 0.129698
0.623390 0.130536 0.130540
0.626939 0.131279 0.131283
0.630111 0.131943 0.131947
0.633238 0.132598 0.132602
0.633839 0.132724 0.132728
0.633839 0.132724 0.132728
0.633839 0.132724 0.132728
0.633839 0.132724 0.132728
0.633839 0.132724 0.132728
0.633839 0.132724 0.132728
0.633839 0.132724 0.132728
0.633839 0.132724 0.132728
0.633839 0.132724 0.132728
0.633839 0.132724 0.132728
0.633839 0.132724 0.132728
0.633839 0.132724 0.132728
0.633839 0.132724 0.132728
0.633839 0.132724 0.132728
0.633839 0.132724 0.132728
0.633839 0.132724 0.132728
0.633839 0.132724 0.132728
0.633839 0.132724 0.132728
0.633839 0.132724 0.132728
0.633839 0.132724 0.132728
0.040244 0.042134 0.029947
0.040218 0.041806 0.029907
0.040193 0.041472 0.029867
0.040165 0.041116 0.029826
0.041055 0.041086 0.029804
0.045496 0.042302 0.029903
0.046773 0.041861 0.029932
0.047787 0.041337 0.029933
0.048820 0.040727 0.029941
0.049731 0.039988 0.029975
0.051464 0.039544 0.030019
0.054185 0.039632 0.030077
0.058113 0.039732 0.030184
0.063784 0.039798 0.030412
0.072169 0.039116 0.030794
0.084768 0.037203 0.031509
0.105902 0.033478 0.033200
0.130981 0.031429 0.035811
0.157126 0.033658 0.039098
0.184731 0.038750 0.042893
0.215399 0.045122 0.047418
0.253497 0.053086 0.053685
0.292747 0.061301 0.061376
0.330117 0.069126 0.069130
0.364522 0.076330 0.076332
0.394914 0.082694 0.082696
0.424133 0.088812 0.088815
0.451705 0.094586 0.094588
0.476725 0.099825 0.099828
0.497203 0.104113 0.104116
0.514869 0.107812 0.107815
0.531774 0.111352 0.111355
0.548103 0.114771 0.114774
0.563268 0.117947 0.117950
0.575843 0.120580 0.120583
0.586938 0.122903 0.122907
0.596851 0.124979 0.124982
0.603620 0.126396 0.126400
0.609745 0.127679 0.127682
0.615099 0.128800 0.128803
0.619373 0.129695 0.129699
0.623391 0.130536 0.130540
0.626939 0.131279 0.131283
0.630112 0.131944 0.131947
0.633238 0.132598 0.132602
0.633839 0.132724 0.132728
0.633839 0.132724 0.132728
0.633839 0.132724 0.132728
0.633839 0.132724 0.132728
0.633839 0.132724 0.132728
0.633839 0.132724 0.132728
0.633839 0.132724 0.132728
0.633839 0.132724 0.132728
0.633839 0.132724 0.132728
0.633839 0.132724 0.132728
0.633839 0.132724 0.132728
0.633839 0.132724 0.132728
0.633839 0.132724 0.132728
0.633839 0.132724 0.132728
0.633839 0.132724 0.132728
0.633839 0.132724 0.132728
0.633839 0.132724 0.132728
0.633839 0.132724 0.132728
0.633839 0.132724 0.132728
0.633839 0.132724 0.132728
0.040405 0.044115 0.030248
0.040376 0.043774 0.030183
0.040347 0.043417 0.030116
0.040325 0.043144 0.030080
0.040302 0.042857 0.030042
0.045478 0.044374 0.030127
0.049116 0.045157 0.030152
0.051254 0.045234 0.030151
0.052551 0.044870 0.030119
0.053704 0.044409 0.030094
0.055172 0.043904 0.030100
0.057185 0.043376 0.030141
0.060430 0.042680 0.030241
0.064792 0.041708 0.030412
0.070858 0.039908 0.030709
0.081024 0.038038 0.031288
0.102050 0.034010 0.032839
0.126301 0.031509 0.035261
0.152326 0.032977 0.038472
0.179203 0.037614 0.042185
0.209844 0.043962 0.046533
0.246628 0.051650 0.052447
0.285683 0.059822 0.059942
0.323993 0.067843 0.067849
0.358848 0.075142 0.075144
0.391845 0.082051 0.082054
0.424198 0.088826 0.088828
0.451757 0.094597 0.094599
0.476760 0.099832 0.099835
0.497233 0.104119 0.104122
0.514891 0.107817 0.107820
0.531792 0.111356 0.111359
0.548118 0.114774 0.114777
0.563281 0.117949 0.117953
0.575851 0.120582 0.120585
0.586945 0.122905 0.122908
0.596855 0.124980 0.124983
0.603623 0.126397 0.126400
0.609748 0.127679 0.127683
0.615100 0.128800 0.128804
0.619374 0.129695 0.129699
0.623392 0.130537 0.130540
0.626940 0.131280 0.131283
0.630112 0.131944 0.131947
0.633239 0.132598 0.132602
0.633839 0.132724 0.132728
0.633839 0.132724 0.132728
0.633839 0.132724 0.132728
0.633839 0.132724 0.132728
0.633839 0.132724 0.132728
0.633839 0.132724 0.132728
0.633839 0.132724 0.132728
0.633839 0.132724 0.132728
0.633839 0.132724 0.132728
0.633839 0.132724 0.132728
0.633839 0.132724 0.132728
0.633839 0.132724 0.132728
0.633839 0.132724 0.132728
0.633839 0.132724 0.132728
0.633839 0.132724 0.132728
0.633839 0.132724 0.132728
0.633839 0.132724 0.132728
0.633839 0.132724 0.132728
0.633839 0.132724 0.132728
0.633839 0.132724 0.132728
0.040567 0.046092 0.030621
0.040543 0.045778 0.030563
0.040518 0.045453 0.030504
0.040493 0.045157 0.030448
0.040467 0.044857 0.030390
0.044612 0.046007 0.030376
0.049380 0.047318 0.030383
0.053021 0.048164 0.030390
0.055222 0.048185 0.030363
0.056792 0.047943 0.030345
0.058343 0.047637 0.030350
0.060529 0.047267 0.030392
0.063882 0.046770 0.030470
0.068519 0.046199 0.030602
0.074860 0.045317 0.030827
0.084830 0.043087 0.031229
0.102866 0.038527 0.032365
0.123898 0.033406 0.034042
0.147528 0.032381 0.037873
0.174027 0.036581 0.041483
0.204291 0.042804 0.045675
0.239761 0.050213 0.051250
0.278620 0.058344 0.058524
0.317868 0.066561 0.066568
0.352968 0.073911 0.073913
0.386160 0.080861 0.080863
0.420175 0.087983 0.087986
0.451808 0.094607 0.094610
0.476795 0.099839 0.099842
0.497263 0.104125 0.104128
0.514913 0.107821 0.107824
0.531811 0.111360 0.111363
0.548132 0.114777 0.114780
0.563294 0.117952 0.117955
0.575860 0.120583 0.120587
0.586951 0.122906 0.122909
0.596859 0.124981 0.124984
0.603626 0.126398 0.126401
0.609750 0.127680 0.127683
0.615102 0.128801 0.128804
0.619376 0.129695 0.129699
0.623393 0.130537 0.130540
0.626941 0.131280 0.131283
0.630113 0.131944 0.131948
0.633239 0.132599 0.132602
0.633839 0.132724 0.132728
0.633839 0.132724 0.132728
0.633839 0.132724 0.132728
0.633839 0.132724 0.132728
0.633839 0.132724 0.132728
0.633839 0.132724 0.132728
0.633839 0.132724 0.132728
0.633839 0.132724 0.132728
0.633839 0.132724 0.132728
0.633839 0.132724 0.132728
0.633839 0.132724 0.132728
0.633839 0.132724 0.132728
0.633839 0.132724 0.132728
0.633839 0.132724 0.132728
0.633839 0.132724 0.132728
0.633839 0.132724 0.132728
0.633839 0.132724 0.132728
0.633839 0.132724 0.132728
0.633839 0.132724 0.132728
0.633839 0.132724 0.132728
0.040710 0.047939 0.030953
0.040689 0.047608 0.030901
0.040667 0.047341 0.030851
0.040645 0.047066 0.030800
0.040622 0.046783 0.030748
0.043637 0.047638 0.030677
0.048636 0.049088 0.030653
0.052778 0.050133 0.030669
0.056366 0.050908 0.030715
0.059145 0.051291 0.030750
0.061279 0.051345 0.030767
0.063662 0.051037 0.030791
0.066967 0.050554 0.030832
0.071323 0.049959 0.030908
0.077636 0.049475 0.031097
0.088657 0.048195 0.031416
0.106015 0.045170 0.032226
0.127959 0.040976 0.032752
0.151733 0.037243 0.033875
0.175031 0.037227 0.037215
0.199043 0.041710 0.044550
0.232893 0.048778 0.050101
0.271567 0.056867 0.057126
0.311536 0.065235 0.065246
0.346828 0.072625 0.072627
0.380474 0.079670 0.079672
0.414388 0.086772 0.086774
0.448006 0.093811 0.093814
0.476829 0.099847 0.099849
0.497293 0.104132 0.104135
0.514936 0.107826 0.107829
0.531829 0.111363 0.111367
0.548147 0.114780 0.114784
0.563306 0.117955 0.117958
0.575868 0.120585 0.120589
0.586957 0.122907 0.122911
0.596862 0.124981 0.124985
0.603629 0.126398 0.126402
0.609752 0.127680 0.127684
0.615103 0.128801 0.128804
0.619377 0.129696 0.129699
0.623394 0.130537 0.130541
0.626942 0.131280 0.131283
0.630114 0.131944 0.131948
0.633240 0.132599 0.132602
0.633839 0.132724 0.132728
0.633839 0.132724 0.132728
0.633839 0.132724 0.132728
0.633839 0.132724 0.132728
0.633839 0.132724 0.132728
0.633839 0.132724 0.132728
0.633839 0.132724 0.132728
0.633839 0.132724 0.132728
0.633839 0.132724 0.132728
0.633839 0.132724 0.132728
0.633839 0.132724 0.132728
0.633839 0.132724 0.132728
0.633839 0.132724 0.132728
0.633839 0.132724 0.132728
0.633839 0.132724 0.132728
0.633839 0.132724 0.132728
0.633839 0.132724 0.132728
0.633839 0.132724 0.132728
0.633839 0.132724 0.132728
0.633839 0.132724 0.132728
0.040854 0.050372 0.031306
0.040830 0.049986 0.031249
0.040806 0.049601 0.031192
0.040783 0.049216 0.031136
0.040761 0.048831 0.031080
0.042551 0.049187 0.030995
0.047802 0.050785 0.030917
0.052214 0.051818 0.030927
0.056542 0.053036 0.031018
0.060371 0.054017 0.031128
0.063426 0.054622 0.031215
0.066360 0.054657 0.031268
0.070054 0.054501 0.031331
0.074433 0.054177 0.031414
0.081458 0.053983 0.031610
0.092228 0.053229 0.031868
0.108414 0.051237 0.032480
0.130224 0.047729 0.033551
0.155827 0.044251 0.034345
0.180337 0.041612 0.038100
0.205751 0.043452 0.043116
0.233601 0.048916 0.048917
0.264517 0.055392 0.055749
0.304453 0.063752 0.063779
0.340689 0.071339 0.071342
0.374789 0.078480 0.078482
0.408601 0.085560 0.085562
0.442730 0.092706 0.092709
0.474396 0.099337 0.099340
0.497323 0.104138 0.104141
0.514958 0.107831 0.107834
0.531847 0.111367 0.111370
0.548161 0.114783 0.114787
0.563319 0.117957 0.117961
0.575877 0.120587 0.120590
0.586964 0.122909 0.122912
0.596866 0.124982 0.124986
0.603633 0.126399 0.126402
0.609755 0.127681 0.127684
0.615105 0.128801 0.128805
0.619378 0.129696 0.129700
0.623395 0.130537 0.130541
0.626942 0.131280 0.131284
0.630114 0.131944 0.131948
0.633240 0.132599 0.132602
0.633839 0.132724 0.132728
0.633839 0.132724 0.132728
0.633839 0.132724 0.132728
0.633839 0.132724 0.132728
0.633839 0.132724 0.132728
0.633839 0.132724 0.132728
0.633839 0.132724 0.132728
0.633839 0.132724 0.132728
0.633839 0.132724 0.132728
0.633839 0.132724 0.132728
0.633839 0.132724 0.132728
0.633839 0.132724 0.132728
0.633839 0.132724 0.132728
0.633839 0.132724 0.132728
0.633839 0.132724 0.132728
0.633839 0.132724 0.132728
0.633839 0.132724 0.132728
0.633839 0.132724 0.132728
0.633839 0.132724 0.132728
0.633839 0.132724 0.132728
0.040869 0.053037 0.031654
0.040875 0.052600 0.031599
0.040881 0.052162 0.031545
0.040889 0.051725 0.031491
0.040897 0.051289 0.031438
0.041276 0.051056 0.031374
0.047083 0.053182 0.031251
0.051722 0.054328 0.031272
0.056070 0.055421 0.031352
0.060473 0.056572 0.031490
0.064312 0.057435 0.031622
0.068091 0.057895 0.031728
0.072427 0.058039 0.031832
0.077081 0.057963 0.031940
0.084739 0.058207 0.032183
0.095468 0.058107 0.032455
0.110823 0.057314 0.033017
0.133534 0.055407 0.034594
0.159685 0.052151 0.035974
0.184711 0.048178 0.039521
0.210153 0.046334 0.044180
0.238223 0.049977 0.049891
0.271175 0.056783 0.056785
0.303088 0.063466 0.063468
0.334550 0.070054 0.070057
0.369104 0.077289 0.077291
0.402815 0.084348 0.084351
0.437455 0.091602 0.091604
0.469983 0.098413 0.098416
0.496084 0.103879 0.103881
0.514980 0.107835 0.107838
0.531865 0.111371 0.111374
0.548176 0.114787 0.114790
0.563332 0.117960 0.117963
0.575886 0.120589 0.120592
0.586970 0.122910 0.122913
0.596870 0.124983 0.124986
0.603636 0.126400 0.126403
0.609757 0.127681 0.127685
0.615106 0.128802 0.128805
0.619380 0.129696 0.129700
0.623397 0.130537 0.130541
0.626943 0.131280 0.131284
0.630115 0.131944 0.131948
0.633241 0.132599 0.132603
0.633839 0.132724 0.132728
0.633839 0.132724 0.132728
0.633839 0.132724 0.132728
0.633839 0.132724 0.132728
0.633839 0.132724 0.132728
0.633839 0.132724 0.132728
0.633839 0.132724 0.132728
0.633839 0.132724 0.132728
0.633839 0.132724 0.132728
0.633839 0.132724 0.132728
0.633839 0.132724 0.132728
0.633839 0.132724 0.132728
0.633839 0.132724 0.132728
0.633839 0.132724 0.132728
0.633839 0.132724 0.132728
0.633839 0.132724 0.132728
0.633839 0.132724 0.132728
0.633839 0.132724 0.132728
0.633839 0.132724 0.132728
0.633839 0.132724 0.132728
0.040645 0.055936 0.031976
0.040747 0.055433 0.031937
0.040851 0.054928 0.031900
0.040854 0.054491 0.031842
0.040858 0.054053 0.031785
0.040862 0.053615 0.031728
0.046366 0.055760 0.031542
0.051235 0.057116 0.031563
0.055483 0.058136 0.031659
0.060105 0.059349 0.031841
0.064420 0.060364 0.032029
0.068923 0.061245 0.032222
0.074394 0.062112 0.032434
0.080381 0.062633 0.032638
0.088154 0.062903 0.032887
0.098414 0.062899 0.033113
0.112279 0.062520 0.033595
0.136175 0.061827 0.035112
0.162897 0.059961 0.037514
0.189478 0.056679 0.041297
0.215346 0.052428 0.045678
0.242766 0.051494 0.050884
0.275560 0.057710 0.057704
0.309084 0.064721 0.064723
0.338090 0.070795 0.070797
0.363420 0.076099 0.076101
0.397028 0.083137 0.083139
0.431894 0.090437 0.090440
0.464700 0.097307 0.097310
0.492009 0.103025 0.103028
0.515002 0.107840 0.107843
0.531884 0.111375 0.111378
0.548191 0.114790 0.114793
0.563344 0.117963 0.117966
0.575894 0.120591 0.120594
0.586976 0.122911 0.122915
0.596874 0.124984 0.124987
0.603639 0.126400 0.126404
0.609760 0.127682 0.127685
0.615108 0.128802 0.128805
0.619381 0.129697 0.129700
0.623398 0.130538 0.130541
0.626944 0.131280 0.131284
0.630116 0.131944 0.131948
0.633241 0.132599 0.132603
0.633839 0.132724 0.132728
0.633839 0.132724 0.132728
0.633839 0.132724 0.132728
0.633839 0.132724 0.132728
0.633839 0.132724 0.132728
0.633839 0.132724 0.132728
0.633839 0.132724 0.132728
0.633839 0.132724 0.132728
0.633839 0.132724 0.132728
0.633839 0.132724 0.132728
0.633839 0.132724 0.132728
0.633839 0.132724 0.132728
0.633839 0.132724 0.132728
0.633839 0.132724 0.132728
0.633839 0.132724 0.132728
0.633839 0.132724 0.132728
0.633839 0.132724 0.132728
0.633839 0.132724 0.132728
0.633839 0.132724 0.132728
0.633839 0.132724 0.132728
0.040029 0.059120 0.032244
0.040117 0.058646 0.032202
0.040207 0.058170 0.032160
0.040298 0.057693 0.032119
0.040391 0.057213 0.032078
0.040485 0.056732 0.032039
0.045265 0.058575 0.031759
0.050740 0.060392 0.031743
0.054956 0.061409 0.031896
0.059727 0.062680 0.032145
0.064305 0.063919 0.032353
0.069180 0.065147 0.032583
0.075969 0.066743 0.032926
0.083421 0.067988 0.033271
0.091934 0.068708 0.033647
0.102279 0.069015 0.034085
0.116201 0.069166 0.034457
0.139379 0.069086 0.035798
0.165760 0.068020 0.038962
0.193166 0.065536 0.043025
0.219949 0.062053 0.047471
0.248843 0.055241 0.052343
0.281158 0.058969 0.058882
0.314322 0.065818 0.065820
0.345583 0.072364 0.072366
0.370632 0.077609 0.077612
0.390820 0.081837 0.081839
0.425607 0.089121 0.089123
0.458969 0.096107 0.096109
0.487588 0.102100 0.102102
0.511879 0.107186 0.107189
0.531904 0.111379 0.111382
0.548206 0.114793 0.114796
0.563358 0.117966 0.117969
0.575903 0.120593 0.120596
0.586983 0.122913 0.122916
0.596878 0.124984 0.124988
0.603643 0.126401 0.126405
0.609762 0.127683 0.127686
0.615109 0.128802 0.128806
0.619382 0.129697 0.129700
0.623399 0.130538 0.130542
0.626945 0.131280 0.131284
0.630116 0.131945 0.131948
0.633242 0.132599 0.132603
0.633839 0.132724 0.132728
0.633839 0.132724 0.132728
0.633839 0.132724 0.132728
0.633839 0.132724 0.132728
0.633839 0.132724 0.132728
0.633839 0.132724 0.132728
0.633839 0.132724 0.132728
0.633839 0.132724 0.132728
0.633839 0.132724 0.132728
0.633839 0.132724 0.132728
0.633839 0.132724 0.132728
0.633839 0.132724 0.132728
0.633839 0.132724 0.132728
0.633839 0.132724 0.132728
0.633839 0.132724 0.132728
0.633839 0.132724 0.132728
0.633839 0.132724 0.132728
0.633839 0.132724 0.132728
0.633839 0.132724 0.132728
0.633839 0.132724 0.132728
0.036559 0.065384 0.032494
0.036974 0.064595 0.032452
0.037402 0.063803 0.032414
0.037842 0.063009 0.032379
0.038295 0.062212 0.032348
0.038759 0.061414 0.032321
0.042634 0.062358 0.031707
0.049876 0.064820 0.031402
0.054889 0.066188 0.031816
0.059729 0.067767 0.032089
0.064501 0.069261 0.032388
0.069244 0.070607 0.032693
0.077110 0.072895 0.033115
0.085756 0.074906 0.033577
0.095395 0.076400 0.034111
0.106415 0.077187 0.034880
0.121594 0.078018 0.035335
0.143338 0.078919 0.037541
0.169991 0.079362 0.041276
0.199078 0.078724 0.045888
0.227173 0.075670 0.050374
0.256012 0.066765 0.054709
0.287064 0.061618 0.060222
0.322073 0.067447 0.067444
0.355109 0.074359 0.074361
0.380468 0.079669 0.079671
0.403364 0.084463 0.084466
0.422306 0.088430 0.088432
0.451481 0.094539 0.094541
0.481812 0.100890 0.100893
0.506991 0.106163 0.106165
0.529900 0.110960 0.110963
0.548227 0.114797 0.114800
0.563376 0.117969 0.117973
0.575916 0.120595 0.120598
0.586992 0.122915 0.122918
0.596883 0.124986 0.124989
0.603647 0.126402 0.126406
0.609766 0.127683 0.127687
0.615112 0.128803 0.128806
0.619384 0.129697 0.129701
0.623400 0.130538 0.130542
0.626946 0.131281 0.131284
0.630117 0.131945 0.131948
0.633243 0.132599 0.132603
0.633839 0.132724 0.132728
0.633839 0.132724 0.132728
0.633839 0.132724 0.132728
0.633839 0.132724 0.132728
0.633839 0.132724 0.132728
0.633839 0.132724 0.132728
0.633839 0.132724 0.132728
0.633839 0.132724 0.132728
0.633839 0.132724 0.132728
0.633839 0.132724 0.132728
0.633839 0.132724 0.132728
0.633839 0.132724 0.132728
0.633839 0.132724 0.132728
0.633839 0.132724 0.132728
0.633839 0.132724 0.132728
0.633839 0.132724 0.132728
0.633839 0.132724 0.132728
0.633839 0.132724 0.132728
0.633839 0.132724 0.132728
0.633839 0.132724 0.132728
0.030556 0.076599 0.033197
0.031121 0.075077 0.033060
0.031798 0.073553 0.032939
0.032584 0.072025 0.032834
0.033470 0.070495 0.032744
0.034451 0.068962 0.032672
0.036800 0.068118 0.031896
0.045857 0.071747 0.028658
0.052139 0.073700 0.027881
0.057856 0.075411 0.028376
0.063520 0.077115 0.029438
0.069076 0.078632 0.030573
0.077436 0.081062 0.032052
0.086782 0.083423 0.033395
0.096877 0.085362 0.034445
0.108875 0.086331 0.034993
0.124316 0.087725 0.036774
0.145066 0.089305 0.039639
0.172395 0.091121 0.043826
0.203692 0.092211 0.048867
0.234477 0.091704 0.053891
0.265147 0.088096 0.058766
0.296943 0.079167 0.063622
0.331813 0.071704 0.069646
0.364515 0.076352 0.076332
0.392878 0.082267 0.082270
0.416450 0.087204 0.087206
0.436349 0.091370 0.091373
0.454349 0.095139 0.095142
0.475163 0.099498 0.099501
0.501365 0.104984 0.104987
0.524521 0.109833 0.109836
0.547420 0.114628 0.114631
0.563397 0.117974 0.117977
0.575930 0.120598 0.120601
0.587003 0.122917 0.122920
0.596889 0.124987 0.124990
0.603652 0.126403 0.126407
0.609770 0.127684 0.127688
