lut/Sony/NewLook/SL3SG3toVintage_709.cube
# Copyright 2023 SONY
# Vintage 709 LUT
# S-Log3/S-Gamut3 to Rec.709
# 
LUT_3D_SIZE 5
0.000000 0.000000 0.000000
0.126485 0.001383 0.001430
0.293924 0.003211 0.003211
0.707636 0.018836 0.125468
0.993918 0.849325 0.837919
0.005053 0.142166 0.005053
0.124738 0.125376 0.005725
0.375811 0.015193 0.004545
0.772204 0.190130 0.201942
0.994139 0.855340 0.839569
0.016768 0.471836 0.016768
0.016787 0.472396 0.016787
0.643643 0.582347 0.093505
0.951901 0.630541 0.435448
0.995526 0.893063 0.850383
0.030270 0.842385 0.104560
0.030313 0.842663 0.112010
0.030636 0.844719 0.166728
0.966115 0.943721 0.544882
0.998614 0.977494 0.872718
0.036751 0.935816 0.803639
0.036752 0.935814 0.803826
0.036758 0.935792 0.805274
0.036813 0.935597 0.818284
0.999594 0.999279 0.921718
0.000420 0.000420 0.089318
0.119300 0.001770 0.100880
0.288904 0.003392 0.053978
0.704861 0.015955 0.164105
0.993961 0.849554 0.845583
0.005392 0.133928 0.144404
0.115801 0.120668 0.126009
0.385183 0.017124 0.075172
0.773772 0.190055 0.237931
0.994182 0.855561 0.847172
0.018256 0.500675 0.120114
0.018327 0.501782 0.127282
0.669057 0.609791 0.311266
0.955922 0.638439 0.473429
0.995559 0.893070 0.857462
0.031421 0.852675 0.277798
0.031443 0.852983 0.280131
0.031608 0.855407 0.297213
0.967382 0.948951 0.584403
0.998639 0.977584 0.877641
0.036781 0.935724 0.810629
0.036782 0.935721 0.810806
0.036787 0.935701 0.812178
0.036809 0.934724 0.823861
0.999605 0.999321 0.923587
0.002913 0.014043 0.238033
0.073620 0.001873 0.229780
0.274157 0.003915 0.199867
0.651720 0.019913 0.276316
0.994233 0.853128 0.878644
0.003831 0.070887 0.291135
0.077079 0.068674 0.287674
0.334552 0.007778 0.239768
0.752472 0.155222 0.372627
0.994446 0.858912 0.880384
0.019873 0.493323 0.531544
0.019904 0.494093 0.532344
0.687907 0.674891 0.664195
0.961724 0.659259 0.662538
0.995771 0.894814 0.891259
0.034224 0.883254 0.654970
0.034226 0.883230 0.655487
0.034238 0.883047 0.659480
0.972469 0.965268 0.757551
0.998783 0.978051 0.907562
0.036693 0.929155 0.841153
0.036693 0.929154 0.841245
0.036696 0.929147 0.841964
0.036724 0.929181 0.848320
0.999684 0.999617 0.936713
0.043724 0.123585 0.567688
0.130391 0.130699 0.579900
0.361629 0.094385 0.541045
0.729708 0.224596 0.639174
0.995177 0.869237 0.959650
0.015642 0.187132 0.618992
0.137033 0.198639 0.636462
0.419172 0.193479 0.621772
0.793838 0.346674 0.717803
0.995378 0.874768 0.960932
0.019824 0.461586 0.769702
0.020117 0.467906 0.778437
0.586083 0.601839 0.878655
0.945560 0.726754 0.901614
0.996494 0.905547 0.967782
0.033985 0.847078 0.884763
0.033987 0.847111 0.884789
0.033996 0.847365 0.884989
0.971038 0.969696 0.968704
0.999105 0.978129 0.977590
0.037099 0.929386 0.929585
0.037099 0.929388 0.929598
0.037100 0.929403 0.929701
0.037109 0.929541 0.930673
0.999895 0.999893 0.980560
0.553171 0.822988 0.982785
0.599950 0.830729 0.985672
0.786831 0.844348 0.990672
0.975380 0.875367 0.991485
0.997838 0.939594 0.997851
0.543375 0.825958 0.982729
0.591310 0.834323 0.985670
0.783851 0.849488 0.991148
0.975783 0.879232 0.992085
0.997884 0.940863 0.997896
0.461577 0.840792 0.980542
0.519406 0.851895 0.984199
0.757755 0.879461 0.992889
0.976716 0.902168 0.995105
0.998214 0.950057 0.998226
0.034847 0.862777 0.952872
0.034848 0.862798 0.952873
0.036294 0.901394 0.969722
0.966364 0.971962 0.998654
0.999304 0.980834 0.999316
0.037385 0.933467 0.959314
0.037385 0.933467 0.959314
0.037385 0.933467 0.959314
0.037385 0.933467 0.959314
0.999985 0.999985 1.000000
