lut/Sony/NewLook/SL3SG3toCool_709.cube
# Copyright 2023 SONY
# Cool 709 LUT
# S-Log3/S-Gamut3 to Rec.709
# 
LUT_3D_SIZE 5
0.000000 0.000000 0.000000
0.173974 0.000000 0.000000
0.715103 0.000000 0.000000
0.999744 0.000000 0.055221
1.000000 0.734799 0.727690
0.000000 0.180616 0.000452
0.145380 0.172887 0.000000
0.697297 0.025020 0.000000
0.999763 0.114744 0.079172
1.000000 0.746252 0.727989
0.000000 0.710590 0.043052
0.000000 0.710929 0.047660
0.635640 0.638256 0.000000
0.999762 0.603992 0.135925
1.000000 0.818024 0.730299
0.000000 0.999787 0.324097
0.000000 0.999787 0.326410
0.000000 0.999788 0.343410
0.996413 0.997542 0.321306
1.000000 0.980609 0.749675
0.000000 1.000000 0.777557
0.000000 1.000000 0.777857
0.000000 1.000000 0.780190
0.000000 1.000000 0.801137
1.000000 1.000000 0.854424
0.000000 0.000000 0.189653
0.158044 0.000000 0.175667
0.715480 0.000000 0.121949
0.999744 0.000000 0.184541
1.000000 0.733819 0.738790
0.000000 0.169543 0.196153
0.127352 0.157397 0.191012
0.685868 0.013939 0.108260
0.999763 0.111475 0.209897
1.000000 0.745255 0.739060
0.000000 0.694113 0.249378
0.000000 0.694458 0.253262
0.627717 0.629320 0.168432
0.999718 0.601614 0.252794
1.000000 0.816995 0.741151
0.000000 0.999787 0.394226
0.000000 0.999787 0.395667
0.000000 0.999788 0.407034
0.994240 0.997603 0.386118
1.000000 0.979612 0.759151
0.000000 1.000000 0.788863
0.000000 1.000000 0.789148
0.000000 1.000000 0.791357
0.000000 1.000000 0.811251
1.000000 1.000000 0.858071
0.000000 0.000000 0.620929
0.068176 0.000000 0.628911
0.688064 0.000000 0.607583
0.998847 0.000000 0.559473
1.000000 0.727594 0.804680
0.000000 0.103848 0.628561
0.017925 0.075310 0.618837
0.653612 0.001614 0.581956
0.999177 0.082654 0.573701
1.000000 0.739069 0.804868
0.000000 0.661679 0.638386
0.000000 0.662240 0.638893
0.605615 0.605325 0.597009
0.999471 0.578826 0.590055
1.000000 0.810558 0.806373
0.000000 0.999788 0.667966
0.000000 0.999788 0.668490
0.000000 0.999789 0.672533
0.981653 0.988018 0.630362
1.000000 0.973214 0.817949
0.000000 1.000000 0.858076
0.000000 1.000000 0.858265
0.000000 1.000000 0.859734
0.000000 1.000000 0.872613
1.000000 1.000000 0.883692
0.000000 0.232613 0.990296
0.024880 0.196151 0.984908
0.618469 0.104912 0.967445
0.986254 0.189180 0.944937
1.000000 0.736202 0.953855
0.000000 0.342338 0.991512
0.011344 0.316733 0.986289
0.617856 0.246893 0.969854
0.985064 0.285141 0.945186
1.000000 0.746668 0.953928
0.000000 0.660308 0.995376
0.000000 0.650564 0.991745
0.571874 0.614224 0.974059
0.977915 0.586569 0.946668
1.000000 0.807234 0.954442
0.000000 0.999733 0.998169
0.000000 0.999734 0.998192
0.000000 0.999740 0.998366
0.954528 0.954452 0.951507
1.000000 0.956713 0.956573
0.000000 1.000000 1.000000
0.000000 1.000000 1.000000
0.000000 1.000000 1.000000
0.000000 1.000000 1.000000
1.000000 1.000000 0.964849
0.547563 0.855441 1.000000
0.579290 0.852788 1.000000
0.735639 0.837281 1.000000
0.968355 0.816383 1.000000
1.000000 0.881600 0.999989
0.541913 0.861782 1.000000
0.574260 0.859131 1.000000
0.733082 0.843566 1.000000
0.968016 0.822344 1.000000
1.000000 0.883964 0.999989
0.493857 0.901920 1.000000
0.532412 0.899062 1.000000
0.712862 0.882642 1.000000
0.965776 0.856796 1.000000
1.000000 0.901094 0.999990
0.000000 0.999873 1.000000
0.000000 0.999873 1.000000
0.342204 0.999864 1.000000
0.952600 0.964008 1.000000
1.000000 0.962468 0.999993
0.000000 1.000000 1.000000
0.000000 1.000000 1.000000
0.000000 1.000000 1.000000
0.000000 1.000000 1.000000
1.000000 1.000000 1.000000
