lut/Sony/NewLook/SL3SG3CtoWarm_709.cube
# Copyright 2023 SONY
# Warm 709 LUT
# S-Log3/S-Gamut3.Cine to Rec.709
# 
LUT_3D_SIZE 33
0.000000 0.000000 0.000000
0.000000 0.000000 0.000000
0.018402 0.000000 0.000000
0.037568 0.000000 0.000000
0.063737 0.000000 0.000000
0.093049 0.000000 0.000000
0.120729 0.000000 0.000000
0.151324 0.000000 0.000000
0.185901 0.000000 0.000000
0.226825 0.000000 0.000000
0.275395 0.000000 0.000000
0.328862 0.000000 0.000000
0.390051 0.000000 0.000000
0.454414 0.000000 0.000000
0.522896 0.000000 0.000000
0.596750 0.000000 0.000000
0.671824 0.000000 0.000000
0.742153 0.000000 0.000000
0.805142 0.000000 0.000000
0.862745 0.000000 0.000000
0.910780 0.000000 0.000000
0.950774 0.000000 0.000000
0.985229 0.000000 0.000000
0.994476 0.000000 0.000000
0.989792 0.000000 0.000000
0.985336 0.000000 0.000000
0.981949 0.000000 0.000000
0.980880 0.000000 0.000000
0.980804 0.000000 0.000000
0.979187 0.000000 0.000000
0.974670 0.000000 0.000000
0.973236 0.000000 0.000000
0.974044 0.000000 0.000000
0.000000 0.000000 0.000000
0.000000 0.000000 0.000000
0.017410 0.000000 0.000000
0.036545 0.000000 0.000000
0.062592 0.000000 0.000000
0.091936 0.000000 0.000000
0.119783 0.000000 0.000000
0.150546 0.000000 0.000000
0.185260 0.000000 0.000000
0.226307 0.000000 0.000000
0.274983 0.000000 0.000000
0.328527 0.000000 0.000000
0.389776 0.000000 0.000000
0.454170 0.000000 0.000000
0.522667 0.000000 0.000000
0.596551 0.000000 0.000000
0.671656 0.000000 0.000000
0.741985 0.000000 0.000000
0.804990 0.000000 0.000000
0.862608 0.000000 0.000000
0.910658 0.000000 0.000000
0.950652 0.000000 0.000000
0.985122 0.000000 0.000000
0.994476 0.000000 0.000000
0.989792 0.000000 0.000000
0.985336 0.000000 0.000000
0.981949 0.000000 0.000000
0.980880 0.000000 0.000000
0.980804 0.000000 0.000000
0.979187 0.000000 0.000000
0.974670 0.000000 0.000000
0.973236 0.000000 0.000000
0.974044 0.000000 0.000000
0.000046 0.022492 0.000000
0.000046 0.020020 0.000000
0.016495 0.017533 0.000015
0.035599 0.015015 0.000061
0.061509 0.012360 0.000061
0.090883 0.009232 0.000000
0.118929 0.005142 0.000000
0.149905 0.000000 0.000000
0.184634 0.000000 0.000000
0.225788 0.000000 0.000000
0.274571 0.000000 0.000000
0.328191 0.000000 0.000000
0.389487 0.000000 0.000000
0.453925 0.000000 0.000000
0.522454 0.000000 0.000000
0.596353 0.000000 0.000000
0.671473 0.000000 0.000000
0.741817 0.000000 0.000000
0.804852 0.000000 0.000000
0.862470 0.000000 0.000000
0.910521 0.000000 0.000000
0.950530 0.000000 0.000000
0.985000 0.000000 0.000000
0.994476 0.000000 0.000000
0.989792 0.000000 0.000000
0.985336 0.000000 0.000000
0.981949 0.000000 0.000000
0.980880 0.000000 0.000000
0.980804 0.000000 0.000000
0.979187 0.000000 0.000000
0.974670 0.000000 0.000000
0.973236 0.000000 0.000000
0.974044 0.000000 0.000000
0.000061 0.043824 0.000000
0.000061 0.041276 0.000000
0.015534 0.038697 0.000000
0.034623 0.036118 0.000000
0.060365 0.033341 0.000000
0.089708 0.030075 0.000000
0.117891 0.025788 0.000000
0.148959 0.019821 0.000000
0.183978 0.011597 0.000000
0.225467 0.000000 0.000000
0.274159 0.000000 0.000000
0.327855 0.000000 0.000000
0.389197 0.000000 0.000000
0.453681 0.000000 0.000000
0.522225 0.000000 0.000000
0.596155 0.000000 0.000000
0.671290 0.000000 0.000000
0.741650 0.000000 0.000000
0.804700 0.000000 0.000000
0.862333 0.000000 0.000000
0.910399 0.000000 0.000000
0.950408 0.000000 0.000000
0.984878 0.000000 0.000000
0.994476 0.000000 0.000000
0.989792 0.000000 0.000000
0.985336 0.000000 0.000000
0.981949 0.000000 0.000000
0.980880 0.000000 0.000000
0.980804 0.000000 0.000000
0.979187 0.000000 0.000000
0.974670 0.000000 0.000000
0.973236 0.000000 0.000000
0.974044 0.000000 0.000000
0.000000 0.073030 0.000000
0.000000 0.070176 0.000000
0.014466 0.067323 0.000000
0.033539 0.064439 0.000000
0.059220 0.061402 0.000000
0.088441 0.057649 0.000000
0.116762 0.052827 0.000000
0.147936 0.046097 0.000000
0.182940 0.036790 0.000000
0.224353 0.022980 0.000000
0.273732 0.002960 0.000000
0.327504 0.000000 0.000000
0.388907 0.000000 0.000000
0.453422 0.000000 0.000000
0.521996 0.000000 0.000000
0.595941 0.000000 0.000000
0.671092 0.000000 0.000000
0.741482 0.000000 0.000000
0.804532 0.000000 0.000000
0.862181 0.000000 0.000000
0.910262 0.000000 0.000000
0.950286 0.000000 0.000000
0.984771 0.000000 0.000000
0.994476 0.000000 0.000000
0.989792 0.000000 0.000000
0.985336 0.000000 0.000000
0.981949 0.000000 0.000000
0.980880 0.000000 0.000000
0.980804 0.000000 0.000000
0.979187 0.000000 0.000000
0.974670 0.000000 0.000000
0.973236 0.000000 0.000000
0.974044 0.000000 0.000000
0.000000 0.104112 0.000000
0.000000 0.101503 0.000000
0.013047 0.098772 0.000000
0.032120 0.096010 0.000000
0.057725 0.093095 0.000000
0.087114 0.089845 0.000000
0.115373 0.084688 0.000000
0.146670 0.077394 0.000000
0.181720 0.067506 0.000000
0.223056 0.052796 0.000000
0.272267 0.031342 0.000000
0.326986 0.003357 0.000000
0.388571 0.000000 0.000000
0.453132 0.000000 0.000000
0.521737 0.000000 0.000000
0.595712 0.000000 0.000000
0.670878 0.000000 0.000000
0.741283 0.000000 0.000000
0.804349 0.000000 0.000000
0.862013 0.000000 0.000000
0.910109 0.000000 0.000000
0.950149 0.000000 0.000000
0.984634 0.000000 0.000000
0.994476 0.000000 0.000000
0.989792 0.000000 0.000000
0.985336 0.000000 0.000000
0.981949 0.000000 0.000000
0.980880 0.000000 0.000000
0.980804 0.000000 0.000000
0.979187 0.000000 0.000000
0.974670 0.000000 0.000000
0.973236 0.000000 0.000000
0.974044 0.000000 0.000000
0.000000 0.132555 0.000000
0.000000 0.130358 0.000000
0.011047 0.128176 0.000000
0.030121 0.125994 0.000000
0.055573 0.123674 0.000000
0.085008 0.120806 0.000000
0.114015 0.116854 0.000000
0.144930 0.110475 0.000000
0.180102 0.101930 0.000000
0.221485 0.088426 0.000000
0.270481 0.067307 0.000000
0.324697 0.038956 0.000000
0.387640 0.004196 0.000000
0.452750 0.000000 0.000000
0.521401 0.000000 0.000000
0.595392 0.000000 0.000000
0.670604 0.000000 0.000000
0.741024 0.000000 0.000000
0.804120 0.000000 0.000000
0.861799 0.000000 0.000000
0.909911 0.000000 0.000000
0.949950 0.000000 0.000000
0.984451 0.000000 0.000000
0.994476 0.000000 0.000000
0.989792 0.000000 0.000000
0.985336 0.000000 0.000000
0.981949 0.000000 0.000000
0.980880 0.000000 0.000000
0.980804 0.000000 0.000000
0.979187 0.000000 0.000000
0.974670 0.000000 0.000000
0.973236 0.000000 0.000000
0.974044 0.000000 0.000000
0.000000 0.163790 0.000000
0.000000 0.161990 0.000000
0.008072 0.160220 0.000000
0.027146 0.158480 0.000000
0.052384 0.156619 0.000000
0.081804 0.154345 0.000000
0.111406 0.151171 0.000000
0.143435 0.146532 0.000000
0.177859 0.138430 0.000000
0.219303 0.127413 0.000000
0.268177 0.110414 0.000000
0.321920 0.085832 0.000000
0.384039 0.051560 0.000000
0.450706 0.011780 0.000000
0.520928 0.000000 0.000000
0.594980 0.000000 0.000000
0.670222 0.000000 0.000000
0.740673 0.000000 0.000000
0.803800 0.000000 0.000000
0.861509 0.000000 0.000000
0.909636 0.000000 0.000000
0.949691 0.000000 0.000000
0.984207 0.000000 0.000000
0.994476 0.000000 0.000000
0.989792 0.000000 0.000000
0.985336 0.000000 0.000000
0.981949 0.000000 0.000000
0.980880 0.000000 0.000000
0.980804 0.000000 0.000000
0.979187 0.000000 0.000000
0.974670 0.000000 0.000000
0.973236 0.000000 0.000000
0.974044 0.000000 0.000000
0.000000 0.198978 0.000000
0.000000 0.197513 0.000000
0.003769 0.196094 0.000000
0.022766 0.194720 0.000000
0.047730 0.193256 0.000000
0.076799 0.191455 0.000000
0.107317 0.188968 0.000000
0.140154 0.185245 0.000000
0.176364 0.179660 0.000000
0.216358 0.168688 0.000000
0.265202 0.154498 0.000000
0.318700 0.134874 0.000000
0.379858 0.108339 0.000000
0.445121 0.073884 0.000000
0.516579 0.031632 0.000000
0.594827 0.000000 0.000000
0.669688 0.000000 0.000000
0.740185 0.000000 0.000000
0.803357 0.000000 0.000000
0.861097 0.000000 0.000000
0.909255 0.000000 0.000000
0.949340 0.000000 0.000000
0.983856 0.000000 0.000000
0.994476 0.000000 0.000000
0.989792 0.000000 0.000000
0.985336 0.000000 0.000000
0.981949 0.000000 0.000000
0.980880 0.000000 0.000000
0.980804 0.000000 0.000000
0.979187 0.000000 0.000000
0.974670 0.000000 0.000000
0.973236 0.000000 0.000000
0.974044 0.000000 0.000000
0.000000 0.240421 0.000000
0.000000 0.239231 0.000000
0.000000 0.238071 0.000000
0.016007 0.237049 0.000000
0.040482 0.235981 0.000000
0.069383 0.234638 0.000000
0.100862 0.232715 0.000000
0.134676 0.229816 0.000000
0.171908 0.225559 0.000000
0.214771 0.218418 0.000000
0.261082 0.203693 0.000000
0.314366 0.187335 0.000000
0.375097 0.166232 0.000000
0.439170 0.140459 0.000000
0.508400 0.110536 0.000000
0.585779 0.074296 0.000000
0.665537 0.025879 0.000000
0.739452 0.000000 0.000000
0.802686 0.000000 0.000000
0.860487 0.000000 0.000000
0.908690 0.000000 0.000000
0.948806 0.000000 0.000000
0.983352 0.000000 0.000000
0.994476 0.000000 0.000000
0.989792 0.000000 0.000000
0.985336 0.000000 0.000000
0.981949 0.000000 0.000000
0.980880 0.000000 0.000000
0.980804 0.000000 0.000000
0.979187 0.000000 0.000000
0.974670 0.000000 0.000000
0.973236 0.000000 0.000000
0.974044 0.000000 0.000000
0.000000 0.289418 0.000000
0.000000 0.288472 0.000000
0.000000 0.287526 0.000000
0.005798 0.286717 0.000000
0.029480 0.285954 0.000000
0.058076 0.284993 0.000000
0.090578 0.283604 0.000000
0.125978 0.281422 0.000000
0.164431 0.278111 0.000000
0.208820 0.272831 0.000000
0.259663 0.263844 0.000000
0.308904 0.245716 0.000000
0.368872 0.227558 0.000000
0.432486 0.206973 0.000000
0.500511 0.184207 0.000000
0.576455 0.159915 0.000000
0.654582 0.130938 0.000000
0.728542 0.094346 0.000000
0.796338 0.045182 0.000000
0.859602 0.000000 0.000000
0.907851 0.000000 0.000000
0.948013 0.000000 0.000000
0.982589 0.000000 0.000000
0.994476 0.000000 0.000000
0.989792 0.000000 0.000000
0.985336 0.000000 0.000000
0.981949 0.000000 0.000000
0.980880 0.000000 0.000000
0.980804 0.000000 0.000000
0.979187 0.000000 0.000000
0.974670 0.000000 0.000000
0.973236 0.000000 0.000000
0.974044 0.000000 0.000000
0.000000 0.343114 0.000000
0.000000 0.342351 0.000000
0.000000 0.341588 0.000000
0.000000 0.340856 0.000000
0.014694 0.340261 0.000000
0.042740 0.339544 0.000000
0.076402 0.338506 0.000000
0.113741 0.336858 0.000000
0.153903 0.334310 0.000000
0.199817 0.330175 0.000000
0.252659 0.323568 0.000000
0.308324 0.313146 0.000000
0.362493 0.291356 0.000000
0.424689 0.272618 0.000000
0.492454 0.254108 0.000000
0.567727 0.235431 0.000000
0.645151 0.214649 0.000000
0.718074 0.190524 0.000000
0.784039 0.162646 0.000000
0.844984 0.129702 0.000000
0.896971 0.090700 0.000000
0.941299 0.047211 0.000000
0.979721 0.005722 0.000000
0.994476 0.000000 0.000000
0.989792 0.000000 0.000000
0.985336 0.000000 0.000000
0.981949 0.000000 0.000000
0.980880 0.000000 0.000000
0.980804 0.000000 0.000000
0.979187 0.000000 0.000000
0.974670 0.000000 0.000000
0.973236 0.000000 0.000000
0.974044 0.000000 0.000000
0.000000 0.404578 0.000000
0.000000 0.403937 0.000000
0.000000 0.403281 0.000000
0.000000 0.402625 0.000000
0.000000 0.401984 0.000000
0.023514 0.401266 0.000000
0.057114 0.400351 0.000000
0.097536 0.398993 0.000000
0.139879 0.396933 0.000000
0.187747 0.393591 0.000000
0.242267 0.388266 0.000000
0.300420 0.380667 0.000000
0.363470 0.368902 0.000000
0.418540 0.344869 0.000000
0.483452 0.326055 0.000000
0.558709 0.310719 0.000000
0.635828 0.294133 0.000000
0.708400 0.275517 0.000000
0.773816 0.254963 0.000000
0.833921 0.232197 0.000000
0.884611 0.207721 0.000000
0.927001 0.184527 0.000000
0.963623 0.163256 0.000000
0.979538 0.144839 0.000000
0.976257 0.129793 0.000000
0.972869 0.118212 0.000000
0.970397 0.109651 0.000000
0.969772 0.103761 0.000000
0.970062 0.100069 0.000000
0.968795 0.096712 0.000000
0.964630 0.092180 0.000000
0.963851 0.085802 0.000000
0.965454 0.076829 0.000000
0.000000 0.470253 0.000000
0.000000 0.469673 0.000000
0.000000 0.469093 0.000000
0.000000 0.468513 0.000000
0.000000 0.467918 0.000000
0.002243 0.466911 0.000000
0.035554 0.465721 0.000000
0.078477 0.464195 0.000000
0.123583 0.462226 0.000000
0.173617 0.459297 0.000000
0.230015 0.454810 0.000000
0.289754 0.448539 0.000000
0.355749 0.440177 0.000000
0.421637 0.427939 0.000000
0.479515 0.403647 0.000000
0.549661 0.385260 0.000000
0.626551 0.370993 0.000000
0.698909 0.355520 0.000000
0.764050 0.338872 0.000000
0.823865 0.320912 0.000000
0.874128 0.302281 0.000000
0.916030 0.285237 0.000000
0.952132 0.270222 0.000000
0.968994 0.257847 0.000000
0.965286 0.248280 0.000000
0.961395 0.241291 0.000000
0.958526 0.236240 0.000000
0.957839 0.232807 0.000000
0.957839 0.230747 0.000000
0.956405 0.228885 0.000000
0.952132 0.226429 0.000000
0.951049 0.222995 0.000000
0.952361 0.218250 0.000000
0.000000 0.536034 0.000000
0.000000 0.535531 0.000000
0.000000 0.535027 0.000000
0.000000 0.534508 0.000000
0.000000 0.533989 0.000000
0.000000 0.533257 0.000000
0.014008 0.531929 0.000000
0.058366 0.530114 0.000000
0.106966 0.527794 0.000000
0.159426 0.524697 0.000000
0.217655 0.520516 0.000000
0.278965 0.515023 0.000000
0.346365 0.508003 0.000000
0.415625 0.499596 0.000000
0.484733 0.487404 0.000000
0.547372 0.462776 0.000000
0.617807 0.443793 0.000000
0.689769 0.429984 0.000000
0.754818 0.415717 0.000000
0.814481 0.400595 0.000000
0.864546 0.385199 0.000000
0.906355 0.371344 0.000000
0.942138 0.359350 0.000000
0.960494 0.349630 0.000000
0.956512 0.342382 0.000000
0.952499 0.337102 0.000000
0.949493 0.333364 0.000000
0.948653 0.330831 0.000000
0.948745 0.329274 0.000000
0.947234 0.327916 0.000000
0.942901 0.326131 0.000000
0.941741 0.323629 0.000000
0.942809 0.320195 0.000000
0.000000 0.602182 0.000000
0.000000 0.601724 0.000000
0.000000 0.601282 0.000000
0.000000 0.600824 0.000000
0.000000 0.600351 0.000000
0.000000 0.599817 0.000000
0.000000 0.598764 0.000000
0.035416 0.597055 0.000000
0.089265 0.594827 0.000000
0.145388 0.591897 0.000000
0.206073 0.587915 0.000000
0.268971 0.582864 0.000000
0.337591 0.576593 0.000000
0.407797 0.569192 0.000000
0.480156 0.560769 0.000000
0.553124 0.547265 0.000000
0.616281 0.522042 0.000000
0.681575 0.502968 0.000000
0.745739 0.489448 0.000000
0.805402 0.476112 0.000000
0.855344 0.462791 0.000000
0.896971 0.450935 0.000000
0.932754 0.440742 0.000000
0.952926 0.432547 0.000000
0.948730 0.426612 0.000000
0.944701 0.422309 0.000000
0.941619 0.419272 0.000000
0.940734 0.417227 0.000000
0.940764 0.415976 0.000000
0.939254 0.414878 0.000000
0.934874 0.413474 0.000000
0.933654 0.411460 0.000000
0.934752 0.408652 0.000000
0.000000 0.666209 0.000000
0.000000 0.665812 0.000000
0.000000 0.665400 0.000000
0.000000 0.665003 0.000000
0.000000 0.664576 0.000000
0.000000 0.664103 0.000000
0.000000 0.663462 0.000000
0.010651 0.661860 0.000000
0.068650 0.659693 0.000000
0.129809 0.656886 0.000000
0.193591 0.653178 0.000000
0.258503 0.648493 0.000000
0.328420 0.642756 0.000000
0.399512 0.636027 0.000000
0.472572 0.628412 0.000000
0.549889 0.619760 0.000000
0.622263 0.604471 0.000000
0.680995 0.579812 0.000000
0.738781 0.560937 0.000000
0.796643 0.547295 0.000000
0.846510 0.535332 0.000000
0.888151 0.524834 0.000000
0.923781 0.515892 0.000000
0.946029 0.508705 0.000000
0.941848 0.503639 0.000000
0.937636 0.500023 0.000000
0.934508 0.497459 0.000000
0.933593 0.495720 0.000000
0.933623 0.494652 0.000000
0.932097 0.493721 0.000000
0.927687 0.492561 0.000000
0.926421 0.490867 0.000000
0.927459 0.488518 0.000000
0.000000 0.727947 0.000000
0.000000 0.727581 0.000000
0.000000 0.727214 0.000000
0.000000 0.726848 0.000000
0.000000 0.726467 0.000000
0.000000 0.726040 0.000000
0.000000 0.725475 0.000000
0.000000 0.724361 0.000000
0.044083 0.722271 0.000000
0.112200 0.719493 0.000000
0.179919 0.715984 0.000000
0.247257 0.711604 0.000000
0.318700 0.706279 0.000000
0.390784 0.700114 0.000000
0.464576 0.693156 0.000000
0.542458 0.685374 0.000000
0.620539 0.676280 0.000000
0.686931 0.659861 0.000000
0.739452 0.636622 0.000000
0.791150 0.617746 0.000000
0.838437 0.604227 0.000000
0.879591 0.594385 0.000000
0.915206 0.586282 0.000000
0.939696 0.579797 0.000000
0.935409 0.575402 0.000000
0.931273 0.572244 0.000000
0.928100 0.570016 0.000000
0.927153 0.568521 0.000000
0.927138 0.567605 0.000000
0.925628 0.566781 0.000000
0.921202 0.565805 0.000000
0.919921 0.564324 0.000000
0.920882 0.562295 0.000000
0.000000 0.786068 0.000000
0.000000 0.785733 0.000000
0.000000 0.785397 0.000000
0.000000 0.785061 0.000000
0.000000 0.784710 0.000000
0.000000 0.784314 0.000000
0.000000 0.783795 0.000000
0.000000 0.783078 0.000000
0.016220 0.781155 0.000000
0.092546 0.778408 0.000000
0.165255 0.775006 0.000000
0.235386 0.770901 0.000000
0.308492 0.765957 0.000000
0.381811 0.760189 0.000000
0.456382 0.753765 0.000000
0.534859 0.746593 0.000000
0.613809 0.738674 0.000000
0.686412 0.728862 0.000000
0.745159 0.712428 0.000000
0.793149 0.690532 0.000000
0.835248 0.672648 0.000000
0.873335 0.660487 0.000000
0.907515 0.651606 0.000000
0.933059 0.645411 0.000000
0.929839 0.641474 0.000000
0.925658 0.638682 0.000000
0.922454 0.636728 0.000000
0.921508 0.635386 0.000000
0.921508 0.634562 0.000000
0.919951 0.633860 0.000000
0.915526 0.633021 0.000000
0.914214 0.631724 0.000000
0.915175 0.629892 0.000000
0.000000 0.843763 0.000000
0.000000 0.843458 0.000000
0.000000 0.843153 0.000000
0.000000 0.842832 0.000000
0.000000 0.842512 0.000000
0.000000 0.842145 0.000000
0.000000 0.841672 0.000000
0.000000 0.841016 0.000000
0.000000 0.839612 0.000000
0.070100 0.836896 0.000000
0.149248 0.833555 0.000000
0.222736 0.829618 0.000000
0.297871 0.824903 0.000000
0.372457 0.819501 0.000000
0.447837 0.813519 0.000000
0.526940 0.806836 0.000000
0.606378 0.799512 0.000000
0.680583 0.791516 0.000000
0.745266 0.781338 0.000000
0.798810 0.765484 0.000000
0.839109 0.746303 0.000000
0.872877 0.730373 0.000000
0.904051 0.719005 0.000000
0.927687 0.711284 0.000000
0.926833 0.707439 0.000000
0.922637 0.704997 0.000000
0.919478 0.703288 0.000000
0.918471 0.702052 0.000000
0.918410 0.701259 0.000000
0.916884 0.700664 0.000000
0.912642 0.700069 0.000000
0.911315 0.698894 0.000000
0.912077 0.697108 0.000000
0.000000 0.898817 0.000000
0.000000 0.898528 0.000000
0.000000 0.898253 0.000000
0.000000 0.897963 0.000000
0.000000 0.897658 0.000000
0.000000 0.897322 0.000000
0.000000 0.896880 0.000000
0.000000 0.896254 0.000000
0.000000 0.895384 0.000000
0.045014 0.892668 0.000000
0.132494 0.889342 0.000000
0.209812 0.885527 0.000000
0.287068 0.881025 0.000000
0.363012 0.875914 0.000000
0.439323 0.870253 0.000000
0.519112 0.863920 0.000000
0.599054 0.857053 0.000000
0.673701 0.849607 0.000000
0.740490 0.841718 0.000000
0.799191 0.831296 0.000000
0.844190 0.817227 0.000000
0.878248 0.801938 0.000000
0.906584 0.788174 0.000000
0.927810 0.778286 0.000000
0.928985 0.774075 0.000000
0.924941 0.771923 0.000000
0.921859 0.770474 0.000000
0.920821 0.769329 0.000000
0.920684 0.768536 0.000000
0.919234 0.768078 0.000000
0.915251 0.767849 0.000000
0.913924 0.766781 0.000000
0.914473 0.764904 0.000000
0.000000 0.943160 0.000000
0.000000 0.943160 0.000000
0.000000 0.943160 0.000000
0.000000 0.943160 0.000000
0.000000 0.943160 0.000000
0.000000 0.943160 0.000000
0.000000 0.943160 0.000000
0.000000 0.942794 0.000000
0.000000 0.941985 0.000000
0.020661 0.939651 0.000000
0.117220 0.936278 0.000000
0.198322 0.932540 0.000000
0.277546 0.928206 0.000000
0.354772 0.923278 0.000000
0.431983 0.917815 0.000000
0.512276 0.911788 0.000000
0.592660 0.905226 0.000000
0.667689 0.898177 0.000000
0.734859 0.890761 0.000000
0.795941 0.882811 0.000000
0.844495 0.872480 0.000000
0.881971 0.860853 0.000000
0.911696 0.848646 0.000000
0.932342 0.838361 0.000000
0.935149 0.833631 0.000000
0.931182 0.831785 0.000000
0.928176 0.830533 0.000000
0.927138 0.829450 0.000000
0.926986 0.828672 0.000000
0.925566 0.828305 0.000000
0.921813 0.828290 0.000000
0.920485 0.827314 0.000000
0.920897 0.825467 0.000000
0.000000 0.942184 0.000000
0.000000 0.942184 0.000000
0.000000 0.942184 0.000000
0.000000 0.942184 0.000000
0.000000 0.942184 0.000000
0.000000 0.942184 0.000000
0.000000 0.942184 0.000000
0.000000 0.942184 0.000000
0.000000 0.942184 0.000000
0.001755 0.941375 0.000000
0.105425 0.939666 0.000000
0.190066 0.938247 0.000000
0.271031 0.936889 0.000000
0.349142 0.935622 0.000000
0.426886 0.934295 0.000000
0.507454 0.932937 0.000000
0.587976 0.931579 0.000000
0.663050 0.930297 0.000000
0.730266 0.928512 0.000000
0.791714 0.921080 0.000000
0.842405 0.912993 0.000000
0.882094 0.903731 0.000000
0.914137 0.894011 0.000000
0.935958 0.885084 0.000000
0.940688 0.880293 0.000000
0.936675 0.878553 0.000000
0.933654 0.877379 0.000000
0.932616 0.876371 0.000000
0.932479 0.875639 0.000000
0.931044 0.875303 0.000000
0.927184 0.875242 0.000000
0.925872 0.874311 0.000000
0.926360 0.872618 0.000000
0.000000 0.939849 0.000000
0.000000 0.939849 0.000000
0.000000 0.939849 0.000000
0.000000 0.939849 0.000000
0.000000 0.939849 0.000000
0.000000 0.939849 0.000000
0.000000 0.939849 0.000000
0.000000 0.939849 0.000000
0.000000 0.939849 0.000000
0.000000 0.939269 0.000000
0.095628 0.937469 0.000000
0.183444 0.936034 0.000000
0.266011 0.934661 0.000000
0.345144 0.933333 0.000000
0.423499 0.932006 0.000000
0.504479 0.930648 0.000000
0.585321 0.929274 0.000000
0.660655 0.927993 0.000000
0.728084 0.926772 0.000000
0.789425 0.925628 0.000000
0.840330 0.924346 0.000000
0.880827 0.921630 0.000000
0.913954 0.917922 0.000000
0.937148 0.914443 0.000000
0.943816 0.913222 0.000000
0.939818 0.912230 0.000000
0.936797 0.911025 0.000000
0.935760 0.910063 0.000000
0.935653 0.909392 0.000000
0.934173 0.909026 0.000000
0.930159 0.908919 0.000000
0.928801 0.908049 0.000000
0.929442 0.906416 0.000000
0.000000 0.937636 0.000000
0.000000 0.937636 0.000000
0.000000 0.937636 0.000000
0.000000 0.937636 0.000000
0.000000 0.937636 0.000000
0.000000 0.937636 0.000000
0.000000 0.937636 0.000000
0.000000 0.937636 0.000000
0.000000 0.937636 0.000000
0.000000 0.937301 0.000000
0.087495 0.935409 0.000000
0.178210 0.933913 0.000000
0.262089 0.932509 0.000000
0.342000 0.931182 0.000000
0.420844 0.929839 0.000000
0.502144 0.928496 0.000000
0.583230 0.927108 0.000000
0.658778 0.925826 0.000000
0.726406 0.924605 0.000000
0.787915 0.923445 0.000000
0.838926 0.922148 0.000000
0.879499 0.919402 0.000000
0.912642 0.915663 0.000000
0.935866 0.912139 0.000000
0.943618 0.910689 0.000000
0.939757 0.911452 0.000000
0.936843 0.911955 0.000000
0.935912 0.912123 0.000000
0.935836 0.912139 0.000000
0.934401 0.912413 0.000000
0.930434 0.913069 0.000000
0.929198 0.913268 0.000000
0.929900 0.913161 0.000000
0.000000 0.936370 0.000000
0.000000 0.936370 0.000000
0.000000 0.936370 0.000000
0.000000 0.936370 0.000000
0.000000 0.936370 0.000000
0.000000 0.936370 0.000000
0.000000 0.936370 0.000000
0.000000 0.936370 0.000000
0.000000 0.936370 0.000000
0.000000 0.936141 0.000000
0.081529 0.934234 0.000000
0.174411 0.932692 0.000000
0.259236 0.931289 0.000000
0.339696 0.929946 0.000000
0.418906 0.928603 0.000000
0.500435 0.927260 0.000000
0.581720 0.925872 0.000000
0.657435 0.924590 0.000000
0.725185 0.923354 0.000000
0.786801 0.922194 0.000000
0.837919 0.920897 0.000000
0.878523 0.918151 0.000000
0.911727 0.914382 0.000000
0.934951 0.910842 0.000000
0.943511 0.909239 0.000000
0.939635 0.909987 0.000000
0.936751 0.910506 0.000000
0.935790 0.910689 0.000000
0.935744 0.910689 0.000000
0.934310 0.910964 0.000000
0.930297 0.911665 0.000000
0.929091 0.911849 0.000000
0.929808 0.911727 0.000000
0.000000 0.935515 0.000000
0.000000 0.935515 0.000000
0.000000 0.935515 0.000000
0.000000 0.935515 0.000000
0.000000 0.935515 0.000000
0.000000 0.935515 0.000000
0.000000 0.935515 0.000000
0.000000 0.935515 0.000000
0.000000 0.935515 0.000000
0.000000 0.935424 0.000000
0.077073 0.933486 0.000000
0.171664 0.931884 0.000000
0.257206 0.930465 0.000000
0.338079 0.929122 0.000000
0.417548 0.927779 0.000000
0.499245 0.926421 0.000000
0.580667 0.925032 0.000000
0.656519 0.923720 0.000000
0.724330 0.922515 0.000000
0.786038 0.921355 0.000000
0.837201 0.920058 0.000000
0.877852 0.917296 0.000000
0.911086 0.913527 0.000000
0.934325 0.909972 0.000000
0.943420 0.908263 0.000000
0.939574 0.909010 0.000000
0.936629 0.909560 0.000000
