lut/Sony/NewLook/SL3SG3CtoCool_709.cube
# Copyright 2023 SONY
# Cool 709 LUT
# S-Log3/S-Gamut3.Cine to Rec.709
# 
LUT_3D_SIZE 33
0.000000 0.000000 0.000000
0.000259 0.000000 0.000000
0.018601 0.000000 0.000000
0.037903 0.000000 0.000000
0.055543 0.000000 0.000000
0.072129 0.000000 0.000000
0.091112 0.000000 0.000000
0.117021 0.000000 0.000000
0.150103 0.000000 0.000000
0.191272 0.000000 0.000000
0.242924 0.000000 0.000000
0.310338 0.000000 0.000000
0.391638 0.000000 0.000000
0.465126 0.000000 0.000000
0.532326 0.000000 0.000000
0.596384 0.000000 0.000000
0.660578 0.000000 0.000000
0.724712 0.000000 0.000000
0.787274 0.000000 0.000000
0.848249 0.000000 0.000000
0.906188 0.000000 0.000000
0.953277 0.000000 0.000000
0.988342 0.000000 0.000000
0.999649 0.000000 0.000000
0.999756 0.000000 0.000000
0.999847 0.000000 0.000000
0.999893 0.000000 0.000000
0.999939 0.000000 0.000000
0.999954 0.000000 0.000000
0.999939 0.000000 0.000000
0.999969 0.000000 0.000000
1.000000 0.000000 0.000000
1.000000 0.000000 0.000000
0.000000 0.001328 0.000000
0.000000 0.000061 0.000000
0.017914 0.000000 0.000000
0.037018 0.000000 0.000000
0.054673 0.000000 0.000000
0.071244 0.000000 0.000000
0.090318 0.000000 0.000000
0.116732 0.000000 0.000000
0.150057 0.000000 0.000000
0.191211 0.000000 0.000000
0.243076 0.000000 0.000000
0.311238 0.000000 0.000000
0.393713 0.000000 0.000000
0.468086 0.000000 0.000000
0.535607 0.000000 0.000000
0.600061 0.000000 0.000000
0.665095 0.000000 0.000000
0.730480 0.000000 0.000000
0.794888 0.000000 0.000000
0.857374 0.000000 0.000000
0.914015 0.000000 0.000000
0.959609 0.000000 0.000000
0.990539 0.000000 0.000000
0.999680 0.000000 0.000000
0.999771 0.000000 0.000000
0.999863 0.000000 0.000000
0.999908 0.000000 0.000000
0.999939 0.000000 0.000000
0.999954 0.000000 0.000000
0.999939 0.000000 0.000000
0.999969 0.000000 0.000000
1.000000 0.000000 0.000000
1.000000 0.000000 0.000000
0.000000 0.022980 0.000000
0.000000 0.020539 0.000000
0.016876 0.017929 0.000000
0.035965 0.015366 0.000000
0.053620 0.012741 0.000000
0.070176 0.010193 0.000000
0.089433 0.007401 0.000000
0.115892 0.003372 0.000000
0.149554 0.000214 0.000000
0.191394 0.000000 0.000000
0.244602 0.000000 0.000000
0.314549 0.000000 0.000000
0.398520 0.000000 0.000000
0.473625 0.000000 0.000000
0.540856 0.000000 0.000000
0.607340 0.000000 0.000000
0.673945 0.000000 0.000000
0.740017 0.000000 0.000000
0.804471 0.000000 0.000000
0.865690 0.000000 0.000000
0.920607 0.000000 0.000000
0.964797 0.000000 0.000000
0.992401 0.000000 0.000000
0.999695 0.000000 0.000000
0.999786 0.000000 0.000000
0.999863 0.000000 0.000000
0.999908 0.000000 0.000000
0.999939 0.000000 0.000000
0.999954 0.000000 0.000000
0.999939 0.000000 0.000000
0.999969 0.000000 0.000000
1.000000 0.000000 0.000000
1.000000 0.000000 0.000000
0.000000 0.044602 0.000000
0.000000 0.042084 0.000000
0.015808 0.039445 0.000000
0.034852 0.036774 0.000000
0.052537 0.034119 0.000000
0.069291 0.031281 0.000000
0.088777 0.027832 0.000000
0.115923 0.023194 0.000000
0.150393 0.016602 0.000000
0.193439 0.007584 0.000000
0.249912 0.000900 0.000000
0.323766 0.000000 0.000000
0.411154 0.000000 0.000000
0.485695 0.000000 0.000000
0.550851 0.000000 0.000000
0.617319 0.000000 0.000000
0.684184 0.000000 0.000000
0.749538 0.000000 0.000000
0.812863 0.000000 0.000000
0.873075 0.000000 0.000000
0.926070 0.000000 0.000000
0.968673 0.000000 0.000000
0.993744 0.000000 0.000000
0.999695 0.000000 0.000000
0.999802 0.000000 0.000000
0.999863 0.000000 0.000000
0.999908 0.000000 0.000000
0.999939 0.000000 0.000000
0.999954 0.000000 0.000000
0.999939 0.000000 0.000000
0.999969 0.000000 0.000000
1.000000 0.000000 0.000000
1.000000 0.000000 0.000000
0.000000 0.066224 0.000000
0.000000 0.063768 0.000000
0.014282 0.061219 0.000000
0.033524 0.058793 0.000000
0.051377 0.056336 0.000000
0.068162 0.053590 0.000000
0.087953 0.050477 0.000000
0.116014 0.046128 0.000000
0.152010 0.039612 0.000000
0.197330 0.030060 0.000000
0.256992 0.014115 0.000000
0.333883 0.001236 0.000000
0.420737 0.000000 0.000000
0.493080 0.000000 0.000000
0.556283 0.000000 0.000000
0.623133 0.000000 0.000000
0.688823 0.000000 0.000000
0.753216 0.000000 0.000000
0.815564 0.000000 0.000000
0.874968 0.000000 0.000000
0.927337 0.000000 0.000000
0.969589 0.000000 0.000000
0.993866 0.000000 0.000000
0.999695 0.000000 0.000000
0.999802 0.000000 0.000000
0.999863 0.000000 0.000000
0.999908 0.000000 0.000000
0.999939 0.000000 0.000000
0.999954 0.000000 0.000000
0.999939 0.000000 0.000000
0.999969 0.000000 0.000000
1.000000 0.000000 0.000000
1.000000 0.000000 0.000000
0.000000 0.089784 0.000000
0.000000 0.087694 0.000000
0.012055 0.085496 0.000000
0.031067 0.083360 0.000000
0.049577 0.081254 0.000000
0.066651 0.078935 0.000000
0.086793 0.076127 0.000000
0.115328 0.071977 0.000000
0.151812 0.065980 0.000000
0.197024 0.056413 0.000000
0.256519 0.040452 0.000000
0.333150 0.014893 0.000000
0.419760 0.000000 0.000000
0.491905 0.000000 0.000000
0.554589 0.000000 0.000000
0.619944 0.000000 0.000000
0.685084 0.000000 0.000000
0.749203 0.000000 0.000000
0.811276 0.000000 0.000000
0.870939 0.000000 0.000000
0.923522 0.000000 0.000000
0.965972 0.000000 0.000000
0.992386 0.000000 0.000000
0.999680 0.000000 0.000000
0.999786 0.000000 0.000000
0.999863 0.000000 0.000000
0.999908 0.000000 0.000000
0.999939 0.000000 0.000000
0.999954 0.000000 0.000000
0.999939 0.000000 0.000000
0.999954 0.000000 0.000000
1.000000 0.000000 0.000000
1.000000 0.000000 0.000000
0.000000 0.116243 0.000000
0.000000 0.115312 0.000000
0.010605 0.114137 0.000000
0.029572 0.112749 0.000000
0.048096 0.111391 0.000000
0.065156 0.109422 0.000000
0.085496 0.107057 0.000000
0.114290 0.103670 0.000000
0.150561 0.098314 0.000000
0.195544 0.089525 0.000000
0.254185 0.074617 0.000000
0.328725 0.050462 0.000000
0.414847 0.014374 0.000000
0.486549 0.000000 0.000000
0.549996 0.000000 0.000000
0.614755 0.000000 0.000000
0.679210 0.000000 0.000000
0.742931 0.000000 0.000000
0.805341 0.000000 0.000000
0.864515 0.000000 0.000000
0.917739 0.000000 0.000000
0.960891 0.000000 0.000000
0.990265 0.000000 0.000000
0.999664 0.000000 0.000000
0.999771 0.000000 0.000000
0.999847 0.000000 0.000000
0.999893 0.000000 0.000000
0.999939 0.000000 0.000000
0.999954 0.000000 0.000000
0.999939 0.000000 0.000000
0.999939 0.000000 0.000000
1.000000 0.000000 0.000000
1.000000 0.000000 0.000000
0.000000 0.149599 0.000000
0.000000 0.149264 0.000000
0.009277 0.148684 0.000000
0.028138 0.148257 0.000000
0.046281 0.147494 0.000000
0.063371 0.145846 0.000000
0.084077 0.143603 0.000000
0.113008 0.140383 0.000000
0.149126 0.135790 0.000000
0.193988 0.128832 0.000000
0.252064 0.117098 0.000000
0.326650 0.096895 0.000000
0.411475 0.064118 0.000000
0.483375 0.029114 0.000000
0.546487 0.003372 0.000000
0.610880 0.000122 0.000000
0.675319 0.000000 0.000000
0.738643 0.000000 0.000000
0.800046 0.000000 0.000000
0.859068 0.000000 0.000000
0.913161 0.000000 0.000000
0.956725 0.000000 0.000000
0.988418 0.000000 0.000000
0.999649 0.000000 0.000000
0.999756 0.000000 0.000000
0.999847 0.000000 0.000000
0.999893 0.000000 0.000000
0.999924 0.000000 0.000000
0.999954 0.000000 0.000000
0.999939 0.000000 0.000000
0.999924 0.000000 0.000000
1.000000 0.000000 0.000000
1.000000 0.000000 0.000000
0.000000 0.191882 0.000000
0.000000 0.192569 0.000000
0.006394 0.192508 0.000000
0.025620 0.192569 0.000000
0.043519 0.192050 0.000000
0.060411 0.189746 0.000000
0.081422 0.187045 0.000000
0.110842 0.184024 0.000000
0.147265 0.180072 0.000000
0.192523 0.174578 0.000000
0.250980 0.165988 0.000000
0.324575 0.151415 0.000000
0.409033 0.128435 0.000000
0.480629 0.101122 0.000000
0.543496 0.066819 0.000000
0.607675 0.023896 0.000000
0.671489 0.007065 0.000000
0.734249 0.000000 0.000000
0.795361 0.000000 0.000000
0.853666 0.000000 0.000000
0.907637 0.000000 0.000000
0.952041 0.000000 0.000000
0.986145 0.000000 0.000000
0.999634 0.000000 0.000000
0.999741 0.000000 0.000000
0.999832 0.000000 0.000000
0.999878 0.000000 0.000000
0.999924 0.000000 0.000000
0.999954 0.000000 0.000000
0.999939 0.000000 0.000000
0.999924 0.000000 0.000000
0.999985 0.000000 0.000000
1.000000 0.000000 0.000000
0.000000 0.248753 0.000031
0.000000 0.249317 0.000076
0.002518 0.249653 0.000046
0.020996 0.250294 0.000000
0.038453 0.249439 0.000000
0.055253 0.246632 0.000000
0.076951 0.243351 0.000000
0.107179 0.240223 0.000000
0.144762 0.236866 0.000000
0.190814 0.232425 0.000000
0.249424 0.225483 0.000000
0.322744 0.214618 0.000000
0.406699 0.198535 0.000000
0.477974 0.180835 0.000000
0.541070 0.158190 0.000000
0.603983 0.125032 0.000000
0.667048 0.080720 0.000000
0.729213 0.034287 0.000000
0.789532 0.015900 0.000000
0.847913 0.002350 0.000000
0.902342 0.000000 0.000000
0.947295 0.000000 0.000000
0.983139 0.000000 0.000000
0.998550 0.000000 0.000000
0.999725 0.000000 0.000000
0.999817 0.000000 0.000000
0.999878 0.000000 0.000000
0.999908 0.000000 0.000000
0.999939 0.000000 0.000000
0.999954 0.000000 0.000000
0.999939 0.000000 0.000000
0.999969 0.000000 0.000000
1.000000 0.000000 0.000000
0.000000 0.315557 0.000427
0.000000 0.316655 0.000366
0.000641 0.316686 0.000244
0.014298 0.316579 0.000076
0.031434 0.315526 0.000046
0.048203 0.312367 0.000000
0.070695 0.308659 0.000000
0.102602 0.305608 0.000000
0.141726 0.302007 0.000000
0.188937 0.297688 0.000000
0.248432 0.291615 0.000000
0.322591 0.282399 0.000000
0.405631 0.269749 0.000000
0.476127 0.256611 0.000000
0.538231 0.239338 0.000000
0.600855 0.215946 0.000000
0.663371 0.186755 0.000000
0.724804 0.150225 0.000000
0.784802 0.101686 0.000000
0.842939 0.042954 0.000000
0.897642 0.019730 0.000000
0.942138 0.008286 0.000000
0.978210 0.001892 0.000000
0.996567 0.000000 0.000000
0.999710 0.000000 0.000000
0.999802 0.000000 0.000000
0.999863 0.000000 0.000000
0.999908 0.000000 0.000000
0.999939 0.000000 0.000000
0.999954 0.000000 0.000000
0.999939 0.000000 0.000000
0.999954 0.000000 0.000000
1.000000 0.000000 0.000000
0.000000 0.389471 0.001251
0.000000 0.389944 0.001053
0.000000 0.389853 0.000778
0.006317 0.389380 0.000488
0.021927 0.387549 0.000305
0.038895 0.383276 0.000076
0.062348 0.379843 0.000000
0.096391 0.375341 0.000000
0.137621 0.370565 0.000000
0.186374 0.365240 0.000000
0.247166 0.359243 0.000000
0.322621 0.351446 0.000000
0.405707 0.341436 0.000000
0.474784 0.330617 0.000000
0.536110 0.316060 0.000000
0.598505 0.296574 0.000000
0.660471 0.273640 0.000000
0.721874 0.246937 0.000000
0.780941 0.214969 0.000000
0.838560 0.177081 0.000000
0.892515 0.130770 0.000000
0.937591 0.080339 0.000000
0.974868 0.035904 0.000000
0.995346 0.003067 0.000000
0.999710 0.000000 0.000000
0.999802 0.000000 0.000000
0.999863 0.000000 0.000000
0.999908 0.000000 0.000000
0.999939 0.000000 0.000000
0.999954 0.000000 0.000000
0.999939 0.000000 0.000000
0.999969 0.000000 0.000000
1.000000 0.000000 0.000000
0.000000 0.471489 0.002594
0.000000 0.471138 0.002197
0.000000 0.470481 0.001755
0.000000 0.469551 0.001328
0.009552 0.467399 0.000992
0.026261 0.461326 0.000641
0.051194 0.454734 0.000061
0.087388 0.448997 0.000000
0.131350 0.443656 0.000000
0.182879 0.438239 0.000000
0.246464 0.432334 0.000000
0.323522 0.424521 0.000000
0.405707 0.415412 0.000000
0.474083 0.406195 0.000000
0.534569 0.393072 0.000000
0.596353 0.375326 0.000000
0.658000 0.355489 0.000000
0.718685 0.332692 0.000000
0.777905 0.307378 0.000000
0.835691 0.279881 0.000000
0.889982 0.248112 0.000000
0.935592 0.215793 0.000000
0.973373 0.182925 0.000000
0.995300 0.151995 0.000000
0.999710 0.127520 0.000000
0.999802 0.117433 0.000000
0.999878 0.110399 0.000000
0.999908 0.106249 0.000000
0.999954 0.103395 0.000000
0.999954 0.100572 0.000000
0.999924 0.096742 0.000000
0.999985 0.091524 0.000000
1.000000 0.084306 0.000000
0.000000 0.547341 0.004471
0.000000 0.546151 0.003845
0.000000 0.544350 0.003159
0.000000 0.542870 0.002579
0.001389 0.539864 0.002045
0.011826 0.534798 0.001511
0.037415 0.528527 0.000687
0.075181 0.522484 0.000000
0.122576 0.516655 0.000000
0.177005 0.511177 0.000000
0.243183 0.504585 0.000000
0.321645 0.497063 0.000000
0.403021 0.488273 0.000000
0.470771 0.479622 0.000000
0.531319 0.467964 0.000000
0.593698 0.452918 0.000000
0.655436 0.435721 0.000000
0.716533 0.416602 0.000000
0.776089 0.395972 0.000000
0.834684 0.374441 0.000000
0.890883 0.352987 0.000000
0.937850 0.333761 0.000000
0.976043 0.317296 0.000000
0.997696 0.303243 0.000000
0.999725 0.291600 0.000000
0.999817 0.283223 0.000000
0.999878 0.277714 0.000000
0.999924 0.273182 0.000000
0.999954 0.270161 0.000000
0.999939 0.267796 0.000000
0.999924 0.264836 0.000000
0.999985 0.261799 0.000000
1.000000 0.257130 0.000000
0.000000 0.607752 0.005615
0.000000 0.606287 0.004913
0.000000 0.604669 0.004181
0.000000 0.601999 0.003464
0.000000 0.598199 0.002808
0.003510 0.592386 0.002121
0.022690 0.586145 0.001221
0.059434 0.581125 0.000397
0.108186 0.575280 0.000000
0.164004 0.569253 0.000000
0.228992 0.563165 0.000000
0.305852 0.556435 0.000000
0.389029 0.548837 0.000000
0.459541 0.541558 0.000000
0.522866 0.532052 0.000000
0.585168 0.519539 0.000000
0.647929 0.506386 0.000000
0.711223 0.492790 0.000000
0.773724 0.478798 0.000000
0.835218 0.464317 0.000000
0.892363 0.448615 0.000000
0.939223 0.434562 0.000000
0.976867 0.422339 0.000000
0.998978 0.412100 0.000000
0.999741 0.404105 0.000000
0.999832 0.398596 0.000000
0.999878 0.394308 0.000000
0.999924 0.391333 0.000000
0.999954 0.389456 0.000000
0.999939 0.387884 0.000000
0.999924 0.386236 0.000000
1.000000 0.383886 0.000000
1.000000 0.380163 0.000000
0.000000 0.669093 0.006226
0.000000 0.666728 0.005097
0.000000 0.663813 0.004273
0.000000 0.660578 0.003510
0.000000 0.656062 0.002808
0.000000 0.649668 0.001953
0.008453 0.642878 0.001038
0.038865 0.636927 0.000381
0.086656 0.631281 0.000015
0.143633 0.625650 0.000000
0.208270 0.620249 0.000000
0.283711 0.614527 0.000000
0.368917 0.608774 0.000000
0.443565 0.603372 0.000000
0.512627 0.596384 0.000000
0.578042 0.587823 0.000000
0.643336 0.578195 0.000000
0.708080 0.567391 0.000000
0.771511 0.556115 0.000000
0.832883 0.543267 0.000000
0.890166 0.529915 0.000000
0.937163 0.518090 0.000000
0.974914 0.507897 0.000000
0.999115 0.500084 0.000000
0.999741 0.493385 0.000000
0.999832 0.488487 0.000000
0.999878 0.485008 0.000000
0.999924 0.482582 0.000000
0.999954 0.481239 0.000000
0.999939 0.480552 0.000000
0.999924 0.478889 0.000000
1.000000 0.476661 0.000000
1.000000 0.473671 0.000000
0.000000 0.727245 0.006790
0.000000 0.724330 0.005509
0.000000 0.720394 0.004105
0.000000 0.716411 0.002777
0.000000 0.711482 0.002014
0.000000 0.705623 0.001114
0.000000 0.698756 0.000229
0.017304 0.692683 0.000000
0.062852 0.687739 0.000000
0.121874 0.683177 0.000000
0.188678 0.680400 0.000000
0.268208 0.678111 0.000000
0.358679 0.675074 0.000000
0.437430 0.671824 0.000000
0.507988 0.666453 0.000000
0.574044 0.658976 0.000000
0.640253 0.650965 0.000000
0.705379 0.641459 0.000000
0.768612 0.631083 0.000000
0.830213 0.619867 0.000000
0.887694 0.608270 0.000000
0.934844 0.598077 0.000000
0.973007 0.589929 0.000000
0.999069 0.582727 0.000000
0.999741 0.577020 0.000000
0.999832 0.572869 0.000000
0.999878 0.569924 0.000000
0.999924 0.568002 0.000000
0.999954 0.567285 0.000000
0.999939 0.566217 0.000000
0.999924 0.564813 0.000000
1.000000 0.562921 0.000000
1.000000 0.560388 0.000000
0.000000 0.782147 0.007034
0.000000 0.778607 0.005646
0.000000 0.775387 0.004242
0.000000 0.771847 0.002930
0.000000 0.767452 0.001480
0.000000 0.761105 0.000076
0.000000 0.755962 0.000000
0.005722 0.752224 0.000000
0.039506 0.749798 0.000000
0.102647 0.748333 0.000000
0.175830 0.747127 0.000000
0.258778 0.745556 0.000000
0.351476 0.743343 0.000000
0.431617 0.740475 0.000000
0.502953 0.735775 0.000000
0.570062 0.729503 0.000000
0.636332 0.721965 0.000000
0.701808 0.713436 0.000000
0.765408 0.704204 0.000000
0.827237 0.694255 0.000000
0.884947 0.684001 0.000000
0.932647 0.675563 0.000000
0.970565 0.667918 0.000000
0.998978 0.661616 0.000000
0.999741 0.656641 0.000000
0.999832 0.653025 0.000000
0.999878 0.651102 0.000000
0.999924 0.649332 0.000000
0.999954 0.648188 0.000000
0.999939 0.647257 0.000000
0.999924 0.646021 0.000000
1.000000 0.644434 0.000000
1.000000 0.642802 0.000000
0.000000 0.836011 0.007309
0.000000 0.832746 0.005951
0.000000 0.829816 0.004654
0.000000 0.827909 0.003677
0.000000 0.826261 0.002594
0.000000 0.822919 0.001343
0.000000 0.819593 0.000000
0.000000 0.817075 0.000000
0.019364 0.815579 0.000000
0.082429 0.813901 0.000000
0.161486 0.812696 0.000000
0.248432 0.811399 0.000000
0.343709 0.809583 0.000000
0.425620 0.807904 0.000000
0.498100 0.803525 0.000000
0.565423 0.797452 0.000000
0.632136 0.790570 0.000000
0.698024 0.782879 0.000000
0.761975 0.774548 0.000000
0.824430 0.765911 0.000000
0.882475 0.756786 0.000000
0.929885 0.748760 0.000000
0.967941 0.741924 0.000000
0.997803 0.736294 0.000000
0.999741 0.731853 0.000000
0.999832 0.729183 0.000000
0.999878 0.726909 0.000000
0.999924 0.725322 0.000000
0.999954 0.724285 0.000000
0.999939 0.723430 0.000000
0.999924 0.722362 0.000000
1.000000 0.721462 0.000000
1.000000 0.719478 0.000000
0.000000 0.891402 0.008209
0.000000 0.891295 0.007416
0.000000 0.890883 0.006531
0.000000 0.890471 0.005646
0.000000 0.889143 0.004654
0.000000 0.885985 0.003403
0.000000 0.882948 0.002045
0.000000 0.880888 0.000427
0.008530 0.878981 0.000000
0.060182 0.877440 0.000000
0.145129 0.876387 0.000000
0.237171 0.875303 0.000000
0.335882 0.874052 0.000000
0.419165 0.872724 0.000000
0.492378 0.868971 0.000000
0.560388 0.863386 0.000000
0.627665 0.857069 0.000000
0.694011 0.850019 0.000000
0.758633 0.842741 0.000000
0.821164 0.834669 0.000000
0.879362 0.826291 0.000000
0.926955 0.818998 0.000000
0.965133 0.812787 0.000000
0.995102 0.807675 0.000000
0.999710 0.804059 0.000000
0.999832 0.801144 0.000000
0.999878 0.799069 0.000000
0.999924 0.797635 0.000000
0.999954 0.796719 0.000000
0.999939 0.796368 0.000000
0.999924 0.795361 0.000000
1.000000 0.794003 0.000000
1.000000 0.792203 0.000000
0.000000 0.950530 0.010285
0.000000 0.950408 0.009491
0.000000 0.950057 0.008621
0.000000 0.949676 0.007721
0.000000 0.948455 0.006729
0.000000 0.945632 0.005493
0.000000 0.943008 0.004166
0.000000 0.940764 0.002502
0.001205 0.939025 0.000275
0.036332 0.937591 0.000000
0.126452 0.936629 0.000000
0.225635 0.936126 0.000000
0.327306 0.934737 0.000000
0.412085 0.933333 0.000000
0.486336 0.929854 0.000000
0.555062 0.924681 0.000000
0.623148 0.919036 0.000000
0.690227 0.912749 0.000000
0.754864 0.905715 0.000000
0.817594 0.898161 0.000000
0.875990 0.890410 0.000000
0.923796 0.883650 0.000000
0.962341 0.878264 0.000000
0.992462 0.873701 0.000000
0.999588 0.869993 0.000000
0.999832 0.867292 0.000000
0.999878 0.865370 0.000000
0.999924 0.864012 0.000000
0.999954 0.863600 0.000000
0.999939 0.862913 0.000000
0.999924 0.861952 0.000000
1.000000 0.860685 0.000000
1.000000 0.859022 0.000000
0.000000 0.997497 0.012177
0.000000 0.997635 0.011368
0.000000 0.997604 0.010498
0.000000 0.997543 0.009613
0.000000 0.997192 0.008713
0.000000 0.995010 0.007477
0.000000 0.992813 0.006088
0.000000 0.991226 0.004410
0.000000 0.989807 0.002182
0.023224 0.988586 0.000000
0.109102 0.987915 0.000000
0.214847 0.986786 0.000000
0.319890 0.985153 0.000000
0.406195 0.983459 0.000000
0.481376 0.980026 0.000000
0.550958 0.975296 0.000000
0.619623 0.969985 0.000000
0.686809 0.963836 0.000000
0.751720 0.957198 0.000000
0.814725 0.950088 0.000000
0.873304 0.942809 0.000000
0.921492 0.936721 0.000000
0.959991 0.931487 0.000000
0.990097 0.927062 0.000000
0.999527 0.923568 0.000000
0.999832 0.921035 0.000000
0.999878 0.919219 0.000000
0.999924 0.918379 0.000000
0.999954 0.917556 0.000000
0.999939 0.916854 0.000000
0.999924 0.915969 0.000000
1.000000 0.914778 0.000000
1.000000 0.913603 0.000000
0.000000 0.999680 0.013779
0.000000 0.999680 0.012985
0.000000 0.999680 0.012116
0.000000 0.999680 0.011307
0.000000 0.999680 0.010330
0.000000 0.999664 0.009094
0.000000 0.999664 0.007721
0.000000 0.999664 0.006058
0.000000 0.999588 0.003845
0.016938 0.999435 0.000778
0.093355 0.999237 0.000000
0.205341 0.999039 0.000000
0.313542 0.998993 0.000000
0.401190 0.999176 0.000000
0.477745 0.999405 0.000000
0.547646 0.999344 0.000000
0.616403 0.999222 0.000000
0.683925 0.999069 0.000000
0.749081 0.998322 0.000000
0.812421 0.991699 0.000000
0.871504 0.984939 0.000000
0.919463 0.978912 0.000000
0.957916 0.973785 0.000000
0.988083 0.969573 0.000000
0.999466 0.966262 0.000000
0.999832 0.964034 0.000000
0.999878 0.962448 0.000000
0.999924 0.961257 0.000000
0.999954 0.960479 0.000000
0.999939 0.959823 0.000000
0.999924 0.958984 0.000000
1.000000 0.958144 0.000000
1.000000 0.956725 0.000000
0.000000 0.999741 0.015106
0.000000 0.999741 0.014374
0.000000 0.999741 0.013520
0.000000 0.999741 0.012635
0.000000 0.999741 0.011673
0.000000 0.999741 0.010437
0.000000 0.999741 0.009079
0.000000 0.999741 0.007492
0.000000 0.999741 0.005249
0.011856 0.999741 0.002121
0.080278 0.999741 0.000000
0.197253 0.999741 0.000000
0.308339 0.999741 0.000000
0.397635 0.999741 0.000000
0.474311 0.999741 0.000000
0.544671 0.999741 0.000000
0.613748 0.999741 0.000000
0.681514 0.999741 0.000000
0.747021 0.999741 0.000000
0.810636 0.999741 0.000000
0.869627 0.999527 0.000000
0.917693 0.999374 0.000000
0.956222 0.999237 0.000000
0.986435 0.999100 0.000000
0.999451 0.999084 0.000000
0.999832 0.997543 0.000000
0.999878 0.995895 0.000000
0.999924 0.994751 0.000000
0.999954 0.994018 0.000000
0.999939 0.993393 0.000000
0.999924 0.992859 0.000000
1.000000 0.991791 0.000000
1.000000 0.990387 0.000000
0.000000 0.999802 0.016220
0.000000 0.999802 0.015442
0.000000 0.999802 0.014572
0.000000 0.999802 0.013687
0.000000 0.999802 0.012726
0.000000 0.999802 0.011505
0.000000 0.999802 0.010224
0.000000 0.999786 0.008560
0.000000 0.999786 0.006317
0.007813 0.999786 0.003189
0.069871 0.999786 0.000443
0.190646 0.999802 0.000000
0.305074 0.999802 0.000000
0.394354 0.999802 0.000000
0.471565 0.999802 0.000000
0.542260 0.999802 0.000000
0.611627 0.999802 0.000000
0.680156 0.999802 0.000000
0.745647 0.999802 0.000000
0.809033 0.999802 0.000000
0.868132 0.999802 0.000000
0.916274 0.999802 0.000000
0.954940 0.999802 0.000000
0.985367 0.999802 0.000000
0.999451 0.999802 0.000000
0.999832 0.999802 0.000000
0.999878 0.999756 0.000000
0.999924 0.999710 0.000000
0.999954 0.999695 0.000000
0.999939 0.999695 0.000000
0.999924 0.999664 0.000000
1.000000 0.999649 0.000000
1.000000 0.999603 0.000000
0.000000 0.999878 0.017014
0.000000 0.999878 0.016220
0.000000 0.999878 0.015351
0.000000 0.999878 0.014466
0.000000 0.999878 0.013550
0.000000 0.999878 0.012360
0.000000 0.999863 0.011002
0.000000 0.999863 0.009339
0.000000 0.999863 0.007111
0.004868 0.999863 0.003967
0.063127 0.999863 0.000824
0.186709 0.999863 0.000000
0.301900 0.999878 0.000000
0.391943 0.999878 0.000000
0.469551 0.999878 0.000000
0.540505 0.999878 0.000000
0.610636 0.999878 0.000000
0.678752 0.999878 0.000000
0.744366 0.999878 0.000000
0.807858 0.999878 0.000000
0.867033 0.999878 0.000000
0.915312 0.999878 0.000000
0.954177 0.999878 0.000000
0.984421 0.999878 0.000000
0.999420 0.999878 0.000000
0.999832 0.999878 0.000000
0.999878 0.999878 0.000000
0.999924 0.999878 0.000000
0.999954 0.999878 0.000000
0.999939 0.999878 0.000000
0.999924 0.999878 0.000000
1.000000 0.999878 0.000000
1.000000 0.999878 0.000000
0.000000 0.999924 0.017563
0.000000 0.999924 0.016754
0.000000 0.999924 0.015885
0.000000 0.999924 0.015045
0.000000 0.999924 0.014115
0.000000 0.999924 0.012909
0.000000 0.999924 0.011551
0.000000 0.999908 0.009888
0.000000 0.999908 0.007645
0.002823 0.999908 0.004547
0.057618 0.999908 0.001083
0.183017 0.999924 0.000000
0.299565 0.999924 0.000000
0.390173 0.999924 0.000000
0.468086 0.999924 0.000000
0.539818 0.999924 0.000000
0.609491 0.999924 0.000000
0.677729 0.999924 0.000000
0.743435 0.999924 0.000000
0.807004 0.999924 0.000000
0.866697 0.999924 0.000000
0.914870 0.999924 0.000000
0.953460 0.999924 0.000000
0.983719 0.999924 0.000000
0.999374 0.999924 0.000000
0.999832 0.999924 0.000000
0.999878 0.999924 0.000000
