lut/Sony/NewLook/SL3SG3toCool_709.cube
# Copyright 2023 SONY
# Cool 709 LUT
# S-Log3/S-Gamut3 to Rec.709
# 
LUT_3D_SIZE 9
0.000000 0.000000 0.000000
0.066182 0.000000 0.000000
0.173974 0.000000 0.000000
0.434315 0.000000 0.000000
0.715103 0.000000 0.000000
0.934147 0.000000 0.000000
0.999744 0.000000 0.055221
0.999946 0.430773 0.444892
1.000000 0.734799 0.727690
0.000000 0.060339 0.000113
0.050355 0.052520 0.000000
0.167867 0.035653 0.000000
0.455199 0.000000 0.000000
0.713367 0.000000 0.000000
0.924033 0.000000 0.000000
0.999752 0.032657 0.065573
0.999946 0.448820 0.445551
1.000000 0.739294 0.727806
0.000000 0.180616 0.000452
0.022459 0.182538 0.000083
0.145380 0.172887 0.000000
0.434699 0.120063 0.000000
0.697297 0.025020 0.000000
0.912303 0.000390 0.000000
0.999763 0.114744 0.079172
0.999946 0.475526 0.446564
1.000000 0.746252 0.727989
0.000000 0.450809 0.010146
0.000000 0.451885 0.011366
0.062504 0.436187 0.003807
0.399580 0.402593 0.000000
0.675767 0.344480 0.000000
0.906882 0.281909 0.000000
0.999781 0.358540 0.108658
0.999946 0.544755 0.449120
1.000000 0.766811 0.728555
0.000000 0.710590 0.043052
0.000000 0.710727 0.044897
0.000000 0.710929 0.047660
0.213168 0.665393 0.009351
0.635640 0.638256 0.000000
0.899619 0.599925 0.000000
0.999762 0.603992 0.135925
0.999946 0.682133 0.456258
1.000000 0.818024 0.730299
0.000000 0.932073 0.136699
0.000000 0.932059 0.138730
0.000000 0.932042 0.141901
0.000000 0.932067 0.152402
0.500536 0.909847 0.082008
0.866799 0.872961 0.036986
0.999348 0.857628 0.200042
0.999947 0.868481 0.474398
1.000000 0.902529 0.735691
0.000000 0.999787 0.324097
0.000000 0.999787 0.324996
0.000000 0.999787 0.326410
0.000000 0.999787 0.330742
0.000000 0.999788 0.343410
0.752750 0.999760 0.279921
0.996413 0.997542 0.321306
0.999949 0.993776 0.519442
1.000000 0.980609 0.749675
0.000000 0.999962 0.536344
0.000000 0.999962 0.536718
0.000000 0.999962 0.537308
0.000000 0.999962 0.539138
0.000000 0.999962 0.544684
0.000000 0.999962 0.560925
0.941723 0.999963 0.518688
0.999953 0.999965 0.616330
1.000000 0.999969 0.784743
0.000000 1.000000 0.777557
0.000000 1.000000 0.777673
0.000000 1.000000 0.777857
0.000000 1.000000 0.778431
0.000000 1.000000 0.780190
0.000000 1.000000 0.785520
0.000000 1.000000 0.801137
0.998266 1.000000 0.774893
1.000000 1.000000 0.854424
0.000000 0.000000 0.049274
0.059999 0.000000 0.042577
0.170165 0.000000 0.031001
0.433531 0.000000 0.000000
0.716064 0.000000 0.000000
0.931357 0.000000 0.000000
0.999744 0.000000 0.106862
0.999946 0.429298 0.460933
1.000000 0.734410 0.732066
0.000000 0.054743 0.051242
0.044450 0.047166 0.046998
0.166167 0.030965 0.038340
0.455667 0.000000 0.001081
0.709879 0.000000 0.000000
0.920657 0.000000 0.000000
0.999752 0.030878 0.117694
0.999946 0.447304 0.461546
1.000000 0.738902 0.732180
0.000000 0.180104 0.055660
0.016567 0.181252 0.055295
0.141328 0.170273 0.045875
0.431632 0.115678 0.003548
0.691964 0.021129 0.000000
0.908673 0.000000 0.000000
0.999763 0.113388 0.133325
0.999946 0.473963 0.462491
1.000000 0.745855 0.732360
0.000000 0.448986 0.084274
0.000000 0.449810 0.087239
0.055144 0.431084 0.076009
0.390494 0.394596 0.022743
0.668283 0.333541 0.000000
0.904561 0.275297 0.000000
0.999781 0.356720 0.163035
0.999946 0.543428 0.464816
1.000000 0.766401 0.732917
0.000000 0.702880 0.131112
0.000000 0.702917 0.133432
0.000000 0.702999 0.137136
0.205118 0.660383 0.101458
0.631570 0.633798 0.012831
0.898003 0.597129 0.013065
0.999756 0.603156 0.187689
0.999946 0.680980 0.471412
1.000000 0.817614 0.734639
0.000000 0.929090 0.208027
0.000000 0.929119 0.209614
0.000000 0.929166 0.212091
0.000000 0.929310 0.220045
0.497681 0.907797 0.173585
0.865191 0.870979 0.120699
0.999354 0.856801 0.240741
0.999947 0.867488 0.488171
1.000000 0.902102 0.739898
0.000000 0.999787 0.355632
0.000000 0.999787 0.356374
0.000000 0.999787 0.357541
0.000000 0.999787 0.361089
0.000000 0.999788 0.371247
0.751912 0.999751 0.309005
0.995512 0.997567 0.348163
0.999949 0.992994 0.531189
1.000000 0.980217 0.753393
0.000000 0.999962 0.550315
0.000000 0.999962 0.550665
0.000000 0.999962 0.551218
0.000000 0.999962 0.552932
0.000000 0.999962 0.558134
0.000000 0.999962 0.573501
0.941057 0.999963 0.530792
0.999953 0.999965 0.623690
1.000000 0.999969 0.787898
0.000000 1.000000 0.782008
0.000000 1.000000 0.782122
0.000000 1.000000 0.782302
0.000000 1.000000 0.782864
0.000000 1.000000 0.784585
0.000000 1.000000 0.789804
0.000000 1.000000 0.805111
0.997989 1.000000 0.778234
1.000000 1.000000 0.855847
0.000000 0.000000 0.189653
0.041944 0.000000 0.184846
0.158044 0.000000 0.175667
0.430266 0.000000 0.151363
0.715480 0.000000 0.121949
0.927672 0.000000 0.098140
0.999744 0.000000 0.184541
0.999946 0.426929 0.483467
1.000000 0.733819 0.738790
0.000000 0.035353 0.190377
0.026229 0.028042 0.191558
0.155287 0.011981 0.188855
0.449651 0.000000 0.166467
0.704666 0.000000 0.116823
0.917004 0.000000 0.082035
0.999753 0.028702 0.195151
0.999946 0.445158 0.483912
1.000000 0.738307 0.738895
0.000000 0.169543 0.196153
0.000892 0.169695 0.198044
0.127352 0.157397 0.191012
0.422971 0.098840 0.164433
0.685868 0.013939 0.108260
0.904812 0.000000 0.069798
0.999763 0.111475 0.209897
0.999946 0.471902 0.484730
1.000000 0.745255 0.739060
0.000000 0.440680 0.227165
0.000000 0.441605 0.229110
0.034840 0.420292 0.215082
0.377503 0.382461 0.179977
0.661937 0.322213 0.118039
0.902593 0.268279 0.089280
0.999781 0.354891 0.234266
0.999946 0.541506 0.486982
1.000000 0.765783 0.739570
0.000000 0.694113 0.249378
0.000000 0.694246 0.250892
0.000000 0.694458 0.253262
0.194170 0.655373 0.219066
0.627717 0.629320 0.168432
0.895913 0.593441 0.135989
0.999718 0.601614 0.252794
0.999946 0.679310 0.493207
1.000000 0.816995 0.741151
0.000000 0.926462 0.292068
0.000000 0.926511 0.293161
0.000000 0.926590 0.294878
0.000000 0.926835 0.300129
0.493784 0.905031 0.262774
0.863910 0.869209 0.216160
0.999397 0.855284 0.294316
0.999947 0.866012 0.508555
1.000000 0.901463 0.745989
0.000000 0.999787 0.394226
0.000000 0.999787 0.394785
0.000000 0.999787 0.395667
0.000000 0.999788 0.398385
0.000000 0.999788 0.407034
0.750609 0.999742 0.353261
0.994240 0.997603 0.386118
0.999949 0.992051 0.548458
1.000000 0.979612 0.759151
0.000000 0.999962 0.570777
0.000000 0.999962 0.571098
0.000000 0.999962 0.571604
0.000000 0.999962 0.573176
0.000000 0.999962 0.577953
0.000000 0.999962 0.592055
0.940064 0.999963 0.548833
0.999953 0.999965 0.634894
1.000000 0.999969 0.792800
0.000000 1.000000 0.788863
0.000000 1.000000 0.788974
0.000000 1.000000 0.789148
0.000000 1.000000 0.789691
0.000000 1.000000 0.791357
0.000000 1.000000 0.796409
0.000000 1.000000 0.811251
0.997560 1.000000 0.783418
1.000000 1.000000 0.858071
0.000000 0.000000 0.382152
0.003368 0.000000 0.377458
0.130601 0.000000 0.371688
0.434507 0.000000 0.372319
0.713987 0.000000 0.369047
0.920546 0.000000 0.319840
0.999741 0.001090 0.339971
0.999946 0.421151 0.543074
1.000000 0.731976 0.757272
0.000000 0.001007 0.380203
0.000022 0.001245 0.389286
0.123862 0.000000 0.388000
0.437004 0.000000 0.379889
0.695466 0.000000 0.350731
0.909696 0.000000 0.301653
0.999748 0.008569 0.347556
0.999946 0.439339 0.543438
1.000000 0.736520 0.757376
0.000000 0.145308 0.389387
0.000000 0.144887 0.392532
0.089558 0.129851 0.383856
0.410707 0.063039 0.370705
0.676436 0.004799 0.335638
0.898735 0.000330 0.289194
0.999755 0.093340 0.358916
0.999946 0.466084 0.544008
1.000000 0.743554 0.757539
0.000000 0.430658 0.419597
0.000000 0.431672 0.420339
0.004029 0.406294 0.399849
0.361227 0.366659 0.371054
0.653701 0.307391 0.332310
0.899750 0.258842 0.306990
0.999743 0.347476 0.378554
0.999946 0.536135 0.545733
1.000000 0.764148 0.758025
0.000000 0.682596 0.418078
0.000000 0.682792 0.418671
0.000000 0.683103 0.419605
0.173268 0.648707 0.384236
0.622025 0.622670 0.356722
0.892940 0.587859 0.330779
0.999705 0.594907 0.389478
0.999946 0.674708 0.550744
1.000000 0.815191 0.759483
0.000000 0.922211 0.427124
0.000000 0.922276 0.427677
0.000000 0.922379 0.428549
0.000000 0.922700 0.431242
0.487417 0.900939 0.403186
0.860696 0.864888 0.367941
0.999491 0.849952 0.415016
0.999947 0.861941 0.562756
1.000000 0.899592 0.763946
0.000000 0.999788 0.494484
0.000000 0.999788 0.494933
0.000000 0.999788 0.495643
0.000000 0.999788 0.497840
0.000000 0.999788 0.504459
0.746027 0.999758 0.459614
0.990470 0.996608 0.475160
0.999949 0.988523 0.594718
1.000000 0.977823 0.776176
0.000000 0.999962 0.624633
0.000000 0.999962 0.624882
0.000000 0.999962 0.625277
0.000000 0.999962 0.626504
0.000000 0.999962 0.630241
0.000000 0.999962 0.641361
0.937170 0.999963 0.596799
0.999953 0.999965 0.666789
1.000000 0.999969 0.806321
0.000000 1.000000 0.808887
0.000000 1.000000 0.808987
0.000000 1.000000 0.809146
0.000000 1.000000 0.809639
0.000000 1.000000 0.811151
0.000000 1.000000 0.815711
0.000000 1.000000 0.828503
0.996293 1.000000 0.798845
1.000000 1.000000 0.864789
0.000000 0.000000 0.620929
0.000000 0.000000 0.625725
0.068176 0.000000 0.628911
0.431336 0.000000 0.629371
0.688064 0.000000 0.607583
0.900205 0.000000 0.562033
0.998847 0.000000 0.559473
0.999946 0.408578 0.663154
1.000000 0.727594 0.804680
0.000000 0.000000 0.622185
0.000000 0.000000 0.625793
0.043756 0.000000 0.621801
0.405788 0.000000 0.616876
0.670877 0.000000 0.593753
0.890424 0.000000 0.551636
0.999053 0.000046 0.564941
0.999946 0.427095 0.663399
1.000000 0.732106 0.804749
0.000000 0.103848 0.628561
0.000000 0.100504 0.629207
0.017925 0.075310 0.618837
0.379578 0.030832 0.609020
0.653612 0.001614 0.581956
0.883375 0.000000 0.545601
0.999177 0.082654 0.573701
0.999946 0.454645 0.663824
1.000000 0.739069 0.804868
0.000000 0.413531 0.649865
0.000000 0.413376 0.649460
0.000000 0.380999 0.628127
0.327959 0.339636 0.605976
0.636944 0.280042 0.581304
0.889867 0.234042 0.563843
0.999674 0.324659 0.584784
0.999946 0.524943 0.665012
1.000000 0.759661 0.805232
0.000000 0.661679 0.638386
0.000000 0.661897 0.638582
0.000000 0.662240 0.638893
0.117065 0.632318 0.612597
0.605615 0.605325 0.597009
0.881016 0.569552 0.575511
0.999471 0.578826 0.590055
0.999946 0.664191 0.667862
1.000000 0.810558 0.806373
0.000000 0.908658 0.637485
0.000000 0.908722 0.637717
0.000000 0.908824 0.638083
0.000000 0.909141 0.639220
0.467218 0.886782 0.619709
0.848829 0.850449 0.591211
0.994645 0.836199 0.601490
0.999947 0.852324 0.675589
1.000000 0.894856 0.809451
0.000000 0.999788 0.667966
0.000000 0.999788 0.668169
0.000000 0.999788 0.668490
0.000000 0.999788 0.669487
0.000000 0.999789 0.672533
0.733392 0.999731 0.634600
0.981653 0.988018 0.630362
0.999949 0.979984 0.694824
1.000000 0.973214 0.817949
0.000000 0.999962 0.735216
0.000000 0.999962 0.735361
0.000000 0.999962 0.735589
0.000000 0.999962 0.736300
0.000000 0.999962 0.738476
0.000000 0.999962 0.745061
0.929848 0.999963 0.699558
0.999953 0.999965 0.742538
1.000000 0.999969 0.838992
0.000000 1.000000 0.858076
0.000000 1.000000 0.858149
0.000000 1.000000 0.858265
0.000000 1.000000 0.858626
0.000000 1.000000 0.859734
0.000000 1.000000 0.863113
0.000000 1.000000 0.872613
0.993683 1.000000 0.834476
1.000000 1.000000 0.883692
0.000000 0.000000 0.861881
0.000000 0.000000 0.855929
0.013599 0.000000 0.852256
0.367714 0.000000 0.846238
0.635896 0.000000 0.824590
0.864417 0.000000 0.789821
0.995210 0.000136 0.797193
0.999946 0.401636 0.830725
1.000000 0.723323 0.882177
0.000000 0.021789 0.863684
0.000000 0.013286 0.855840
0.006380 0.006936 0.850045
0.351233 0.002155 0.842425
0.626078 0.000000 0.818734
0.863249 0.000000 0.790066
0.995503 0.002201 0.801165
0.999946 0.420074 0.830851
1.000000 0.727749 0.882215
0.000000 0.152243 0.867424
0.000000 0.127291 0.858088
0.001012 0.101449 0.849428
0.329245 0.032316 0.838680
0.616966 0.002532 0.815372
0.866170 0.000000 0.796069
0.995819 0.071304 0.805003
0.999946 0.447092 0.831037
1.000000 0.734609 0.882275
0.000000 0.416387 0.879262
0.000000 0.407124 0.874084
0.000000 0.365628 0.853706
0.281950 0.329161 0.840133
0.615259 0.279098 0.826735
0.872451 0.228142 0.810353
0.995363 0.309541 0.808858
0.999946 0.514406 0.831510
1.000000 0.754929 0.882457
0.000000 0.638208 0.861811
0.000000 0.638452 0.861860
0.000000 0.638836 0.861938
0.057348 0.613759 0.845059
0.580022 0.585833 0.834415
0.861622 0.549640 0.815374
0.991662 0.560840 0.811246
0.999946 0.650441 0.832894
1.000000 0.803699 0.883055
0.000000 0.888941 0.861212
0.000000 0.889018 0.861283
0.000000 0.889140 0.861396
0.000000 0.889520 0.861749
0.437711 0.866012 0.846189
0.830091 0.829892 0.822309
0.981194 0.815776 0.815113
0.999947 0.836561 0.836082
1.000000 0.887231 0.885171
0.000000 0.999767 0.871837
0.000000 0.999767 0.871893
0.000000 0.999767 0.871983
0.000000 0.999767 0.872264
0.000000 0.999769 0.873125
0.713989 0.994972 0.840531
0.966627 0.968779 0.824934
0.999949 0.964168 0.843992
1.000000 0.964619 0.889442
0.000000 0.999962 0.893320
0.000000 0.999962 0.893370
0.000000 0.999962 0.893449
0.000000 0.999962 0.893694
0.000000 0.999962 0.894447
0.000000 0.999963 0.896748
0.916895 0.999963 0.850897
0.999859 0.999965 0.861033
1.000000 0.998467 0.898372
0.000000 1.000000 0.938507
0.000000 1.000000 0.938536
0.000000 1.000000 0.938582
0.000000 1.000000 0.938725
0.000000 1.000000 0.939167
0.000000 1.000000 0.940518
0.000000 1.000000 0.944602
0.987683 1.000000 0.898943
1.000000 1.000000 0.921318
0.000000 0.232613 0.990296
0.000000 0.215186 0.987758
0.024880 0.196151 0.984908
0.347958 0.164891 0.979253
0.618469 0.104912 0.967445
0.862797 0.040452 0.952613
0.986254 0.189180 0.944937
0.999946 0.464767 0.946255
1.000000 0.736202 0.953855
0.000000 0.283006 0.990931
0.000000 0.266566 0.988194
0.018272 0.251359 0.985405
0.344730 0.227252 0.980154
0.619575 0.165293 0.968822
0.862856 0.106476 0.953193
0.985774 0.228964 0.945038
0.999946 0.478197 0.946309
1.000000 0.740296 0.953879
0.000000 0.342338 0.991512
0.000000 0.328236 0.988646
0.011344 0.316733 0.986289
0.336750 0.297926 0.981317
0.617856 0.246893 0.969854
0.863060 0.204648 0.954044
0.985064 0.285141 0.945186
0.999946 0.498465 0.946392
1.000000 0.746668 0.953928
0.000000 0.466257 0.992981
0.000000 0.454413 0.989583
0.000029 0.449110 0.987781
0.305230 0.436262 0.983330
0.608245 0.401476 0.971563
0.859257 0.361698 0.954881
0.982988 0.398768 0.945598
0.999946 0.551805 0.946669
1.000000 0.765629 0.954074
0.000000 0.660308 0.995376
0.000000 0.660533 0.995381
0.000000 0.650564 0.991745
0.130192 0.639724 0.986216
0.571874 0.614224 0.974059
0.847679 0.580178 0.956458
0.977915 0.586569 0.946668
0.999946 0.666151 0.947321
1.000000 0.807234 0.954442
0.000000 0.884629 0.996849
0.000000 0.884695 0.996859
0.000000 0.884800 0.996874
0.000000 0.885125 0.996920
0.438752 0.858955 0.981305
0.817240 0.823317 0.959802
0.967967 0.810468 0.948475
0.999947 0.832704 0.948543
1.000000 0.882892 0.955267
0.000000 0.999733 0.998169
0.000000 0.999733 0.998178
0.000000 0.999734 0.998192
0.000000 0.999735 0.998234
0.000000 0.999740 0.998366
0.705241 0.982057 0.969625
0.954528 0.954452 0.951507
0.997379 0.951519 0.950492
1.000000 0.956713 0.956573
0.000000 0.999963 1.000000
0.000000 0.999963 1.000000
0.000000 0.999963 1.000000
0.000000 0.999963 1.000000
0.000000 0.999963 1.000000
0.000000 0.999964 1.000000
0.906741 0.999964 0.958533
0.993459 0.994348 0.953507
1.000000 0.990365 0.959076
0.000000 1.000000 1.000000
0.000000 1.000000 1.000000
0.000000 1.000000 1.000000
0.000000 1.000000 1.000000
0.000000 1.000000 1.000000
0.000000 1.000000 1.000000
0.000000 1.000000 1.000000
0.981234 1.000000 0.961950
1.000000 1.000000 0.964849
0.172806 0.588356 1.000000
0.243177 0.586902 1.000000
0.317416 0.584337 1.000000
0.454388 0.574412 1.000000
0.652111 0.552031 1.000000
0.864160 0.524809 0.997516
0.976497 0.540254 0.988296
0.999945 0.633646 0.986109
1.000000 0.791968 0.985572
0.159309 0.599082 1.000000
0.232023 0.597675 1.000000
0.310221 0.595114 1.000000
0.450494 0.585507 1.000000
0.650299 0.563246 1.000000
0.863474 0.536554 0.997592
0.976195 0.549945 0.988347
0.999945 0.640175 0.986146
1.000000 0.794531 0.985591
0.137511 0.615356 1.000000
0.213327 0.613943 1.000000
0.298715 0.611468 1.000000
0.444306 0.602342 1.000000
0.647450 0.580247 1.000000
0.862369 0.553512 0.997712
0.975732 0.564732 0.988426
0.999945 0.650234 0.986202
1.000000 0.798527 0.985620
0.075131 0.659083 1.000000
0.151740 0.658135 1.000000
0.261819 0.656022 1.000000
0.424121 0.647119 1.000000
0.638922 0.625974 1.000000
0.859044 0.598702 0.998064
0.974384 0.606848 0.988653
0.999945 0.679519 0.986364
1.000000 0.810539 0.985709
0.000000 0.757785 1.000000
0.000000 0.757029 1.000000
0.073401 0.755545 1.000000
0.354901 0.749430 1.000000
0.611655 0.728916 1.000000
0.849438 0.702032 0.998787
0.970618 0.701331 0.989226
0.999808 0.748462 0.986775
1.000000 0.839780 0.985926
0.000000 0.919015 1.000000
0.000000 0.919070 1.000000
0.000000 0.919157 1.000000
0.000000 0.906228 1.000000
0.511669 0.887740 1.000000
0.823445 0.857401 0.999757
0.962943 0.843552 0.990355
0.997872 0.856839 0.987554
1.000000 0.895012 0.986351
0.000000 0.999806 1.000000
0.000000 0.999806 1.000000
0.000000 0.999806 1.000000
0.000000 0.999807 1.000000
0.000000 0.999807 1.000000
0.727499 0.978943 1.000000
0.951176 0.953541 0.991895
0.993214 0.950953 0.988440
1.000000 0.956762 0.986929
0.000000 0.999966 1.000000
0.000000 0.999966 1.000000
0.000000 0.999966 1.000000
0.000000 0.999966 1.000000
0.000000 0.999966 1.000000
0.000000 0.999966 1.000000
0.906709 0.999082 0.996047
0.989654 0.989639 0.989166
1.000000 0.986642 0.987352
0.000000 1.000000 1.000000
0.000000 1.000000 1.000000
0.000000 1.000000 1.000000
0.000000 1.000000 1.000000
0.000000 1.000000 1.000000
0.000000 1.000000 1.000000
0.000000 1.000000 1.000000
0.978343 1.000000 0.990896
1.000000 0.999998 0.988209
0.547563 0.855441 1.000000
0.560295 0.854396 1.000000
0.579290 0.852788 1.000000
0.628950 0.848282 1.000000
0.735639 0.837281 1.000000
0.876600 0.821550 1.000000
0.968355 0.816383 1.000000
0.996737 0.835872 0.999985
1.000000 0.881600 0.999989
0.545385 0.857915 1.000000
0.558229 0.856882 1.000000
0.577351 0.855264 1.000000
0.627400 0.850731 1.000000
0.734650 0.839735 1.000000
0.876256 0.823968 1.000000
0.968222 0.818707 1.000000
0.996667 0.837488 0.999985
1.000000 0.882520 0.999989
0.541913 0.861782 1.000000
0.554897 0.860735 1.000000
0.574260 0.859131 1.000000
0.624936 0.854555 1.000000
0.733082 0.843566 1.000000
0.875714 0.827741 1.000000
0.968016 0.822344 1.000000
0.996556 0.840016 0.999985
1.000000 0.883964 0.999989
0.530882 0.873462 1.000000
0.544325 0.872372 1.000000
0.564391 0.870752 1.000000
0.617162 0.866096 1.000000
0.728172 0.855124 1.000000
0.874005 0.839067 1.000000
0.967395 0.832580 1.000000
0.996220 0.847668 0.999985
1.000000 0.888369 0.999989
0.493857 0.901920 1.000000
0.509890 0.900802 1.000000
0.532412 0.899062 1.000000
0.592454 0.894142 1.000000
0.712862 0.882642 1.000000
0.868929 0.865316 1.000000
0.965776 0.856796 1.000000
0.995268 0.869282 0.999986
1.000000 0.901094 0.999990
0.328162 0.961424 1.000000
0.357552 0.959957 1.000000
0.399297 0.957827 1.000000
0.495346 0.951906 1.000000
0.661370 0.938648 1.000000
0.853723 0.918248 1.000000
0.961698 0.906775 1.000000
0.993287 0.911287 0.999990
1.000000 0.927303 0.999990
0.000000 0.999873 1.000000
0.000000 0.999873 1.000000
0.000000 0.999873 1.000000
0.000000 0.999874 1.000000
0.342204 0.999864 1.000000
0.791514 0.983011 1.000000
0.952600 0.964008 1.000000
0.990514 0.960622 0.999992
1.000000 0.962468 0.999993
0.000000 0.999969 1.000000
0.000000 0.999969 1.000000
0.000000 0.999969 1.000000
0.000000 0.999969 1.000000
0.000000 0.999969 1.000000
0.000000 0.999969 1.000000
0.917571 0.996629 1.000000
0.987538 0.987682 0.999995
1.000000 0.984708 0.999994
0.000000 1.000000 1.000000
0.000000 1.000000 1.000000
0.000000 1.000000 1.000000
0.000000 1.000000 1.000000
0.000000 1.000000 1.000000
0.000000 1.000000 1.000000
0.000000 1.000000 1.000000
0.977012 1.000000 1.000000
1.000000 1.000000 1.000000
