lut/Sony/NewLook/SL3SG3toTealOR_709.cube
# Copyright 2023 SONY
# Teal and Orange 709 LUT
# S-Log3/S-Gamut3 to Rec.709
# 
LUT_3D_SIZE 9
0.000000 0.000000 0.000000
0.071861 0.000000 0.001848
0.145246 0.000000 0.001417
0.388824 0.000000 0.003591
0.708126 0.057689 0.028846
0.888616 0.105931 0.048546
0.973562 0.105457 0.064942
1.000000 0.376296 0.258896
1.000000 0.563190 0.378871
0.000000 0.048686 0.001921
0.064822 0.047432 0.003798
0.141905 0.062317 0.000884
0.389442 0.061603 0.004113
0.705121 0.066044 0.035922
0.889488 0.099443 0.048564
0.974367 0.129017 0.065679
1.000000 0.384376 0.259119
1.000000 0.564769 0.378892
0.000000 0.127478 0.006353
0.033839 0.127735 0.008390
0.130033 0.121402 0.009889
0.399177 0.117441 0.008523
0.705997 0.062063 0.039712
0.890309 0.099507 0.048539
0.975407 0.176083 0.066445
1.000000 0.396313 0.259463
1.000000 0.567213 0.378927
0.000000 0.294293 0.032793
0.000000 0.295114 0.037790
0.075703 0.309802 0.035861
0.390450 0.299754 0.019111
0.759216 0.324165 0.071096
0.913117 0.276480 0.050941
0.979175 0.282494 0.070159
1.000000 0.429977 0.261463
1.000000 0.574435 0.379038
0.000000 0.547409 0.082479
0.000000 0.547979 0.086719
0.000000 0.548876 0.098209
0.233583 0.593294 0.122992
0.735093 0.560046 0.067941
0.945126 0.575451 0.067458
0.997265 0.506190 0.095026
1.000000 0.503264 0.268062
0.999909 0.592983 0.379421
0.000000 0.785334 0.275419
0.000000 0.785563 0.275685
0.000000 0.785917 0.276115
0.000000 0.786866 0.277944
0.551912 0.823047 0.187406
0.900277 0.778383 0.087821
0.997517 0.769788 0.157839
0.999981 0.662667 0.285526
0.999294 0.626194 0.380622
0.000000 0.930862 0.454973
0.000000 0.930875 0.455886
0.000000 0.930896 0.457320
0.000000 0.930963 0.461714
0.000000 0.931167 0.474569
0.769882 0.953584 0.407599
0.991943 0.921723 0.294537
0.998217 0.872947 0.338586
0.995314 0.693851 0.390605
0.000000 0.999003 0.689132
0.000000 0.999004 0.689361
0.000000 0.999005 0.689723
0.000000 0.999008 0.690844
0.000000 0.999017 0.694240
0.000000 0.999046 0.704192
0.908445 0.997260 0.635756
0.998294 0.984901 0.522877
0.994948 0.987848 0.511890
0.000000 1.000000 0.839670
0.000000 1.000000 0.839723
0.000000 1.000000 0.839807
0.000000 1.000000 0.840066
0.000000 1.000000 0.840862
0.000000 1.000000 0.843276
0.000000 1.000000 0.850348
0.991937 0.997427 0.790575
0.996872 0.999939 0.849289
0.000000 0.000000 0.044024
0.047610 0.000000 0.036322
0.135324 0.000000 0.038289
0.382930 0.000000 0.003363
0.697358 0.076614 0.026757
0.885006 0.110960 0.043909
0.973733 0.107176 0.092916
1.000000 0.373195 0.265967
1.000000 0.563004 0.380479
0.000000 0.046634 0.045658
0.039734 0.042588 0.042664
0.136963 0.062481 0.032797
0.388566 0.054647 0.001158
0.691779 0.078582 0.027004
0.885868 0.105325 0.044218
0.974542 0.128386 0.094056
1.000000 0.381248 0.266155
1.000000 0.564582 0.380500
0.000000 0.131938 0.077413
0.024566 0.129812 0.072150
0.122611 0.122182 0.056254
0.390372 0.116313 0.002561
0.696054 0.068942 0.027673
0.887081 0.105441 0.044574
0.975576 0.175082 0.095615
1.000000 0.393161 0.266446
1.000000 0.567024 0.380533
0.000000 0.305426 0.120681
0.000000 0.306685 0.121518
0.062816 0.306260 0.099926
0.375000 0.300025 0.037594
0.743692 0.321802 0.042800
0.905965 0.274310 0.047033
0.979400 0.282668 0.101099
1.000000 0.426797 0.268239
1.000000 0.574241 0.380641
0.000000 0.562378 0.191921
0.000000 0.563039 0.192693
0.000000 0.564165 0.194033
0.208718 0.586052 0.134544
0.715479 0.563647 0.049499
0.936694 0.575150 0.064429
0.997225 0.503374 0.127941
1.000000 0.500355 0.274362
0.999909 0.592801 0.381010
0.000000 0.790039 0.298996
0.000000 0.790256 0.299920
0.000000 0.790597 0.301362
0.000000 0.791576 0.306523
0.539549 0.820666 0.226964
0.895944 0.780510 0.116311
0.997471 0.770536 0.184208
0.999981 0.664230 0.291687
0.999289 0.625876 0.382148
0.000000 0.930914 0.487233
0.000000 0.930930 0.488048
0.000000 0.930955 0.489329
0.000000 0.931029 0.493249
0.000000 0.931231 0.504684
0.766668 0.953177 0.431604
0.991422 0.922450 0.315974
0.998289 0.873774 0.346928
0.995334 0.696998 0.392552
0.000000 0.999004 0.697635
0.000000 0.999004 0.697850
0.000000 0.999005 0.698188
0.000000 0.999009 0.699239
0.000000 0.999018 0.702426
0.000000 0.999044 0.712642
0.907874 0.997235 0.641501
0.998292 0.984945 0.527968
0.994982 0.987384 0.514537
0.000000 1.000000 0.841673
0.000000 1.000000 0.841725
0.000000 1.000000 0.841806
0.000000 1.000000 0.842060
0.000000 1.000000 0.842840
0.000000 1.000000 0.845203
0.000000 1.000000 0.852237
0.991752 0.997428 0.792219
0.996874 0.999939 0.850283
0.000000 0.000000 0.134732
0.025982 0.000000 0.122922
0.099596 0.000000 0.103588
0.317731 0.011857 0.098750
0.651102 0.141177 0.043690
0.886367 0.120670 0.047458
0.973501 0.113170 0.140995
1.000000 0.368556 0.274919
0.999961 0.562433 0.382888
0.000000 0.091877 0.128799
0.015881 0.086247 0.131158
0.100137 0.075177 0.112699
0.319818 0.100986 0.102370
0.653221 0.113462 0.045815
0.887621 0.116571 0.048241
0.974269 0.132710 0.141801
1.000000 0.376541 0.275068
0.999954 0.563959 0.382895
0.000000 0.125528 0.126808
0.002709 0.126908 0.127549
0.093492 0.127840 0.130266
0.372346 0.115869 0.080771
0.670796 0.103287 0.044625
0.888059 0.117537 0.049307
0.975981 0.177674 0.142440
1.000000 0.388398 0.275325
0.999943 0.566320 0.382906
0.000000 0.333990 0.186907
0.000000 0.334819 0.188280
0.020028 0.320482 0.163010
0.350591 0.308859 0.112059
0.714088 0.325962 0.056550
0.895955 0.275648 0.051406
0.979967 0.289711 0.145837
1.000000 0.422236 0.277039
0.999910 0.573283 0.382943
0.000000 0.588255 0.257072
0.000000 0.588846 0.258376
0.000000 0.589774 0.260416
0.178966 0.583280 0.191873
0.697492 0.572457 0.109644
0.921806 0.577131 0.090309
0.996542 0.500973 0.166751
1.000000 0.496197 0.282968
0.999631 0.590797 0.383041
0.000000 0.797276 0.363085
0.000000 0.797441 0.364098
0.000000 0.797699 0.365689
0.000000 0.798550 0.370607
0.522390 0.817758 0.287117
0.889922 0.783944 0.188887
0.997487 0.772812 0.218663
0.999966 0.667819 0.300933
0.999222 0.623863 0.384159
0.000000 0.930992 0.530259
0.000000 0.931015 0.530911
0.000000 0.931052 0.531938
0.000000 0.931165 0.535105
0.000000 0.931489 0.544766
0.762338 0.952577 0.466338
0.990687 0.923481 0.346270
0.998368 0.876030 0.358925
0.995365 0.701871 0.395567
0.000000 0.999003 0.710720
0.000000 0.999004 0.710941
0.000000 0.999005 0.711290
0.000000 0.999007 0.712374
0.000000 0.999016 0.715573
0.000000 0.999045 0.723263
0.906966 0.997183 0.650402
0.998290 0.985012 0.535718
0.995034 0.986663 0.518649
0.000000 1.000000 0.844757
0.000000 1.000000 0.844807
0.000000 1.000000 0.844886
0.000000 1.000000 0.845132
0.000000 1.000000 0.845886
0.000000 1.000000 0.848175
0.000000 1.000000 0.855179
0.991464 0.997430 0.794769
0.996878 0.999939 0.851838
0.000000 0.015323 0.321781
0.004923 0.021347 0.307750
0.047336 0.034645 0.279699
0.236453 0.077277 0.241308
0.541627 0.198794 0.236250
0.783963 0.182464 0.235119
0.955039 0.182372 0.242713
1.000000 0.362686 0.300820
0.999776 0.559660 0.390651
0.000000 0.138256 0.315180
0.000000 0.137167 0.321245
0.041410 0.130824 0.295396
0.236906 0.131247 0.246559
0.544044 0.154713 0.237976
0.789879 0.180079 0.236020
0.959457 0.189538 0.241496
1.000000 0.370835 0.300979
0.999486 0.559242 0.389922
0.000000 0.169037 0.311385
0.000000 0.171998 0.314613
0.033328 0.173155 0.330039
0.258045 0.146996 0.272728
0.559632 0.152081 0.245807
0.799547 0.184236 0.237897
0.963104 0.233724 0.241834
1.000000 0.382618 0.301175
0.999037 0.558596 0.388794
0.000000 0.300540 0.314357
0.000000 0.301259 0.315080
0.002933 0.315262 0.323915
0.249195 0.335561 0.343328
0.675385 0.328299 0.288185
0.849952 0.324584 0.251022
0.974788 0.345608 0.243659
1.000000 0.417834 0.302166
0.998486 0.561996 0.387477
0.000000 0.606657 0.440901
0.000000 0.606756 0.441529
0.000000 0.606914 0.442520
0.109851 0.602105 0.393443
0.660291 0.592683 0.314438
0.897045 0.594980 0.285412
0.995368 0.508000 0.253478
1.000000 0.498399 0.320346
0.997806 0.578081 0.387287
0.000000 0.813361 0.525144
0.000000 0.813476 0.525822
0.000000 0.813659 0.526892
0.000000 0.814225 0.530198
0.484239 0.813405 0.431409
0.878802 0.792023 0.344680
0.997498 0.782413 0.318402
0.999963 0.678643 0.326781
0.999025 0.617933 0.390089
0.000000 0.932601 0.628792
0.000000 0.932619 0.629189
0.000000 0.932648 0.629815
0.000000 0.932738 0.631753
0.000000 0.933058 0.637639
0.753043 0.951135 0.543646
0.988706 0.926275 0.421356
0.998472 0.885215 0.394594
0.995456 0.716287 0.404482
0.000000 0.999008 0.740959
0.000000 0.999009 0.741106
0.000000 0.999010 0.741338
0.000000 0.999014 0.742058
0.000000 0.999027 0.744255
0.000000 0.999064 0.750538
0.904522 0.997053 0.673784
0.998282 0.985206 0.557785
0.995180 0.984810 0.532005
0.000000 1.000000 0.853994
0.000000 1.000000 0.854043
0.000000 1.000000 0.854119
0.000000 1.000000 0.854356
0.000000 1.000000 0.855085
0.000000 1.000000 0.857289
0.000000 1.000000 0.863607
0.990629 0.997438 0.802318
0.996888 0.999939 0.856533
0.001214 0.255415 0.563927
0.006771 0.265333 0.572691
0.026746 0.254795 0.531208
0.140077 0.237723 0.458922
0.436489 0.225825 0.373990
0.739311 0.205661 0.343990
0.841162 0.229999 0.367079
0.992764 0.411824 0.385112
1.000000 0.562212 0.422322
0.000000 0.216027 0.561339
0.013977 0.219191 0.570041
0.024451 0.214973 0.564847
0.145489 0.204358 0.482187
0.439013 0.206438 0.377239
0.741801 0.205404 0.346412
0.846391 0.233946 0.369190
0.992694 0.420802 0.389965
0.999849 0.562189 0.422015
0.000000 0.233026 0.559581
0.035823 0.237472 0.565295
0.017539 0.237906 0.584203
0.154721 0.217798 0.526494
0.474384 0.208705 0.396915
0.746190 0.211113 0.349698
0.855598 0.277484 0.372569
0.992889 0.431605 0.393417
0.999413 0.561668 0.421045
0.000000 0.371821 0.557780
0.000000 0.373353 0.558654
0.009706 0.387833 0.572114
0.145612 0.405427 0.604167
0.550715 0.382967 0.502459
0.779781 0.351299 0.410799
0.879280 0.393783 0.383900
0.993288 0.460650 0.396648
0.998124 0.560145 0.418210
0.000000 0.539605 0.571712
0.000000 0.539842 0.571952
0.000000 0.540218 0.572332
0.069694 0.577198 0.595542
0.567437 0.616815 0.625696
0.864050 0.610317 0.593250
0.960447 0.565050 0.497498
0.999511 0.532928 0.421619
0.994624 0.552550 0.409827
0.000000 0.808253 0.704954
0.000000 0.808267 0.705076
0.000000 0.808290 0.705268
0.000000 0.808361 0.705865
0.385022 0.819388 0.656220
0.857102 0.801158 0.574692
0.994035 0.802051 0.562474
1.000000 0.703176 0.436471
0.996835 0.601532 0.418983
0.000000 0.937612 0.757595
0.000000 0.937629 0.757725
0.000000 0.937656 0.757932
0.000000 0.937741 0.758575
0.000000 0.937999 0.760537
0.739971 0.949756 0.659972
0.983888 0.929470 0.557156
0.999082 0.904703 0.509386
0.996465 0.771629 0.444812
0.000000 0.999071 0.801263
0.000000 0.999072 0.801344
0.000000 0.999073 0.801473
0.000000 0.999076 0.801873
0.000000 0.999085 0.803097
0.000000 0.999103 0.806887
0.898920 0.996702 0.727499
0.998414 0.986308 0.616209
0.995632 0.978858 0.577417
0.000000 1.000000 0.878119
0.000000 1.000000 0.878158
0.000000 1.000000 0.878218
0.000000 1.000000 0.878406
0.000000 1.000000 0.878984
0.000000 1.000000 0.880747
0.000000 1.000000 0.886079
0.989154 0.997442 0.823041
0.996918 0.999940 0.869750
0.087403 0.313136 0.767899
0.035451 0.314824 0.773612
0.035692 0.313192 0.781305
0.165160 0.303189 0.732268
0.387160 0.297119 0.627824
0.681484 0.281789 0.473351
0.840531 0.253393 0.403926
0.706672 0.278089 0.358164
1.000000 0.683799 0.664305
0.048113 0.311848 0.767353
0.038898 0.314840 0.772294
0.033742 0.316450 0.780563
0.163752 0.308027 0.751966
0.401335 0.301101 0.654717
0.687197 0.286282 0.479274
0.844578 0.258091 0.406461
0.712192 0.288838 0.359043
1.000000 0.685786 0.664678
0.017081 0.357111 0.764594
0.045187 0.360022 0.769710
0.031080 0.360425 0.778131
0.160826 0.331801 0.777377
0.418301 0.316073 0.689342
0.697229 0.290621 0.494736
0.851421 0.292327 0.411396
0.720751 0.304220 0.360005
1.000000 0.688866 0.665260
0.000000 0.481044 0.759763
0.046874 0.483475 0.764348
0.030544 0.491282 0.771721
0.144916 0.497526 0.790213
0.446781 0.464854 0.753518
0.747158 0.421507 0.619472
0.869635 0.409349 0.436675
0.739470 0.346085 0.362225
1.000000 0.698005 0.667011
0.000000 0.603308 0.761407
0.000000 0.603463 0.761472
0.000000 0.603708 0.761576
0.064302 0.630315 0.782549
0.457299 0.648192 0.814435
0.802314 0.628290 0.753427
0.936280 0.592241 0.637543
0.846979 0.452014 0.390873
1.000000 0.692276 0.655338
0.000000 0.745427 0.780814
0.000000 0.745491 0.780876
0.000000 0.745591 0.780975
0.000000 0.745903 0.781284
0.318114 0.784732 0.810511
0.817472 0.810987 0.809155
0.981219 0.812442 0.804148
0.996243 0.725217 0.673216
0.997833 0.656791 0.614989
0.000000 0.931708 0.880092
0.000000 0.931705 0.880124
0.000000 0.931701 0.880176
0.000000 0.931688 0.880338
0.000000 0.931649 0.880834
0.680099 0.954441 0.823050
0.973204 0.933382 0.754148
0.999477 0.926811 0.744313
0.998168 0.843742 0.620305
0.000000 0.998903 0.905340
0.000000 0.998904 0.905379
0.000000 0.998905 0.905440
0.000000 0.998909 0.905630
0.000000 0.998920 0.906216
0.000000 0.998953 0.908004
0.891411 0.996144 0.816737
0.998447 0.988840 0.730593
0.996435 0.978896 0.702844
0.000000 1.000000 0.932659
0.000000 1.000000 0.932682
0.000000 1.000000 0.932718
0.000000 1.000000 0.932831
0.000000 1.000000 0.933179
0.000000 1.000000 0.934246
0.000000 1.000000 0.937535
0.985566 0.998089 0.867053
0.997053 0.999949 0.902627
0.046546 0.523227 0.918763
0.044884 0.521884 0.920026
0.064370 0.517780 0.922023
0.197336 0.501135 0.926959
0.392438 0.471281 0.917609
0.693019 0.416475 0.865788
0.837125 0.477397 0.703546
0.900509 0.599879 0.657409
0.999269 0.642963 0.432283
0.047108 0.546130 0.918332
0.044587 0.545253 0.919475
0.059231 0.543035 0.921466
0.194224 0.530219 0.926471
0.393490 0.501294 0.920928
0.698969 0.447447 0.872797
0.841653 0.493573 0.708604
0.902731 0.605949 0.659427
0.999269 0.644784 0.432248
0.049755 0.572342 0.917594
0.044331 0.572337 0.918804
0.053607 0.571109 0.920861
0.189774 0.562587 0.925905
0.394655 0.536533 0.925130
0.706147 0.493629 0.881082
0.849215 0.516371 0.717445
0.908766 0.613981 0.660932
0.999315 0.649189 0.432258
0.083537 0.625361 0.916006
0.046143 0.626590 0.917222
0.043990 0.627756 0.919407
0.174574 0.626229 0.924786
0.396272 0.609252 0.934832
0.722953 0.575053 0.900387
0.871103 0.561546 0.753148
0.919981 0.636718 0.665821
0.999454 0.662356 0.432293
0.000000 0.700598 0.914358
0.000000 0.700700 0.914371
0.062306 0.703004 0.916010
0.107752 0.711374 0.922668
0.368921 0.714866 0.937369
0.742372 0.691701 0.926730
0.928340 0.662499 0.859671
0.949908 0.684943 0.685245
0.999490 0.686452 0.434349
0.000000 0.790932 0.918317
0.000000 0.790974 0.918334
0.000000 0.791041 0.918359
0.000000 0.791250 0.918440
0.266561 0.810089 0.930844
0.740827 0.823497 0.943685
0.953077 0.815490 0.915989
0.999222 0.786366 0.843051
1.000000 0.748153 0.488468
0.000000 0.885620 0.937046
0.000000 0.885629 0.937060
0.000000 0.885643 0.937081
0.000000 0.885689 0.937149
0.000000 0.885829 0.937355
0.624236 0.919545 0.945341
0.947662 0.939818 0.932174
0.998435 0.937241 0.932786
0.998617 0.884015 0.853876
0.000000 0.990859 0.988070
0.000000 0.990859 0.988072
0.000000 0.990858 0.988076
0.000000 0.990858 0.988087
0.000000 0.990857 0.988121
0.000000 0.990854 0.988225
0.869055 0.996499 0.935564
0.995727 0.991184 0.881643
0.996725 0.987188 0.881568
0.000000 1.000000 0.991529
0.000000 1.000000 0.991531
0.000000 1.000000 0.991534
0.000000 1.000000 0.991543
0.000000 1.000000 0.991570
0.000000 1.000000 0.991655
0.000000 1.000000 0.991915
0.981727 0.999914 0.936219
0.997647 0.999903 0.947341
0.140438 0.749470 0.992169
0.167350 0.748339 0.992258
0.198208 0.747032 0.992562
0.261303 0.742860 0.993369
0.369662 0.732504 0.995888
0.671887 0.713249 0.998615
0.904609 0.703295 0.985181
0.985431 0.769188 0.891562
1.000000 0.895147 0.885867
0.135155 0.753542 0.992099
0.163100 0.752489 0.992183
0.195170 0.751123 0.992488
0.259481 0.747159 0.993270
0.368506 0.737074 0.995791
0.672151 0.718165 0.998683
0.905408 0.707998 0.985607
0.985590 0.770036 0.893491
1.000000 0.896078 0.886125
0.126632 0.759728 0.991991
0.155863 0.758713 0.992083
0.190306 0.757336 0.992374
0.256588 0.753706 0.993119
0.366747 0.744127 0.995656
0.672713 0.725287 0.998839
0.906623 0.715176 0.986258
0.985834 0.771342 0.896465
1.000000 0.897529 0.886528
0.099582 0.776283 0.991676
0.131818 0.775444 0.991789
0.174509 0.774099 0.992018
0.247272 0.771002 0.992820
0.362395 0.763405 0.995297
0.674562 0.744220 0.998889
0.909730 0.735275 0.987646
0.988236 0.773628 0.906282
1.000000 0.901890 0.887743
0.058159 0.812250 0.990749
0.062427 0.811676 0.991006
0.099488 0.810752 0.991241
0.215202 0.808557 0.992003
0.345614 0.804333 0.994316
0.677459 0.788119 0.998932
0.917493 0.780893 0.990272
0.991986 0.778766 0.937728
1.000000 0.912336 0.890838
0.000000 0.866511 0.989193
0.000000 0.866536 0.989195
0.000000 0.866576 0.989197
0.059842 0.866804 0.990339
0.293598 0.865871 0.992315
0.657848 0.864724 0.998245
0.925562 0.858997 0.991840
0.997756 0.835922 0.979033
1.000000 0.928146 0.901104
0.000000 0.914514 0.990973
0.000000 0.914518 0.990974
0.000000 0.914526 0.990977
0.000000 0.914549 0.990985
0.000000 0.914622 0.991011
0.562509 0.929311 0.996782
0.921744 0.945799 0.991519
0.995487 0.938390 0.987186
0.998019 0.920938 0.981515
0.000000 0.957612 0.997095
0.000000 0.957614 0.997096
0.000000 0.957618 0.997098
0.000000 0.957629 0.997103
0.000000 0.957662 0.997120
0.000000 0.957765 0.997171
0.857596 0.985480 0.992611
0.991913 0.990967 0.985824
0.998769 0.989738 0.987933
0.000000 0.999860 1.000000
0.000000 0.999859 1.000000
0.000000 0.999859 1.000000
0.000000 0.999858 1.000000
0.000000 0.999854 1.000000
0.000000 0.999844 1.000000
0.000000 0.999811 1.000000
0.979188 0.999597 0.991488
0.999855 0.999673 0.975417
0.317135 0.886901 0.997606
0.323669 0.886510 0.997606
0.333015 0.885848 0.997595
0.363868 0.884378 0.997696
0.463316 0.881009 0.998656
0.709336 0.870246 0.999631
0.922711 0.867362 0.999775
0.995911 0.854299 0.999960
1.000000 0.850266 0.999792
0.316174 0.887935 0.997602
0.322929 0.887572 0.997607
0.332351 0.886908 0.997596
0.363155 0.885414 0.997691
0.462764 0.882072 0.998640
0.709242 0.871367 0.999611
0.922839 0.868492 0.999764
0.995894 0.855297 0.999960
1.000000 0.850686 0.999792
0.314636 0.889551 0.997596
0.321465 0.889183 0.997600
0.331285 0.888565 0.997598
0.362011 0.887032 0.997684
0.461877 0.883731 0.998614
0.709081 0.873117 0.999580
0.923073 0.870299 0.999741
0.995868 0.856859 0.999960
1.000000 0.851345 0.999792
0.309701 0.894427 0.997577
0.316769 0.894044 0.997581
0.327318 0.893474 0.997588
0.358287 0.891907 0.997658
0.459025 0.888751 0.998533
0.708427 0.878469 0.999485
0.923525 0.875527 0.999662
0.995786 0.861589 0.999960
1.000000 0.853357 0.999793
0.292521 0.906438 0.997428
0.299933 0.906058 0.997396
0.313035 0.905518 0.997451
0.345243 0.903861 0.997482
0.450011 0.900754 0.998262
0.703594 0.892072 0.999245
0.923840 0.888700 0.999374
0.995813 0.874516 0.999909
1.000000 0.859168 0.999794
0.211124 0.932443 0.997130
0.225287 0.931907 0.997075
0.246331 0.931153 0.997044
0.296263 0.929457 0.997149
0.411976 0.926226 0.997749
0.687810 0.919964 0.998739
0.922427 0.918699 0.998713
0.995188 0.906094 0.998877
1.000000 0.879079 0.999783
0.000000 0.953401 0.998923
0.000000 0.953402 0.998923
0.000000 0.953405 0.998923
0.000000 0.953413 0.998923
0.224382 0.955398 0.996864
0.620116 0.956882 0.998170
0.909774 0.963705 0.997961
0.993348 0.957976 0.998457
0.998016 0.939423 0.999607
0.000000 0.963159 0.999841
0.000000 0.963159 0.999841
0.000000 0.963159 0.999841
0.000000 0.963160 0.999842
0.000000 0.963163 0.999842
0.000000 0.963172 0.999844
0.857707 0.983317 0.999162
0.990931 0.991473 0.998800
0.999958 0.989614 0.998987
0.000000 0.981373 1.000000
0.000000 0.981373 1.000000
0.000000 0.981373 1.000000
0.000000 0.981374 1.000000
0.000000 0.981375 1.000000
0.000000 0.981380 1.000000
0.000000 0.981394 1.000000
0.981917 0.992731 0.995176
1.000000 1.000000 1.000000
