lut/Sony/NewLook/SL3SG3toTealOR_709.cube
# Copyright 2023 SONY
# Teal and Orange 709 LUT
# S-Log3/S-Gamut3 to Rec.709
# 
LUT_3D_SIZE 5
0.000000 0.000000 0.000000
0.145246 0.000000 0.001417
0.708126 0.057689 0.028846
0.973562 0.105457 0.064942
1.000000 0.563190 0.378871
0.000000 0.127478 0.006353
0.130033 0.121402 0.009889
0.705997 0.062063 0.039712
0.975407 0.176083 0.066445
1.000000 0.567213 0.378927
0.000000 0.547409 0.082479
0.000000 0.548876 0.098209
0.735093 0.560046 0.067941
0.997265 0.506190 0.095026
0.999909 0.592983 0.379421
0.000000 0.930862 0.454973
0.000000 0.930896 0.457320
0.000000 0.931167 0.474569
0.991943 0.921723 0.294537
0.995314 0.693851 0.390605
0.000000 1.000000 0.839670
0.000000 1.000000 0.839807
0.000000 1.000000 0.840862
0.000000 1.000000 0.850348
0.996872 0.999939 0.849289
0.000000 0.000000 0.134732
0.099596 0.000000 0.103588
0.651102 0.141177 0.043690
0.973501 0.113170 0.140995
0.999961 0.562433 0.382888
0.000000 0.125528 0.126808
0.093492 0.127840 0.130266
0.670796 0.103287 0.044625
0.975981 0.177674 0.142440
0.999943 0.566320 0.382906
0.000000 0.588255 0.257072
0.000000 0.589774 0.260416
0.697492 0.572457 0.109644
0.996542 0.500973 0.166751
0.999631 0.590797 0.383041
0.000000 0.930992 0.530259
0.000000 0.931052 0.531938
0.000000 0.931489 0.544766
0.990687 0.923481 0.346270
0.995365 0.701871 0.395567
0.000000 1.000000 0.844757
0.000000 1.000000 0.844886
0.000000 1.000000 0.845886
0.000000 1.000000 0.855179
0.996878 0.999939 0.851838
0.001214 0.255415 0.563927
0.026746 0.254795 0.531208
0.436489 0.225825 0.373990
0.841162 0.229999 0.367079
1.000000 0.562212 0.422322
0.000000 0.233026 0.559581
0.017539 0.237906 0.584203
0.474384 0.208705 0.396915
0.855598 0.277484 0.372569
0.999413 0.561668 0.421045
0.000000 0.539605 0.571712
0.000000 0.540218 0.572332
0.567437 0.616815 0.625696
0.960447 0.565050 0.497498
0.994624 0.552550 0.409827
0.000000 0.937612 0.757595
0.000000 0.937656 0.757932
0.000000 0.937999 0.760537
0.983888 0.929470 0.557156
0.996465 0.771629 0.444812
0.000000 1.000000 0.878119
0.000000 1.000000 0.878218
0.000000 1.000000 0.878984
0.000000 1.000000 0.886079
0.996918 0.999940 0.869750
0.046546 0.523227 0.918763
0.064370 0.517780 0.922023
0.392438 0.471281 0.917609
0.837125 0.477397 0.703546
0.999269 0.642963 0.432283
0.049755 0.572342 0.917594
0.053607 0.571109 0.920861
0.394655 0.536533 0.925130
0.849215 0.516371 0.717445
0.999315 0.649189 0.432258
0.000000 0.700598 0.914358
0.062306 0.703004 0.916010
0.368921 0.714866 0.937369
0.928340 0.662499 0.859671
0.999490 0.686452 0.434349
0.000000 0.885620 0.937046
0.000000 0.885643 0.937081
0.000000 0.885829 0.937355
0.947662 0.939818 0.932174
0.998617 0.884015 0.853876
0.000000 1.000000 0.991529
0.000000 1.000000 0.991534
0.000000 1.000000 0.991570
0.000000 1.000000 0.991915
0.997647 0.999903 0.947341
0.317135 0.886901 0.997606
0.333015 0.885848 0.997595
0.463316 0.881009 0.998656
0.922711 0.867362 0.999775
1.000000 0.850266 0.999792
0.314636 0.889551 0.997596
0.331285 0.888565 0.997598
0.461877 0.883731 0.998614
0.923073 0.870299 0.999741
1.000000 0.851345 0.999792
0.292521 0.906438 0.997428
0.313035 0.905518 0.997451
0.450011 0.900754 0.998262
0.923840 0.888700 0.999374
1.000000 0.859168 0.999794
0.000000 0.953401 0.998923
0.000000 0.953405 0.998923
0.224382 0.955398 0.996864
0.909774 0.963705 0.997961
0.998016 0.939423 0.999607
0.000000 0.981373 1.000000
0.000000 0.981373 1.000000
0.000000 0.981375 1.000000
0.000000 0.981394 1.000000
1.000000 1.000000 1.000000
