lut/Sony/NewLook/SL3SG3CtoCool_709.cube
# Copyright 2023 SONY
# Cool 709 LUT
# S-Log3/S-Gamut3.Cine to Rec.709
# 
LUT_3D_SIZE 5
0.000000 0.000000 0.000000
0.150103 0.000000 0.000000
0.660578 0.000000 0.000000
0.999756 0.000000 0.000000
1.000000 0.000000 0.000000
0.000000 0.191882 0.000000
0.147265 0.180072 0.000000
0.671489 0.007065 0.000000
0.999741 0.000000 0.000000
1.000000 0.000000 0.000000
0.000000 0.727245 0.006790
0.062852 0.687739 0.000000
0.640253 0.650965 0.000000
0.999741 0.577020 0.000000
1.000000 0.560388 0.000000
0.000000 0.999802 0.016220
0.000000 0.999786 0.006317
0.611627 0.999802 0.000000
0.999451 0.999802 0.000000
1.000000 0.999603 0.000000
0.000000 1.000000 0.019318
0.000000 1.000000 0.009415
0.605341 1.000000 0.000000
0.999359 1.000000 0.000000
1.000000 1.000000 0.000000
0.000000 0.000000 0.197650
0.129793 0.000000 0.181186
0.655741 0.000000 0.059190
0.999771 0.000000 0.000000
1.000000 0.000000 0.000000
0.000000 0.173709 0.200793
0.127352 0.157397 0.191012
0.661875 0.001190 0.066346
0.999725 0.000000 0.000000
1.000000 0.000000 0.000000
0.000000 0.708919 0.222827
0.032837 0.674281 0.192615
0.632074 0.641245 0.076616
0.999725 0.566369 0.000000
1.000000 0.549157 0.000000
0.000000 0.999802 0.223377
0.000000 0.999786 0.209064
0.603342 0.999802 0.103761
0.998688 0.999802 0.000000
1.000000 0.999023 0.000000
0.000000 1.000000 0.226978
0.000000 1.000000 0.212619
0.596857 1.000000 0.109087
0.998215 1.000000 0.000000
1.000000 1.000000 0.000000
0.000000 0.000000 0.627741
0.004730 0.000000 0.615747
0.635828 0.000000 0.602640
0.999786 0.000000 0.573144
1.000000 0.000000 0.574914
0.000000 0.011521 0.634958
0.000855 0.005737 0.630060
0.632212 0.000000 0.601938
0.999191 0.000000 0.527108
1.000000 0.000000 0.488685
0.000000 0.666560 0.642802
0.000000 0.641443 0.619516
0.605615 0.605325 0.597009
0.999542 0.525200 0.543236
1.000000 0.506905 0.531487
0.000000 0.999802 0.636591
0.000000 0.999786 0.625330
0.575402 0.999802 0.602945
0.987366 0.997711 0.548775
1.000000 0.988418 0.536843
0.000000 1.000000 0.638254
0.000000 1.000000 0.626383
0.568658 1.000000 0.604150
0.983581 1.000000 0.550118
1.000000 1.000000 0.537957
0.000000 0.000000 0.996353
0.000000 0.000000 0.991989
0.590936 0.000000 0.980041
0.993561 0.000000 0.955154
1.000000 0.000000 0.951400
0.000000 0.000000 0.998169
0.000000 0.000000 0.995941
0.572076 0.000000 0.977401
0.976974 0.000000 0.939422
1.000000 0.000000 0.927901
0.000000 0.588327 0.999603
0.000000 0.567773 0.993515
0.548379 0.527855 0.978500
0.972763 0.432700 0.948363
1.000000 0.410605 0.942016
0.000000 0.999802 1.000000
0.000000 0.999786 0.996902
0.514488 0.999313 0.981750
0.954528 0.954452 0.951507
1.000000 0.944472 0.944839
0.000000 1.000000 1.000000
0.000000 1.000000 0.997604
0.506706 1.000000 0.982391
0.950607 1.000000 0.952239
1.000000 1.000000 0.945602
0.000000 0.000000 1.000000
0.000000 0.000000 1.000000
0.588556 0.000000 1.000000
0.988647 0.000000 1.000000
1.000000 0.000000 1.000000
0.000000 0.000000 1.000000
0.000000 0.000000 1.000000
0.551629 0.000000 1.000000
0.966430 0.000000 1.000000
1.000000 0.000000 0.998245
0.000000 0.566918 1.000000
0.000000 0.550042 1.000000
0.535302 0.509544 1.000000
0.965637 0.410101 1.000000
1.000000 0.385641 0.999969
0.000000 0.999710 1.000000
0.000000 0.998840 1.000000
0.499657 0.989960 1.000000
0.947173 0.944671 1.000000
1.000000 0.934585 1.000000
0.000000 1.000000 1.000000
0.000000 1.000000 1.000000
0.491707 1.000000 1.000000
0.943236 1.000000 1.000000
1.000000 1.000000 1.000000
