lut/Sony/NewLook/SL3SG3toVintage_709.cube
# Copyright 2023 SONY
# Vintage 709 LUT
# S-Log3/S-Gamut3 to Rec.709
# 
LUT_3D_SIZE 9
0.000000 0.000000 0.000000
0.061474 0.000668 0.000696
0.126485 0.001383 0.001430
0.209376 0.002286 0.002286
0.293924 0.003211 0.003211
0.418260 0.004566 0.004566
0.707636 0.018836 0.125468
0.951527 0.507234 0.519789
0.993918 0.849325 0.837919
0.002024 0.056870 0.002024
0.046079 0.048806 0.002206
0.118387 0.062612 0.003451
0.193045 0.028343 0.003036
0.293481 0.003211 0.003211
0.481102 0.005257 0.005260
0.736050 0.086076 0.157203
0.956674 0.527175 0.529135
0.994005 0.851686 0.838565
0.005053 0.142166 0.005053
0.005122 0.123411 0.004394
0.124738 0.125376 0.005725
0.238252 0.091670 0.005741
0.375811 0.015193 0.004545
0.553175 0.006047 0.006047
0.772204 0.190130 0.201942
0.964264 0.556704 0.542960
0.994139 0.855340 0.839569
0.008841 0.248821 0.008841
0.008847 0.248994 0.008847
0.009214 0.259257 0.009214
0.312968 0.288900 0.013452
0.519326 0.270997 0.015014
0.692406 0.280473 0.131972
0.852263 0.368566 0.298831
0.980887 0.634200 0.576481
0.994536 0.866139 0.842552
0.016768 0.471836 0.016768
0.016772 0.471970 0.016772
0.016787 0.472396 0.016787
0.019490 0.548579 0.019490
0.643643 0.582347 0.093505
0.835191 0.564069 0.267848
0.951901 0.630541 0.435448
0.989095 0.762860 0.613206
0.995526 0.893063 0.850383
0.024665 0.694217 0.024663
0.024673 0.694423 0.024670
0.024685 0.694747 0.024682
0.024727 0.695862 0.024728
0.365578 0.824331 0.087526
0.886684 0.833391 0.338958
0.975085 0.842804 0.498744
0.993641 0.887657 0.645121
0.997125 0.936439 0.865095
0.030270 0.842385 0.104560
0.030287 0.842493 0.107457
0.030313 0.842663 0.112010
0.030396 0.843184 0.125958
0.030636 0.844719 0.166728
0.794990 0.952845 0.444311
0.966115 0.943721 0.544882
0.996379 0.962087 0.674933
0.998614 0.977494 0.872718
0.035325 0.933755 0.505457
0.035329 0.933799 0.506092
0.035336 0.933868 0.507093
0.035358 0.934084 0.510199
0.035424 0.934736 0.519611
0.035617 0.936649 0.547177
0.935430 0.991245 0.660705
0.993545 0.989954 0.751335
0.999270 0.994379 0.887060
0.036751 0.935816 0.803639
0.036752 0.935815 0.803712
0.036752 0.935814 0.803826
0.036754 0.935808 0.804182
0.036758 0.935792 0.805274
0.036772 0.935743 0.808584
0.036813 0.935597 0.818284
0.986767 0.999216 0.883110
0.999594 0.999279 0.921718
0.000174 0.000174 0.037123
0.062728 0.000928 0.053337
0.122624 0.001649 0.066992
0.204184 0.002475 0.053806
0.291087 0.003213 0.009595
0.422197 0.004614 0.004614
0.706671 0.018130 0.144383
0.951525 0.509262 0.527935
0.993935 0.849410 0.840974
0.002213 0.054767 0.059581
0.043305 0.045777 0.048325
0.108426 0.056674 0.064021
0.183489 0.019771 0.047858
0.290227 0.003170 0.003170
0.482598 0.005270 0.005277
0.736450 0.088441 0.174733
0.956645 0.529083 0.537296
0.994022 0.851769 0.841619
0.005239 0.136817 0.087806
0.004391 0.115346 0.067674
0.117391 0.119078 0.073987
0.234077 0.090061 0.070504
0.380416 0.015119 0.014629
0.558422 0.006112 0.007623
0.773135 0.189279 0.217564
0.964220 0.558516 0.551182
0.994156 0.855421 0.842620
0.008874 0.249270 0.012152
0.008902 0.250108 0.011987
0.009567 0.265919 0.034847
0.317814 0.298121 0.106876
0.534009 0.280642 0.144881
0.698067 0.283849 0.178597
0.853476 0.367406 0.313762
0.981022 0.634951 0.585123
0.994553 0.866212 0.845595
0.017223 0.484578 0.017221
0.017247 0.485271 0.017247
0.017282 0.486257 0.017282
0.020342 0.562887 0.094510
0.659623 0.598537 0.230340
0.841263 0.570293 0.318088
0.953574 0.634585 0.451518
0.989155 0.763327 0.622557
0.995539 0.893048 0.853397
0.024846 0.699209 0.024845
0.024852 0.699390 0.024851
0.024863 0.699674 0.024861
0.024892 0.700498 0.024888
0.378805 0.832302 0.220974
0.890279 0.839783 0.399094
0.975882 0.846618 0.515429
0.993708 0.888316 0.655006
0.997138 0.936414 0.867930
0.030837 0.845728 0.202993
0.030849 0.845820 0.204961
0.030868 0.845966 0.208058
0.030926 0.846488 0.216696
0.031085 0.848608 0.235395
0.792114 0.955009 0.469837
0.966640 0.945888 0.561259
0.996443 0.962839 0.682992
0.998624 0.977529 0.874650
0.035489 0.935351 0.529098
0.035493 0.935392 0.529692
0.035500 0.935457 0.530630
0.035520 0.935659 0.533540
0.035582 0.936272 0.542369
0.035761 0.938029 0.568139
0.935828 0.991786 0.670355
0.993594 0.990206 0.758295
0.999279 0.994416 0.888783
0.036763 0.935780 0.806391
0.036763 0.935779 0.806462
0.036764 0.935777 0.806574
0.036765 0.935772 0.806923
0.036770 0.935756 0.807992
0.036783 0.935708 0.811233
0.036812 0.935282 0.820500
0.986763 0.999230 0.884885
0.999599 0.999296 0.922448
0.000420 0.000420 0.089318
0.072615 0.001249 0.098712
0.119300 0.001770 0.100880
0.199988 0.002563 0.082922
0.288904 0.003392 0.053978
0.423783 0.004837 0.048763
0.704861 0.015955 0.164105
0.951113 0.514213 0.544063
0.993961 0.849554 0.845583
0.002794 0.063740 0.117693
0.053434 0.055401 0.103064
0.105025 0.060616 0.105599
0.180547 0.014596 0.078455
0.291587 0.003403 0.049354
0.478184 0.005441 0.051994
0.735398 0.087785 0.194776
0.956480 0.531980 0.553436
0.994048 0.851911 0.846206
0.005392 0.133928 0.144404
0.004578 0.113807 0.122152
0.115801 0.120668 0.126009
0.239315 0.092723 0.112608
0.385183 0.017124 0.075172
0.559414 0.006397 0.067062
0.773772 0.190055 0.237931
0.964187 0.560129 0.567284
0.994182 0.855561 0.847172
0.009640 0.258255 0.110077
0.009667 0.258873 0.111093
0.010376 0.276908 0.127164
0.331008 0.312134 0.176177
0.545500 0.286630 0.205666
0.700530 0.281177 0.224369
0.855458 0.366346 0.334089
0.980986 0.635402 0.601123
0.994578 0.866349 0.850037
0.018256 0.500675 0.120114
0.018284 0.501105 0.122910
0.018327 0.501782 0.127282
0.021288 0.574815 0.210537
0.669057 0.609791 0.311266
0.846505 0.573055 0.371301
0.955922 0.638439 0.473429
0.989246 0.763827 0.638364
0.995559 0.893070 0.857462
0.025499 0.707235 0.106221
0.025519 0.707411 0.109086
0.025549 0.707689 0.113583
0.025642 0.708498 0.127729
0.380122 0.840225 0.341162
0.895897 0.849339 0.462515
0.976979 0.852151 0.539265
0.993812 0.889371 0.669637
0.997151 0.936446 0.870873
0.031421 0.852675 0.277798
0.031430 0.852794 0.278704
0.031443 0.852983 0.280131
0.031484 0.853564 0.284531
0.031608 0.855407 0.297213
0.790546 0.958825 0.504573
0.967382 0.948951 0.584403
0.996541 0.963828 0.696839
0.998639 0.977584 0.877641
0.035726 0.937644 0.563472
0.035730 0.937681 0.564006
0.035736 0.937738 0.564851
0.035754 0.937915 0.567472
0.035806 0.938388 0.575218
0.035898 0.938543 0.593940
0.936333 0.992594 0.684854
0.993668 0.990590 0.768890
0.999293 0.994474 0.891459
0.036781 0.935724 0.810629
0.036781 0.935723 0.810698
0.036782 0.935721 0.810806
0.036783 0.935716 0.811144
0.036787 0.935701 0.812178
0.036801 0.935654 0.815316
0.036809 0.934724 0.823861
0.986758 0.999253 0.887638
0.999605 0.999321 0.923587
0.000782 0.002574 0.151777
0.056948 0.001334 0.153747
0.098741 0.001806 0.156159
0.180056 0.002582 0.134415
0.277383 0.003533 0.109758
0.422257 0.005162 0.122306
0.696406 0.021305 0.202154
0.950422 0.527717 0.587164
0.994035 0.850473 0.854938
0.002409 0.044471 0.182562
0.042779 0.033400 0.161752
0.086471 0.033248 0.163738
0.166700 0.005243 0.136817
0.287520 0.003671 0.116373
0.460980 0.005617 0.129282
0.727834 0.073430 0.236567
0.955839 0.545242 0.596362
0.994120 0.852781 0.855652
0.004363 0.095715 0.215918
0.006018 0.078710 0.190532
0.093549 0.088292 0.204179
0.229269 0.100488 0.195193
0.369407 0.004677 0.141536
0.551937 0.010133 0.152267
0.769405 0.167322 0.282861
0.963708 0.571254 0.610045
0.994252 0.856355 0.856759
0.009821 0.243774 0.262070
0.009844 0.244356 0.262689
0.010579 0.263296 0.278287
0.343664 0.344396 0.344427
0.552376 0.286930 0.294595
0.703723 0.275609 0.297174
0.858919 0.366669 0.391052
0.980715 0.639501 0.644080
0.994645 0.867030 0.859775
0.019885 0.521940 0.312851
0.019900 0.522261 0.313589
0.019923 0.522768 0.314751
0.022508 0.588185 0.373565
0.677048 0.632920 0.424977
0.855816 0.588806 0.456599
0.958956 0.646013 0.534083
0.989453 0.764264 0.681206
0.995613 0.893422 0.866924
0.027237 0.728721 0.320461
0.027245 0.728862 0.320991
0.027256 0.729084 0.321828
0.027292 0.729773 0.324412
0.380360 0.855467 0.473809
0.902349 0.869493 0.549694
0.979724 0.863843 0.600204
0.994096 0.892005 0.710871
0.997193 0.936548 0.879553
0.032631 0.869317 0.414496
0.032637 0.869384 0.415185
0.032645 0.869490 0.416273
0.032672 0.869818 0.419644
0.032753 0.870834 0.429670
0.781799 0.964648 0.584077
0.969209 0.956445 0.630983
0.996817 0.966021 0.740595
0.998682 0.977748 0.886486
0.036103 0.938734 0.636878
0.036105 0.938746 0.637219
0.036108 0.938766 0.637757
0.036117 0.938828 0.639429
0.036147 0.939018 0.644524
0.036223 0.939366 0.658302
0.935507 0.994018 0.734691
0.993879 0.991684 0.799052
0.999329 0.994604 0.898559
0.036809 0.934916 0.822459
0.036809 0.934907 0.822514
0.036809 0.934893 0.822602
0.036809 0.934849 0.822874
0.036808 0.934713 0.823710
0.036805 0.934283 0.826116
0.036770 0.932702 0.830684
0.986734 0.999320 0.895852
0.999626 0.999399 0.927029
0.002913 0.014043 0.238033
0.039160 0.009636 0.231233
0.073620 0.001873 0.229780
0.149806 0.002641 0.216242
0.274157 0.003915 0.199867
0.422285 0.005589 0.214014
0.651720 0.019913 0.276316
0.943318 0.546630 0.666840
0.994233 0.853128 0.878644
0.002221 0.029289 0.259918
0.031063 0.024201 0.240623
0.070048 0.020077 0.240970
0.155268 0.002758 0.228290
0.292989 0.004210 0.218760
0.441418 0.005833 0.220497
0.690439 0.035188 0.304987
0.949429 0.564455 0.676111
0.994316 0.855379 0.879315
0.003831 0.070887 0.291135
0.006068 0.055696 0.265060
0.077079 0.068674 0.287674
0.190710 0.059754 0.285345
0.334552 0.007778 0.239768
0.514366 0.007420 0.245043
0.752472 0.155222 0.372627
0.958750 0.591508 0.690281
0.994446 0.858912 0.880384
0.009378 0.215432 0.386711
0.009260 0.212588 0.382820
0.010486 0.229962 0.403428
0.277562 0.277995 0.463173
0.538768 0.322467 0.450300
0.688673 0.273675 0.406453
0.854650 0.387331 0.504090
0.977091 0.657806 0.723019
0.994832 0.869363 0.883553
0.019873 0.493323 0.531544
0.019885 0.493622 0.531854
0.019904 0.494093 0.532344
0.022679 0.550317 0.580021
0.687907 0.674891 0.664195
0.863470 0.609223 0.607762
0.961724 0.659259 0.662538
0.989961 0.767584 0.768091
0.995771 0.894814 0.891259
0.029333 0.753839 0.585744
0.029335 0.753859 0.585962
0.029338 0.753891 0.586308
0.029346 0.753992 0.587382
0.398958 0.868738 0.695112
0.907514 0.890399 0.707287
0.981892 0.875943 0.720520
0.994652 0.896451 0.797777
0.997311 0.937082 0.901729
0.034224 0.883254 0.654970
0.034225 0.883245 0.655171
0.034226 0.883230 0.655487
0.034229 0.883184 0.656472
0.034238 0.883047 0.659480
0.760202 0.969482 0.740974
0.972469 0.965268 0.757551
0.997318 0.969724 0.822426
0.998783 0.978051 0.907562
0.036346 0.932587 0.738885
0.036345 0.932569 0.738985
0.036345 0.932540 0.739144
0.036344 0.932449 0.739638
0.036341 0.932172 0.741151
0.036336 0.931415 0.745881
0.932212 0.996010 0.831934
0.994240 0.993555 0.860203
0.999409 0.994821 0.914573
0.036693 0.929155 0.841153
0.036693 0.929155 0.841188
0.036693 0.929154 0.841245
0.036694 0.929152 0.841422
0.036696 0.929147 0.841964
0.036702 0.929130 0.843618
0.036724 0.929181 0.848320
0.986561 0.999422 0.913496
0.999684 0.999617 0.936713
0.016053 0.022663 0.347629
0.033490 0.024407 0.355751
0.071774 0.021793 0.361089
0.156044 0.003356 0.354371
0.284804 0.004720 0.347147
0.423853 0.006227 0.346304
0.600545 0.035589 0.388115
0.934346 0.563586 0.763989
0.994658 0.860136 0.916068
0.006168 0.029447 0.353804
0.027168 0.034579 0.368457
0.067098 0.035693 0.376177
0.154108 0.007310 0.361626
0.283157 0.004707 0.348092
0.425974 0.006261 0.348155
0.641815 0.062703 0.419158
0.941508 0.584392 0.775167
0.994737 0.862299 0.916682
0.003649 0.054179 0.381395
0.009428 0.061302 0.394928
0.058438 0.067117 0.407145
0.162322 0.046426 0.393955
0.294400 0.007002 0.357725
0.445994 0.007492 0.359648
0.703959 0.149429 0.482405
0.951726 0.614375 0.791325
0.994859 0.865650 0.917634
0.009546 0.204236 0.510344
0.008961 0.189153 0.492060
0.010377 0.224135 0.539025
0.259260 0.248073 0.576252
0.456051 0.262345 0.562967
0.630634 0.271737 0.540096
0.835290 0.410627 0.647640
0.970636 0.679835 0.818821
0.995220 0.875580 0.920457
0.018881 0.448164 0.666818
0.018893 0.448474 0.666976
0.018911 0.448964 0.667225
0.108836 0.490969 0.708129
0.589898 0.590161 0.781681
0.845148 0.665633 0.789087
0.952404 0.705679 0.812693
0.991223 0.790910 0.863717
0.996082 0.899026 0.927470
0.028536 0.709711 0.754549
0.028538 0.709766 0.754602
0.028542 0.709854 0.754685
0.028552 0.710128 0.754946
0.415354 0.844123 0.858953
0.906355 0.900160 0.894881
0.981100 0.881193 0.878092
0.995159 0.898265 0.896551
0.997548 0.939090 0.938545
0.034081 0.860425 0.802554
0.034081 0.860432 0.802586
0.034082 0.860443 0.802637
0.034083 0.860477 0.802796
0.034089 0.860583 0.803282
0.729652 0.969383 0.898271
0.973283 0.970788 0.901535
0.997814 0.971880 0.913887
0.998960 0.978447 0.942550
0.036382 0.921818 0.830955
0.036382 0.921817 0.830981
0.036382 0.921816 0.831021
0.036383 0.921811 0.831147
0.036384 0.921796 0.831535
0.036388 0.921751 0.832721
0.925258 0.996934 0.919753
0.994633 0.994766 0.923535
0.999555 0.995063 0.944782
0.036777 0.926880 0.878861
0.036777 0.926877 0.878874
0.036777 0.926873 0.878895
0.036777 0.926860 0.878962
0.036776 0.926819 0.879166
0.036775 0.926696 0.879791
0.036776 0.926445 0.881825
0.985607 0.999561 0.945587
0.999781 0.999778 0.957656
0.043724 0.123585 0.567688
0.083716 0.128186 0.574498
0.130391 0.130699 0.579900
0.236940 0.126011 0.581390
0.361629 0.094385 0.541045
0.504865 0.064553 0.514914
0.729708 0.224596 0.639174
0.944475 0.614138 0.866424
0.995177 0.869237 0.959650
0.036023 0.148689 0.591682
0.080175 0.154467 0.599503
0.135198 0.157599 0.605776
0.251155 0.155008 0.609897
0.381339 0.131887 0.569042
0.536324 0.121126 0.554458
0.755654 0.275367 0.671670
0.949105 0.629916 0.872428
0.995257 0.871455 0.960129
0.015642 0.187132 0.618992
0.069386 0.195697 0.630445
0.137033 0.198639 0.636462
0.272863 0.203431 0.648463
0.419172 0.193479 0.621772
0.581459 0.202763 0.611526
0.793838 0.346674 0.717803
0.956384 0.654047 0.881654
0.995378 0.874768 0.960932
0.012739 0.273376 0.671212
0.014274 0.291376 0.691809
0.105758 0.298009 0.700765
0.295759 0.313016 0.723465
0.507936 0.342827 0.737809
0.701967 0.391449 0.743024
0.868511 0.504463 0.805712
0.971513 0.710318 0.901800
0.995738 0.884624 0.963322
0.019824 0.461586 0.769702
0.019833 0.461836 0.769824
0.020117 0.467906 0.778437
0.209772 0.515973 0.819876
0.586083 0.601839 0.878655
0.840366 0.684844 0.890663
0.945560 0.726754 0.901614
0.989370 0.808679 0.933388
0.996494 0.905547 0.967782
0.028241 0.689623 0.846405
0.028243 0.689688 0.846432
0.028247 0.689792 0.846476
0.028259 0.690113 0.846612
0.429548 0.818672 0.925988
0.873769 0.874943 0.952653
0.974703 0.889174 0.952072
0.995789 0.907691 0.960533
0.997867 0.943207 0.975385
0.033985 0.847078 0.884763
0.033986 0.847091 0.884773
0.033987 0.847111 0.884789
0.033989 0.847173 0.884838
0.033996 0.847365 0.884989
0.711617 0.961198 0.961602
0.971038 0.969696 0.968704
0.998072 0.971657 0.971452
0.999105 0.978129 0.977590
0.036545 0.917193 0.902409
0.036545 0.917195 0.902416
0.036545 0.917199 0.902427
0.036546 0.917209 0.902460
0.036547 0.917239 0.902562
0.036552 0.917334 0.902876
0.916521 0.996246 0.972824
0.994248 0.994776 0.973000
0.999710 0.995201 0.977413
0.037099 0.929386 0.929585
0.037099 0.929387 0.929590
0.037099 0.929388 0.929598
0.037099 0.929392 0.929623
0.037100 0.929403 0.929701
0.037102 0.929437 0.929941
0.037109 0.929541 0.930673
0.983408 0.999688 0.977794
0.999895 0.999893 0.980560
0.248430 0.422090 0.845437
0.287534 0.428150 0.851535
0.343580 0.438093 0.860693
0.446250 0.458043 0.877969
0.635138 0.507995 0.891671
0.808225 0.575887 0.901576
0.921316 0.637336 0.919344
0.981028 0.752976 0.953980
0.995964 0.888109 0.986420
0.241096 0.434973 0.850543
0.284493 0.442080 0.857001
0.340826 0.451845 0.866189
0.448646 0.473933 0.884257
0.640431 0.524420 0.898735
0.815834 0.594343 0.908962
0.924139 0.648127 0.922552
0.982114 0.759151 0.955523
0.996016 0.889540 0.986635
0.229139 0.454345 0.858154
0.276558 0.462330 0.865000
0.336092 0.472563 0.874415
0.451962 0.497911 0.893692
0.648312 0.549195 0.909386
0.825315 0.618355 0.918483
0.928443 0.664592 0.927447
0.983788 0.768664 0.957901
0.996097 0.891772 0.986971
0.168712 0.504917 0.873882
0.232217 0.513989 0.880398
0.303268 0.526442 0.890309
0.442283 0.557712 0.910843
0.658058 0.606203 0.929029
0.839932 0.667721 0.934279
0.940793 0.711252 0.941528
0.988852 0.796459 0.964858
0.996342 0.898480 0.987981
0.025687 0.610217 0.901731
0.026664 0.616817 0.904956
0.090412 0.628064 0.912004
0.355618 0.668281 0.933645
0.646266 0.728010 0.958931
0.864605 0.768765 0.962693
0.960147 0.801879 0.964964
0.992949 0.847802 0.975917
0.996935 0.914907 0.990216
0.029314 0.711720 0.911413
0.029316 0.711783 0.911429
0.029320 0.711883 0.911453
0.031296 0.764339 0.937363
0.496829 0.839756 0.970368
0.865312 0.879718 0.984017
0.972056 0.896285 0.984271
0.996215 0.915952 0.988019
0.998029 0.945687 0.993458
0.034137 0.845059 0.934296
0.034137 0.845069 0.934298
0.034138 0.845084 0.934301
0.034139 0.845133 0.934311
0.034145 0.845284 0.934342
0.731928 0.958006 0.988371
0.966239 0.965795 0.992270
0.998105 0.971260 0.993277
0.999141 0.976847 0.994491
0.036735 0.916828 0.945736
0.036735 0.916830 0.945738
0.036735 0.916834 0.945741
0.036736 0.916844 0.945749
0.036737 0.916876 0.945774
0.036741 0.916976 0.945852
0.909557 0.994274 0.993269
0.993393 0.993439 0.993423
0.999758 0.994196 0.994011
0.037369 0.933433 0.957674
0.037369 0.933433 0.957674
0.037369 0.933433 0.957674
0.037369 0.933433 0.957674
0.037369 0.933433 0.957674
0.037369 0.933433 0.957674
0.037369 0.933435 0.957676
0.980833 0.999743 0.994299
0.999957 0.999954 0.994500
0.553171 0.822988 0.982785
0.572029 0.826262 0.983943
0.599950 0.830729 0.985672
0.666197 0.837471 0.988072
0.786831 0.844348 0.990672
0.903047 0.859195 0.991419
0.975380 0.875367 0.991485
0.995789 0.902316 0.994556
0.997838 0.939594 0.997851
0.549388 0.824156 0.982766
0.568497 0.827628 0.983933
0.596613 0.832139 0.985674
0.663686 0.839157 0.988189
0.785678 0.846356 0.990858
0.902999 0.860882 0.991652
0.975536 0.876867 0.991716
0.995826 0.903327 0.994675
0.997856 0.940088 0.997868
0.543375 0.825958 0.982729
0.562694 0.829467 0.983909
0.591310 0.834323 0.985670
0.659709 0.841781 0.988372
0.783851 0.849488 0.991148
0.902919 0.863515 0.992014
0.975783 0.879232 0.992085
0.995882 0.904908 0.994861
0.997884 0.940863 0.997896
0.524416 0.831224 0.982566
0.544418 0.834853 0.983787
0.574271 0.840274 0.985610
0.647277 0.849646 0.988909
0.778153 0.858916 0.992018
0.902640 0.871436 0.993121
0.976363 0.885929 0.993064
0.996054 0.909694 0.995422
0.997969 0.943227 0.997981
0.461577 0.840792 0.980542
0.485097 0.845451 0.982151
0.519406 0.851895 0.984199
0.608509 0.867668 0.989488
0.757755 0.879461 0.992889
0.900434 0.889716 0.994793
0.976716 0.902168 0.995105
0.996545 0.923399 0.997044
0.998214 0.950057 0.998226
0.102665 0.844221 0.967913
0.169868 0.849265 0.970188
0.264024 0.857222 0.973619
0.435764 0.880605 0.982760
0.680497 0.916341 0.993679
0.886789 0.927790 0.996260
0.976736 0.936077 0.997495
0.997463 0.949561 0.998189
0.998692 0.963668 0.998702
0.034847 0.862777 0.952872
0.034848 0.862785 0.952872
0.034848 0.862798 0.952873
0.034849 0.862838 0.952874
0.036294 0.901394 0.969722
0.797380 0.969387 0.996773
0.966364 0.971962 0.998654
0.997478 0.975752 0.999118
0.999304 0.980834 0.999316
0.037034 0.923953 0.957948
0.037034 0.923954 0.957948
0.037034 0.923955 0.957948
0.037034 0.923960 0.957948
0.037034 0.923974 0.957946
0.037036 0.924016 0.957941
0.920516 0.994031 0.998945
0.992157 0.993031 0.999662
0.999774 0.993992 0.999786
0.037385 0.933467 0.959314
0.037385 0.933467 0.959314
0.037385 0.933467 0.959314
0.037385 0.933467 0.959314
0.037385 0.933467 0.959314
0.037385 0.933467 0.959314
0.037385 0.933467 0.959314
0.980457 0.999769 0.999784
0.999985 0.999985 1.000000
