lut/Sony/NewLook/SL3SG3CtoTealOR_709.cube
# Copyright 2023 SONY
# Teal and Orange 709 LUT
# S-Log3/S-Gamut3.Cine to Rec.709
# 
LUT_3D_SIZE 5
0.000000 0.000000 0.000000
0.125200 0.000000 0.000000
0.675059 0.000000 0.000000
0.966155 0.000000 0.000000
1.000000 0.000000 0.000000
0.000000 0.134112 0.000000
0.132052 0.125704 0.000000
0.674647 0.056672 0.000000
0.964675 0.076951 0.000000
1.000000 0.261143 0.000000
0.000000 0.555825 0.000000
0.118624 0.583001 0.000000
0.753979 0.568826 0.000000
0.995148 0.464759 0.000000
1.000000 0.504097 0.000000
0.000000 0.936706 0.000000
0.228443 0.937591 0.000000
0.669841 0.951354 0.000000
0.994324 0.921111 0.000000
0.994385 0.575479 0.000000
0.000000 1.000000 0.000000
0.394720 1.000000 0.000000
0.745800 1.000000 0.000000
0.969665 0.999344 0.000000
0.998535 1.000000 0.000000
0.000000 0.000000 0.141619
0.077699 0.000000 0.109545
0.631907 0.000000 0.024628
0.966567 0.000000 0.050401
1.000000 0.000000 0.076585
0.000000 0.128054 0.129335
0.093492 0.127840 0.130266
0.644053 0.088212 0.023835
0.965408 0.080705 0.048432
1.000000 0.260700 0.069657
0.000000 0.595666 0.239948
0.075334 0.581811 0.188968
0.709773 0.575097 0.056397
0.994644 0.463584 0.058823
1.000000 0.500877 0.064668
0.000000 0.937758 0.395102
0.218082 0.938003 0.367834
0.659861 0.949340 0.298436
0.993790 0.921889 0.108980
0.995392 0.585870 0.054108
0.000000 1.000000 0.544793
0.393057 1.000000 0.535546
0.742565 1.000000 0.476677
0.967544 0.998169 0.448432
0.997482 1.000000 0.392691
0.000000 0.000000 0.582238
0.010193 0.000000 0.523598
0.379980 0.000000 0.394720
0.817090 0.000000 0.349798
1.000000 0.000000 0.315267
0.000000 0.209552 0.569543
0.008759 0.219471 0.592447
0.383093 0.208804 0.395178
0.832166 0.210208 0.345998
1.000000 0.260060 0.307362
0.000000 0.544945 0.577111
0.017548 0.569406 0.591394
0.567437 0.616815 0.625696
0.945907 0.521172 0.444068
1.000000 0.479149 0.304524
0.000000 0.940841 0.738430
0.090700 0.939849 0.718959
0.619410 0.949859 0.640299
0.987213 0.932815 0.484337
0.995987 0.624506 0.300237
0.000000 1.000000 0.785855
0.384085 1.000000 0.778164
0.727886 1.000000 0.750988
0.958465 0.997909 0.716274
0.996872 1.000000 0.689097
0.000000 0.000000 0.927260
0.056947 0.000000 0.928222
0.318242 0.000000 0.891768
0.782650 0.000000 0.663478
1.000000 0.000000 0.471977
0.000000 0.411505 0.921294
0.048798 0.413291 0.925353
0.304524 0.400549 0.903136
0.768277 0.391852 0.689845
1.000000 0.168948 0.400702
0.000000 0.674846 0.919570
0.046128 0.676966 0.922011
0.327840 0.674708 0.938338
0.877760 0.575540 0.810162
1.000000 0.351034 0.396506
0.000000 0.887572 0.939925
0.056718 0.890227 0.939742
0.405570 0.914626 0.946456
0.947662 0.939818 0.932174
1.000000 0.819837 0.652247
0.000000 1.000000 0.988739
0.343847 1.000000 0.984161
0.649882 0.998459 0.970642
0.945769 1.000000 0.923568
0.997253 1.000000 0.930282
0.000000 0.000000 1.000000
0.069001 0.000000 1.000000
0.340551 0.000000 1.000000
0.853239 0.000000 1.000000
1.000000 0.000000 1.000000
0.000000 0.495247 1.000000
0.026886 0.495125 1.000000
0.305013 0.493034 1.000000
0.865095 0.482521 1.000000
1.000000 0.469856 1.000000
0.000000 0.794873 0.999863
0.022828 0.790539 0.998886
0.294835 0.765011 0.998993
0.862150 0.707607 1.000000
1.000000 0.669047 1.000000
0.000000 0.951385 0.999039
0.073167 0.952056 0.997818
0.304753 0.950515 0.996902
0.892882 0.946014 0.998199
1.000000 0.885740 1.000000
0.000000 0.981567 1.000000
0.336309 0.980011 0.999298
0.626581 0.981048 0.997772
0.940505 0.990143 0.995621
1.000000 1.000000 1.000000
