lut/Sony/NewLook/SL3SG3CtoTealOR_709.cube
# Copyright 2023 SONY
# Teal and Orange 709 LUT
# S-Log3/S-Gamut3.Cine to Rec.709
# 
LUT_3D_SIZE 33
0.000000 0.000000 0.000000
0.000000 0.000000 0.000000
0.019760 0.000000 0.000000
0.039811 0.000000 0.000000
0.067384 0.000000 0.000000
0.074693 0.000000 0.000000
0.083986 0.000000 0.000000
0.100664 0.000000 0.000000
0.125200 0.000000 0.000000
0.160433 0.000000 0.000000
0.203677 0.000000 0.000000
0.261769 0.000000 0.000000
0.338430 0.000000 0.000000
0.428504 0.000000 0.000000
0.513039 0.000000 0.000000
0.597436 0.000000 0.000000
0.675059 0.000000 0.000000
0.739528 0.000000 0.000000
0.796643 0.000000 0.000000
0.842695 0.000000 0.000000
0.875761 0.000000 0.000000
0.912123 0.000000 0.000000
0.943343 0.000000 0.000000
0.952270 0.000000 0.000000
0.966155 0.000000 0.000000
0.991821 0.000000 0.000000
0.993988 0.000000 0.000000
1.000000 0.000000 0.000000
1.000000 0.000000 0.000000
1.000000 0.000000 0.000000
1.000000 0.000000 0.000000
1.000000 0.000000 0.000000
1.000000 0.000000 0.000000
0.000000 0.000000 0.000000
0.000000 0.000000 0.000000
0.019104 0.000000 0.000000
0.039033 0.000000 0.000000
0.066239 0.000000 0.000000
0.074632 0.000000 0.000000
0.083772 0.000000 0.000000
0.100282 0.000000 0.000000
0.124407 0.000000 0.000000
0.159396 0.000000 0.000000
0.201358 0.000000 0.000000
0.260060 0.000000 0.000000
0.337301 0.000000 0.000000
0.428901 0.000000 0.000000
0.514656 0.000000 0.000000
0.597894 0.000000 0.000000
0.672801 0.000000 0.000000
0.738720 0.000000 0.000000
0.798596 0.000000 0.000000
0.846922 0.000000 0.000000
0.877241 0.000000 0.000000
0.909880 0.000000 0.000000
0.943313 0.000000 0.000000
0.956985 0.000000 0.000000
0.964858 0.000000 0.000000
0.988128 0.000000 0.000000
0.993927 0.000000 0.000000
1.000000 0.000000 0.000000
1.000000 0.000000 0.000000
1.000000 0.000000 0.000000
1.000000 0.000000 0.000000
1.000000 0.000000 0.000000
1.000000 0.000000 0.000000
0.000000 0.021286 0.000000
0.000000 0.019913 0.000000
0.017868 0.018143 0.000000
0.037888 0.016480 0.000000
0.066560 0.019211 0.000000
0.073518 0.021057 0.000000
0.083345 0.022141 0.000000
0.100099 0.020203 0.000000
0.124758 0.019669 0.000000
0.160876 0.018769 0.000000
0.204715 0.019181 0.000000
0.266056 0.019776 0.000000
0.344167 0.020874 0.000000
0.433280 0.024887 0.000000
0.517571 0.032792 0.000000
0.597620 0.037522 0.000000
0.671321 0.030869 0.000000
0.740429 0.019287 0.000000
0.801678 0.018875 0.000000
0.848737 0.030839 0.000000
0.877836 0.053941 0.000000
0.906844 0.062181 0.000000
0.943633 0.037354 0.000000
0.962219 0.037308 0.000000
0.961501 0.041092 0.000000
0.981323 0.082017 0.000000
0.998871 0.045335 0.000000
1.000000 0.067185 0.000000
1.000000 0.123308 0.000000
1.000000 0.136034 0.000000
1.000000 0.136248 0.000000
1.000000 0.136019 0.000000
1.000000 0.135760 0.000000
0.000000 0.041215 0.000000
0.000000 0.040162 0.000000
0.016113 0.038666 0.000000
0.036469 0.037110 0.000000
0.067384 0.036149 0.000000
0.072801 0.038621 0.000000
0.083696 0.045960 0.000000
0.101228 0.052750 0.000000
0.127489 0.056245 0.000000
0.165347 0.055238 0.000000
0.210208 0.059373 0.000000
0.272343 0.062608 0.000000
0.349325 0.064836 0.000000
0.435920 0.067887 0.000000
0.519203 0.073609 0.000000
0.597955 0.084657 0.000000
0.670771 0.096254 0.000000
0.741115 0.085954 0.000000
0.803647 0.063340 0.000000
0.850156 0.069840 0.000000
0.878401 0.107378 0.000000
0.903944 0.159747 0.000000
0.942290 0.153170 0.000000
0.965576 0.109163 0.000000
0.959915 0.111330 0.000000
0.974929 0.155612 0.000000
1.000000 0.182742 0.000000
1.000000 0.147204 0.000000
1.000000 0.239261 0.000000
1.000000 0.336583 0.000000
1.000000 0.341253 0.000000
1.000000 0.341115 0.000000
1.000000 0.340887 0.000000
0.000000 0.051255 0.000000
0.000000 0.050233 0.000000
0.018799 0.050370 0.000000
0.035935 0.050416 0.000000
0.067231 0.049805 0.000000
0.073228 0.049958 0.000000
0.084214 0.053468 0.000000
0.101869 0.060227 0.000000
0.129152 0.062715 0.000000
0.166323 0.062120 0.000000
0.211078 0.058488 0.000000
0.272892 0.058961 0.000000
0.348852 0.062120 0.000000
0.434669 0.065309 0.000000
0.517815 0.070695 0.000000
0.597803 0.077378 0.000000
0.670268 0.087388 0.000000
0.740932 0.079545 0.000000
0.803143 0.061524 0.000000
0.849973 0.064332 0.000000
0.878294 0.098634 0.000000
0.903655 0.148821 0.000000
0.942168 0.144289 0.000000
0.965652 0.109209 0.000000
0.960891 0.104967 0.000000
0.974166 0.145342 0.000000
1.000000 0.169818 0.000000
1.000000 0.146014 0.000000
1.000000 0.221103 0.000000
1.000000 0.315114 0.000000
1.000000 0.331411 0.000000
1.000000 0.332006 0.000000
1.000000 0.331884 0.000000
0.000000 0.069688 0.000000
0.000000 0.068330 0.000000
0.019409 0.068513 0.000000
0.039307 0.068696 0.000000
0.073091 0.068467 0.000000
0.073915 0.066667 0.000000
0.084764 0.065843 0.000000
0.102678 0.069154 0.000000
0.130541 0.071168 0.000000
0.166888 0.071305 0.000000
0.212161 0.067247 0.000000
0.274403 0.058854 0.000000
0.349950 0.057069 0.000000
0.434607 0.060517 0.000000
0.516991 0.065690 0.000000
0.597650 0.070466 0.000000
0.669978 0.078263 0.000000
0.740703 0.070802 0.000000
0.802686 0.055222 0.000000
0.849928 0.058030 0.000000
0.878355 0.090822 0.000000
0.903716 0.137697 0.000000
0.941863 0.131884 0.000000
0.965805 0.099458 0.000000
0.961929 0.095521 0.000000
0.973678 0.133715 0.000000
1.000000 0.156512 0.000000
1.000000 0.133440 0.000000
1.000000 0.204334 0.000000
1.000000 0.293736 0.000000
1.000000 0.308171 0.000000
1.000000 0.308644 0.000000
1.000000 0.308721 0.000000
0.000000 0.089113 0.000000
0.000000 0.088045 0.000000
0.018067 0.087999 0.000000
0.039704 0.088075 0.000000
0.076875 0.088441 0.000000
0.075898 0.088502 0.000000
0.084917 0.084184 0.000000
0.104204 0.082246 0.000000
0.132265 0.083497 0.000000
0.168475 0.083741 0.000000
0.214481 0.080705 0.000000
0.277089 0.073136 0.000000
0.353765 0.061067 0.000000
0.437644 0.054917 0.000000
0.518349 0.058488 0.000000
0.597726 0.063310 0.000000
0.670497 0.067918 0.000000
0.740841 0.062089 0.000000
0.802411 0.049638 0.000000
0.849668 0.052445 0.000000
0.878813 0.082368 0.000000
0.904265 0.125795 0.000000
0.941909 0.119478 0.000000
0.966033 0.090105 0.000000
0.962951 0.086198 0.000000
0.973495 0.122454 0.000000
1.000000 0.143664 0.000000
1.000000 0.121355 0.000000
1.000000 0.188159 0.000000
1.000000 0.273442 0.000000
1.000000 0.285786 0.000000
1.000000 0.286259 0.000000
1.000000 0.286351 0.000000
0.000000 0.108904 0.000000
0.000000 0.108064 0.000000
0.014649 0.107759 0.000000
0.038834 0.107774 0.000000
0.081804 0.108034 0.000000
0.076905 0.109758 0.000000
0.084794 0.109957 0.000000
0.104082 0.101335 0.000000
0.133120 0.099336 0.000000
0.170581 0.099992 0.000000
0.218540 0.099519 0.000000
0.282078 0.095369 0.000000
0.359548 0.085756 0.000000
0.443351 0.069245 0.000000
0.523262 0.054581 0.000000
0.600107 0.055878 0.000000
0.671122 0.059190 0.000000
0.740917 0.055802 0.000000
0.802121 0.045685 0.000000
0.849439 0.048157 0.000000
0.879026 0.074937 0.000000
0.904997 0.115511 0.000000
0.942061 0.109560 0.000000
0.966445 0.081956 0.000000
0.963836 0.078416 0.000000
0.973724 0.112627 0.000000
1.000000 0.133181 0.000000
1.000000 0.110842 0.000000
1.000000 0.174716 0.000000
1.000000 0.255772 0.000000
1.000000 0.266957 0.000000
1.000000 0.267353 0.000000
1.000000 0.267414 0.000000
0.000000 0.134112 0.000000
0.000000 0.133639 0.000000
0.010269 0.133532 0.000000
0.037934 0.133684 0.000000
0.086931 0.133761 0.000000
0.078660 0.135653 0.000000
0.085008 0.138308 0.000000
0.105119 0.137881 0.000000
0.132052 0.125704 0.000000
0.172824 0.123720 0.000000
0.223743 0.123522 0.000000
0.289250 0.123262 0.000000
0.369482 0.120058 0.000000
0.454902 0.110536 0.000000
0.533242 0.091524 0.000000
0.608057 0.059510 0.000000
0.674647 0.056672 0.000000
0.741619 0.053056 0.000000
0.801587 0.047059 0.000000
0.848951 0.048707 0.000000
0.879530 0.072618 0.000000
0.905715 0.112139 0.000000
0.942184 0.107515 0.000000
0.966949 0.080339 0.000000
0.964675 0.076951 0.000000
0.974136 0.109499 0.000000
1.000000 0.130846 0.000000
1.000000 0.107027 0.000000
1.000000 0.170275 0.000000
1.000000 0.249760 0.000000
1.000000 0.260746 0.000000
1.000000 0.261097 0.000000
1.000000 0.261143 0.000000
0.000000 0.164263 0.000000
0.000000 0.164065 0.000000
0.008377 0.164263 0.000000
0.037690 0.164675 0.000000
0.091768 0.165133 0.000000
0.078370 0.167071 0.000000
0.083818 0.171008 0.000000
0.104097 0.174533 0.000000
0.135729 0.172992 0.000000
0.172793 0.156725 0.000000
0.226947 0.154284 0.000000
0.296315 0.154574 0.000000
0.380865 0.155535 0.000000
0.471000 0.154376 0.000000
0.552712 0.147799 0.000000
0.624826 0.129809 0.000000
0.684657 0.087449 0.000000
0.745205 0.059525 0.000000
0.801389 0.050568 0.000000
0.848371 0.050950 0.000000
0.879973 0.072343 0.000000
0.906935 0.110124 0.000000
0.942748 0.106706 0.000000
0.967391 0.080858 0.000000
0.966110 0.076951 0.000000
0.974792 0.108385 0.000000
1.000000 0.131044 0.000000
1.000000 0.105516 0.000000
1.000000 0.168536 0.000000
1.000000 0.246586 0.000000
1.000000 0.257771 0.000000
1.000000 0.258137 0.000000
1.000000 0.258198 0.000000
0.000000 0.202045 0.000000
0.000000 0.202121 0.000000
0.007721 0.202701 0.000000
0.036820 0.203510 0.000000
0.094453 0.204273 0.000000
0.079911 0.207004 0.000000
0.080186 0.211582 0.000000
0.099733 0.217700 0.000000
0.133364 0.222095 0.000000
0.179950 0.217777 0.000000
0.228077 0.196017 0.000000
0.301228 0.194812 0.000000
0.390448 0.197040 0.000000
0.485191 0.200137 0.000000
0.571786 0.201404 0.000000
0.648508 0.197482 0.000000
0.708324 0.182055 0.000000
0.756786 0.140154 0.000000
0.804883 0.096452 0.000000
0.848371 0.062043 0.000000
0.881010 0.073472 0.000000
0.908476 0.110246 0.000000
0.943694 0.108873 0.000000
0.968322 0.083528 0.000000
0.967895 0.078721 0.000000
0.975677 0.109819 0.000000
1.000000 0.132723 0.000000
1.000000 0.105516 0.000000
1.000000 0.169757 0.000000
1.000000 0.246250 0.000000
1.000000 0.257862 0.000000
1.000000 0.258259 0.000000
1.000000 0.258320 0.000000
0.000000 0.252323 0.000000
0.000000 0.252476 0.000000
0.007324 0.253254 0.000000
0.034241 0.254429 0.000000
0.095628 0.255467 0.000000
0.077394 0.258793 0.000000
0.077974 0.264714 0.000000
0.093980 0.272343 0.000000
0.127626 0.280858 0.000000
0.176761 0.284749 0.000000
0.237629 0.275792 0.000000
0.303624 0.249378 0.000000
0.396429 0.250858 0.000000
0.495430 0.254704 0.000000
0.585611 0.259113 0.000000
0.666056 0.261601 0.000000
0.730190 0.258671 0.000000
0.782422 0.245930 0.000000
0.819425 0.208438 0.000000
0.856565 0.157488 0.000000
0.883696 0.135561 0.000000
0.910491 0.146304 0.000000
0.944717 0.129458 0.000000
0.969635 0.090791 0.000000
0.969863 0.084993 0.000000
0.977493 0.115236 0.000000
1.000000 0.138369 0.000000
1.000000 0.110018 0.000000
1.000000 0.176333 0.000000
1.000000 0.252308 0.000000
1.000000 0.263874 0.000000
1.000000 0.264332 0.000000
1.000000 0.264393 0.000000
0.000000 0.307607 0.000000
0.000000 0.307988 0.000000
0.007752 0.309239 0.000000
0.031311 0.310658 0.000000
0.091401 0.312291 0.000000
0.072908 0.315511 0.000000
0.072267 0.321691 0.000000
0.090120 0.329839 0.000000
0.121920 0.338949 0.000000
0.171527 0.349081 0.000000
0.235798 0.350408 0.000000
0.315999 0.336065 0.000000
0.399115 0.310002 0.000000
0.501488 0.312581 0.000000
0.595285 0.316197 0.000000
0.678126 0.320378 0.000000
0.743938 0.323079 0.000000
0.799878 0.321508 0.000000
0.843610 0.311330 0.000000
0.877729 0.277302 0.000000
0.900862 0.228153 0.000000
0.916671 0.218723 0.000000
0.945357 0.206928 0.000000
0.969863 0.175296 0.000000
0.971160 0.160998 0.000000
0.978393 0.185245 0.000000
1.000000 0.203662 0.000000
1.000000 0.172503 0.000000
1.000000 0.236835 0.000000
1.000000 0.311391 0.000000
1.000000 0.319692 0.000000
1.000000 0.317357 0.000000
1.000000 0.313420 0.000000
0.000000 0.369467 0.000000
0.000000 0.370260 0.000000
0.009232 0.372107 0.000000
0.032853 0.373785 0.000000
0.087800 0.375433 0.000000
0.069749 0.378607 0.000000
0.068864 0.383627 0.000000
0.087282 0.391608 0.000000
0.119860 0.402594 0.000000
0.168017 0.415061 0.000000
0.232502 0.426703 0.000000
0.316228 0.423484 0.000000
0.411154 0.401450 0.000000
0.503807 0.376333 0.000000
0.600320 0.378973 0.000000
0.685191 0.382834 0.000000
0.752636 0.387121 0.000000
0.810407 0.390036 0.000000
0.857221 0.390158 0.000000
0.895537 0.382208 0.000000
0.928832 0.348867 0.000000
0.939925 0.308843 0.000000
0.953124 0.271885 0.000000
0.970810 0.240070 0.000000
0.973404 0.224506 0.000000
0.979995 0.248844 0.000000
1.000000 0.266697 0.000000
1.000000 0.235340 0.000000
1.000000 0.303136 0.000000
1.000000 0.377981 0.000000
1.000000 0.384543 0.000000
1.000000 0.383444 0.000000
1.000000 0.381338 0.000000
0.000000 0.431632 0.000000
0.000000 0.433082 0.000000
0.011185 0.435386 0.000000
0.038209 0.437293 0.000000
0.098436 0.438621 0.000000
0.072404 0.441962 0.000000
0.068879 0.446937 0.000000
0.085908 0.454414 0.000000
0.118364 0.465507 0.000000
0.165820 0.478721 0.000000
0.228397 0.493004 0.000000
0.313832 0.503456 0.000000
0.412711 0.495094 0.000000
0.512535 0.466835 0.000000
0.601251 0.443992 0.000000
0.688075 0.446097 0.000000
0.757534 0.449256 0.000000
0.815732 0.452766 0.000000
0.863661 0.456016 0.000000
0.905104 0.458045 0.000000
0.939467 0.451637 0.000000
0.968536 0.423178 0.000000
0.972885 0.372747 0.000000
0.977295 0.308965 0.000000
0.976486 0.278859 0.000000
0.982330 0.302678 0.000000
1.000000 0.317449 0.000000
1.000000 0.286275 0.000000
1.000000 0.356954 0.000000
1.000000 0.427253 0.000000
1.000000 0.432670 0.000000
1.000000 0.431632 0.000000
1.000000 0.430106 0.000000
0.000000 0.494606 0.000000
0.000000 0.496559 0.000000
0.013230 0.499001 0.000000
0.045090 0.500786 0.000000
0.117250 0.501930 0.000000
0.080934 0.504601 0.000000
0.072740 0.509590 0.000000
0.086397 0.516121 0.000000
0.116716 0.525750 0.000000
0.165103 0.538293 0.000000
0.225467 0.552331 0.000000
0.309056 0.567071 0.000000
0.409445 0.574044 0.000000
0.512886 0.561654 0.000000
0.603723 0.529137 0.000000
0.686534 0.508644 0.000000
0.758312 0.509865 0.000000
0.817624 0.511803 0.000000
0.866712 0.515145 0.000000
0.909514 0.519234 0.000000
0.944488 0.522545 0.000000
0.968399 0.519783 0.000000
0.986740 0.498253 0.000000
0.993393 0.421042 0.000000
0.982818 0.345617 0.000000
0.986374 0.352087 0.000000
1.000000 0.365408 0.000000
1.000000 0.330480 0.000000
1.000000 0.401236 0.000000
1.000000 0.471122 0.000000
1.000000 0.472175 0.000000
1.000000 0.471199 0.000000
1.000000 0.469978 0.000000
0.000000 0.555825 0.000000
0.000000 0.557916 0.000000
0.015595 0.560464 0.000000
0.052445 0.562249 0.000000
0.135500 0.562890 0.000000
0.095491 0.565026 0.000000
0.075029 0.568856 0.000000
0.089067 0.575021 0.000000
0.118624 0.583001 0.000000
0.164172 0.593927 0.000000
0.223331 0.607034 0.000000
0.303410 0.620722 0.000000
0.402808 0.634165 0.000000
0.506691 0.637095 0.000000
0.601144 0.621942 0.000000
0.684077 0.587991 0.000000
0.753979 0.568826 0.000000
0.816876 0.569070 0.000000
0.866865 0.570504 0.000000
0.910552 0.573510 0.000000
0.945113 0.578317 0.000000
0.966079 0.583490 0.000000
0.983566 0.583124 0.000000
0.997925 0.566476 0.000000
0.995148 0.464759 0.000000
0.992248 0.415381 0.000000
1.000000 0.416129 0.000000
1.000000 0.376501 0.000000
1.000000 0.445121 0.000000
1.000000 0.511208 0.000000
1.000000 0.506004 0.000000
1.000000 0.505135 0.000000
1.000000 0.504097 0.000000
0.000000 0.616693 0.000000
0.000000 0.618601 0.000000
0.019242 0.620996 0.000000
0.062135 0.622873 0.000000
0.157061 0.623316 0.000000
0.109865 0.624979 0.000000
0.086824 0.627283 0.000000
0.089403 0.632242 0.000000
0.120241 0.639353 0.000000
0.166613 0.648020 0.000000
0.221775 0.659281 0.000000
0.299321 0.671626 0.000000
0.393713 0.684108 0.000000
0.497734 0.695552 0.000000
0.591150 0.695247 0.000000
0.676600 0.678294 0.000000
0.747936 0.644862 0.000000
0.809781 0.625940 0.000000
0.864179 0.624842 0.000000
0.908370 0.626368 0.000000
0.942016 0.629496 0.000000
0.963394 0.634989 0.000000
0.980926 0.640024 0.000000
0.996078 0.642237 0.000000
0.999603 0.626688 0.000000
0.999603 0.535943 0.000000
1.000000 0.484627 0.000000
1.000000 0.430915 0.000000
1.000000 0.490196 0.000000
1.000000 0.549615 0.000000
1.000000 0.537499 0.000000
1.000000 0.536019 0.000000
1.000000 0.535119 0.000000
0.000000 0.676997 0.000000
0.000000 0.678569 0.000000
0.024659 0.680766 0.000000
0.073167 0.682445 0.000000
0.180194 0.682551 0.000000
0.127062 0.684062 0.000000
0.100633 0.686107 0.000000
0.093812 0.688869 0.000000
0.120714 0.694499 0.000000
0.169390 0.701579 0.000000
0.223682 0.709957 0.000000
0.297093 0.720684 0.000000
0.387274 0.731929 0.000000
0.485649 0.742306 0.000000
0.580453 0.751751 0.000000
0.663615 0.750057 0.000000
0.735241 0.732555 0.000000
0.799893 0.699443 0.000000
0.854688 0.680705 0.000000
0.904479 0.677821 0.000000
0.939712 0.679606 0.000000
0.961303 0.682948 0.000000
0.978943 0.688777 0.000000
0.994568 0.693538 0.000000
0.998474 0.690211 0.000000
1.000000 0.664408 0.000000
1.000000 0.574304 0.000000
1.000000 0.495628 0.000000
1.000000 0.547097 0.000000
1.000000 0.586160 0.000000
1.000000 0.566110 0.000000
1.000000 0.564355 0.000000
1.000000 0.563577 0.000000
0.000000 0.735058 0.000000
0.000000 0.736477 0.000000
0.032654 0.738323 0.000000
0.086244 0.739742 0.000000
0.206119 0.739559 0.000000
0.147173 0.740734 0.000000
0.116640 0.742626 0.000000
0.109422 0.745113 0.000000
0.125322 0.748180 0.000000
0.172473 0.753567 0.000000
0.227665 0.760082 0.000000
0.298528 0.767330 0.000000
0.383825 0.776867 0.000000
0.476738 0.786480 0.000000
0.566094 0.794659 0.000000
0.651713 0.801999 0.000000
0.721187 0.800198 0.000000
0.784604 0.784543 0.000000
0.840620 0.751949 0.000000
0.892866 0.732525 0.000000
0.936294 0.727916 0.000000
0.958801 0.730434 0.000000
0.976776 0.733883 0.000000
0.992615 0.739910 0.000000
0.997620 0.733181 0.000000
1.000000 0.709697 0.000000
1.000000 0.669596 0.000000
1.000000 0.602945 0.000000
1.000000 0.625864 0.000000
1.000000 0.620417 0.000000
1.000000 0.592233 0.000000
1.000000 0.589746 0.000000
1.000000 0.589059 0.000000
0.000000 0.790188 0.000000
0.000000 0.791424 0.000000
0.042496 0.792996 0.000000
0.102174 0.794308 0.000000
0.237095 0.793683 0.000000
0.170397 0.794629 0.000000
0.135424 0.796017 0.000000
0.126787 0.797864 0.000000
0.133623 0.800336 0.000000
0.177935 0.803296 0.000000
0.234653 0.808118 0.000000
0.303288 0.813703 0.000000
0.384375 0.819608 0.000000
0.471641 0.827283 0.000000
0.555154 0.834806 0.000000
0.637034 0.841093 0.000000
0.709285 0.846723 0.000000
0.771023 0.845090 0.000000
0.825574 0.831800 0.000000
0.876188 0.800229 0.000000
0.925277 0.780194 0.000000
0.956359 0.775051 0.000000
0.974685 0.777493 0.000000
0.990692 0.783383 0.000000
0.996719 0.779538 0.000000
1.000000 0.750759 0.000000
1.000000 0.706737 0.000000
1.000000 0.660227 0.000000
1.000000 0.655055 0.000000
1.000000 0.639780 0.000000
1.000000 0.615412 0.000000
1.000000 0.612482 0.000000
1.000000 0.611856 0.000000
0.000000 0.843290 0.000000
0.000000 0.844495 0.000000
0.055894 0.845808 0.000000
0.124346 0.846937 0.000000
0.280385 0.846372 0.000000
0.200443 0.847242 0.000000
0.159533 0.848203 0.000000
0.146517 0.849454 0.000000
0.148989 0.850950 0.000000
0.187457 0.852857 0.000000
0.244770 0.855451 0.000000
0.313283 0.859068 0.000000
0.389181 0.863249 0.000000
0.471168 0.867765 0.000000
0.548898 0.873701 0.000000
0.624445 0.879591 0.000000
0.694270 0.884901 0.000000
0.760037 0.889372 0.000000
0.812940 0.887907 0.000000
0.862333 0.875929 0.000000
0.908064 0.845594 0.000000
0.950454 0.824933 0.000000
0.972732 0.818647 0.000000
0.988830 0.824048 0.000000
0.995834 0.823285 0.000000
0.999649 0.802350 0.000000
1.000000 0.753582 0.000000
1.000000 0.698940 0.000000
1.000000 0.646983 0.000000
1.000000 0.631800 0.000000
1.000000 0.632273 0.000000
0.999832 0.633722 0.000000
1.000000 0.633143 0.000000
0.000000 0.875914 0.000000
0.000000 0.876783 0.000000
0.074372 0.877562 0.000000
0.156207 0.878309 0.000000
0.302327 0.877470 0.000000
0.241367 0.878004 0.000000
0.189868 0.878645 0.000000
0.171115 0.879530 0.000000
0.170169 0.880613 0.000000
0.199237 0.882048 0.000000
0.257206 0.883864 0.000000
0.324636 0.886748 0.000000
0.400351 0.890883 0.000000
0.475074 0.895537 0.000000
0.546990 0.901213 0.000000
0.616892 0.907530 0.000000
0.680156 0.913954 0.000000
0.743450 0.920714 0.000000
0.801633 0.926741 0.000000
0.850660 0.925414 0.000000
0.896483 0.914382 0.000000
0.937301 0.885618 0.000000
0.968658 0.863890 0.000000
0.987259 0.857008 0.000000
0.995148 0.858747 0.000000
0.998856 0.848295 0.000000
0.999924 0.815808 0.000000
1.000000 0.752865 0.000000
1.000000 0.686900 0.000000
0.999924 0.609979 0.000000
1.000000 0.615747 0.000000
0.999466 0.643351 0.000000
0.999832 0.650767 0.000000
0.000000 0.907225 0.000000
0.000000 0.907912 0.000000
0.091951 0.908278 0.000000
0.189395 0.908522 0.000000
0.319493 0.907622 0.000000
0.291066 0.907759 0.000000
0.228122 0.908278 0.000000
0.202579 0.908919 0.000000
0.197009 0.909621 0.000000
0.216754 0.910353 0.000000
0.271717 0.911238 0.000000
0.337133 0.912535 0.000000
0.411292 0.914900 0.000000
0.485634 0.918517 0.000000
0.549752 0.922683 0.000000
0.614054 0.927550 0.000000
0.672663 0.932815 0.000000
0.730556 0.938155 0.000000
0.785443 0.943801 0.000000
0.838621 0.949081 0.000000
0.886091 0.950317 0.000000
0.928359 0.943374 0.000000
0.962448 0.918715 0.000000
0.985092 0.898177 0.000000
0.994690 0.889921 0.000000
0.998276 0.888594 0.000000
0.998978 0.874205 0.000000
0.999420 0.835599 0.000000
1.000000 0.757397 0.000000
1.000000 0.637125 0.000000
1.000000 0.571588 0.000000
0.999863 0.621180 0.000000
0.999954 0.656291 0.000000
0.000000 0.936706 0.000000
0.000000 0.937407 0.000000
0.111162 0.937499 0.000000
0.225101 0.937484 0.000000
0.337560 0.936599 0.000000
0.340871 0.936416 0.000000
0.271855 0.936934 0.000000
0.239384 0.937270 0.000000
0.228443 0.937591 0.000000
0.239719 0.937896 0.000000
0.291737 0.938262 0.000000
0.353155 0.938750 0.000000
0.423239 0.939529 0.000000
0.495598 0.941238 0.000000
0.558831 0.944137 0.000000
0.616327 0.947494 0.000000
0.669841 0.951354 0.000000
0.724346 0.955535 0.000000
0.774838 0.959823 0.000000
0.823682 0.964340 0.000000
0.873518 0.968383 0.000000
0.919203 0.969406 0.000000
0.956222 0.963439 0.000000
0.982315 0.941527 0.000000
0.994324 0.921111 0.000000
0.998077 0.911055 0.000000
0.998672 0.908660 0.000000
0.998520 0.895659 0.000000
0.998825 0.859297 0.000000
1.000000 0.750835 0.000000
0.998184 0.586938 0.000000
0.996521 0.539986 0.000000
0.994385 0.575479 0.000000
0.000000 0.962722 0.000000
0.000000 0.963272 0.000000
0.132189 0.963088 0.000000
0.262379 0.962936 0.000000
0.356649 0.962249 0.000000
0.359396 0.962188 0.000000
0.318700 0.962493 0.000000
0.279576 0.962753 0.000000
0.264256 0.962905 0.000000
0.268833 0.962921 0.000000
0.317922 0.962905 0.000000
0.375998 0.962860 0.000000
0.441032 0.962966 0.000000
0.507652 0.963195 0.000000
0.569100 0.964294 0.000000
0.625589 0.966308 0.000000
0.673075 0.968917 0.000000
0.722850 0.971832 0.000000
0.769802 0.974823 0.000000
0.813703 0.977981 0.000000
0.859342 0.981033 0.000000
0.906844 0.983642 0.000000
0.948608 0.984222 0.000000
0.979156 0.979309 0.000000
0.993210 0.960510 0.000000
0.998154 0.942672 0.000000
0.998230 0.932448 0.000000
0.998077 0.926116 0.000000
0.997803 0.926284 0.000000
0.998199 0.889067 0.000000
0.998184 0.784543 0.000000
0.993606 0.599893 0.000000
0.990173 0.580331 0.000000
0.000000 0.983612 0.000000
0.000000 0.983978 0.000000
0.153613 0.983444 0.000000
0.302708 0.983001 0.000000
0.376150 0.982422 0.000000
0.377813 0.982315 0.000000
0.362081 0.982391 0.000000
0.322255 0.982666 0.000000
0.303197 0.982742 0.000000
0.303395 0.982773 0.000000
0.349966 0.982544 0.000000
0.402289 0.982208 0.000000
0.455497 0.982055 0.000000
0.522011 0.981826 0.000000
0.582589 0.981811 0.000000
0.636484 0.982406 0.000000
0.683726 0.983688 0.000000
0.726513 0.985229 0.000000
0.769238 0.987015 0.000000
0.809155 0.988998 0.000000
0.849500 0.990860 0.000000
0.893339 0.992523 0.000000
0.936873 0.993667 0.000000
0.973144 0.993683 0.000000
0.992493 0.990204 0.000000
0.997604 0.975692 0.000000
0.998627 0.962829 0.000000
