lut/Sony/NewLook/SL3SG3CtoVintage_709.cube
# Copyright 2023 SONY
# Vintage 709 LUT
# S-Log3/S-Gamut3.Cine to Rec.709
# 
LUT_3D_SIZE 9
0.000000 0.000000 0.000000
0.052003 0.000565 0.000565
0.117052 0.001282 0.001282
0.209964 0.002289 0.002289
0.330114 0.003601 0.003601
0.453315 0.004959 0.004959
0.539940 0.005905 0.005905
0.575692 0.006287 0.006287
0.587152 0.006409 0.006424
0.002258 0.063355 0.002258
0.047334 0.051667 0.002319
0.114000 0.065202 0.003494
0.183413 0.031693 0.003052
0.271427 0.002960 0.002960
0.384833 0.004211 0.004211
0.485893 0.005310 0.005310
0.549477 0.006012 0.006012
0.582101 0.006363 0.006363
0.005264 0.148043 0.005264
0.014649 0.129244 0.004700
0.127810 0.130724 0.005951
0.232639 0.096330 0.005844
0.344915 0.003769 0.003769
0.465339 0.005081 0.005081
0.567422 0.006195 0.006195
0.617456 0.006744 0.006744
0.650874 0.007111 0.007111
0.009262 0.260807 0.009262
0.008988 0.252903 0.008988
0.010452 0.294041 0.010452
0.322118 0.305821 0.014145
0.503792 0.278874 0.015122
0.643656 0.241611 0.015289
0.746365 0.208545 0.015198
0.791669 0.197467 0.015289
0.817899 0.225238 0.016541
0.017487 0.492287 0.017487
0.017395 0.489632 0.017395
0.019028 0.535653 0.019028
0.246586 0.605768 0.023896
0.650431 0.596780 0.027848
0.798657 0.540124 0.027405
0.897200 0.532280 0.028168
0.944320 0.552666 0.029389
0.963836 0.593256 0.031022
0.024918 0.701289 0.024918
0.024903 0.700648 0.024887
0.025773 0.725460 0.025773
0.027039 0.760845 0.027039
0.631632 0.851331 0.036591
0.871229 0.821912 0.038086
0.954620 0.808896 0.038498
0.985519 0.811536 0.038926
0.989410 0.824491 0.039414
0.029389 0.827054 0.029389
0.029801 0.838575 0.029801
0.030457 0.857130 0.030457
0.030930 0.870649 0.030930
0.405600 0.925490 0.036820
0.861082 0.928420 0.041718
0.949630 0.915694 0.042207
0.984207 0.915969 0.042588
0.989273 0.920958 0.042817
0.031647 0.890639 0.031647
0.031708 0.892363 0.031708
0.032105 0.903548 0.032105
0.032502 0.914794 0.032502
0.049989 0.947158 0.033829
0.850614 0.964004 0.042863
0.945251 0.953292 0.043488
0.980941 0.950561 0.043763
0.986496 0.951385 0.043854
0.031785 0.894438 0.031785
0.032303 0.909300 0.032303
0.032425 0.912428 0.032425
0.032837 0.924086 0.032837
0.353536 0.961563 0.037537
0.867002 0.965713 0.043091
0.950134 0.958160 0.043702
0.981643 0.955779 0.043961
0.986145 0.955718 0.044007
0.000183 0.000183 0.039429
0.054398 0.000824 0.049149
0.115679 0.001587 0.069642
0.207706 0.002548 0.062699
0.326375 0.003723 0.036088
0.446723 0.004883 0.004883
0.534722 0.005844 0.005844
0.572549 0.006256 0.006256
0.587167 0.006409 0.006424
0.002304 0.056992 0.062211
0.043305 0.045777 0.048325
0.101015 0.056352 0.062730
0.168795 0.016648 0.045823
0.264500 0.002884 0.002884
0.379446 0.004150 0.004150
0.479667 0.005249 0.005249
0.547860 0.005982 0.005982
0.581476 0.006348 0.006363
0.005371 0.140612 0.087282
0.016831 0.118471 0.065431
0.118456 0.121294 0.070314
0.220798 0.089494 0.061906
0.332967 0.003647 0.003647
0.456153 0.004990 0.004990
0.551705 0.006027 0.006027
0.604913 0.006607 0.006607
0.630152 0.006882 0.006882
0.009155 0.257465 0.009155
0.008911 0.250721 0.008911
0.010422 0.290593 0.031617
0.317586 0.300893 0.051377
0.504631 0.272312 0.066911
0.643214 0.228428 0.014847
0.742931 0.188388 0.014542
0.790478 0.181048 0.014725
0.821363 0.215778 0.041611
0.017410 0.489998 0.017410
0.017487 0.492195 0.017487
0.019043 0.535866 0.019043
0.242634 0.600534 0.023667
0.647913 0.593210 0.077424
0.805127 0.541817 0.120302
0.906142 0.539040 0.164157
0.953735 0.560891 0.225132
0.972595 0.601541 0.285466
0.024887 0.700221 0.024872
0.024887 0.700404 0.024887
0.025879 0.728115 0.025864
0.027146 0.764111 0.027146
0.629618 0.852583 0.036606
0.873960 0.823301 0.094667
0.956146 0.808377 0.157778
0.987671 0.811170 0.206134
0.990326 0.825284 0.234653
0.029541 0.831434 0.029541
0.029908 0.841810 0.029908
0.030518 0.858991 0.030518
0.030961 0.871168 0.030961
0.383398 0.924865 0.036561
0.861372 0.929549 0.089433
0.950286 0.915908 0.126833
0.985489 0.916106 0.176745
0.991440 0.921965 0.201144
0.031663 0.891264 0.031663
0.031876 0.897154 0.031876
0.032197 0.906279 0.032197
0.032624 0.918105 0.032624
0.096147 0.949310 0.034394
0.850996 0.966690 0.131350
0.945922 0.955093 0.163333
0.981476 0.952621 0.184527
0.988220 0.952605 0.186221
0.032166 0.905348 0.032166
0.032395 0.911696 0.032395
0.032578 0.916854 0.032578
0.032929 0.926589 0.032929
0.296162 0.961501 0.036927
0.862440 0.969940 0.187716
0.949767 0.960983 0.185107
0.982071 0.959060 0.182223
0.987884 0.959075 0.202441
0.000427 0.000427 0.091112
0.069200 0.001221 0.099184
0.116716 0.001785 0.110567
0.209430 0.002731 0.098695
0.327504 0.003983 0.089357
0.447013 0.005051 0.039338
0.535729 0.005859 0.005859
0.572442 0.006256 0.006256
0.587167 0.006409 0.006424
0.002686 0.060655 0.118090
0.053468 0.052293 0.103822
0.095537 0.057496 0.106142
0.165072 0.008911 0.078401
0.263249 0.003052 0.040726
0.378058 0.004135 0.004135
0.482460 0.005280 0.005280
0.550408 0.006012 0.006012
0.584604 0.006394 0.006394
0.005463 0.135683 0.146166
0.020371 0.113954 0.121645
0.115801 0.120668 0.126009
0.222019 0.088884 0.107805
0.337499 0.003922 0.052873
0.457176 0.004990 0.005005
0.553231 0.006043 0.006043
0.602167 0.006577 0.006577
0.629694 0.006882 0.006882
0.009949 0.267338 0.107240
0.009842 0.264515 0.107225
0.011261 0.301152 0.133730
0.333898 0.317784 0.167956
0.522850 0.282536 0.182864
0.658518 0.236576 0.145190
0.752773 0.190906 0.113512
0.799146 0.186160 0.126589
0.832639 0.230915 0.176272
0.018463 0.513573 0.064424
0.018524 0.514443 0.073625
0.020264 0.555245 0.137392
0.249058 0.619623 0.205219
0.669917 0.614771 0.264424
0.827359 0.563165 0.284413
0.923491 0.560525 0.308827
0.964660 0.581842 0.343999
0.978759 0.622126 0.385534
0.025193 0.708980 0.025193
0.025223 0.709758 0.025223
0.026322 0.740749 0.026322
0.027680 0.778790 0.027665
0.645518 0.864500 0.228504
0.884474 0.834287 0.281956
0.963287 0.820035 0.309621
0.989837 0.822248 0.342748
0.991348 0.836454 0.373358
0.029816 0.838987 0.029816
0.030121 0.847761 0.030121
0.030747 0.865446 0.030747
0.031174 0.877180 0.031174
0.398566 0.929961 0.142367
0.867475 0.933837 0.255970
0.954650 0.920195 0.275456
0.987610 0.920913 0.303456
0.993271 0.926390 0.326299
0.031815 0.895232 0.031815
0.031937 0.898711 0.031937
0.032303 0.908980 0.032303
0.032700 0.920226 0.032700
0.186847 0.953460 0.038605
0.854185 0.968887 0.242847
0.948409 0.957412 0.258076
0.983429 0.954452 0.269245
0.989197 0.954818 0.274846
0.032029 0.901473 0.032029
0.032532 0.915618 0.032532
0.032700 0.920455 0.032700
0.033005 0.929000 0.033005
0.305531 0.963455 0.142458
0.865171 0.971496 0.258259
0.950576 0.962386 0.254246
0.982940 0.960174 0.258732
0.988876 0.959930 0.265217
0.000732 0.000732 0.154192
0.060044 0.001404 0.161944
0.104280 0.001953 0.176883
0.205188 0.003052 0.174868
0.322545 0.004227 0.153811
0.441520 0.005432 0.135866
0.532692 0.006363 0.122377
0.571145 0.006744 0.113970
0.587472 0.006912 0.112764
0.001953 0.032837 0.174334
0.040681 0.023957 0.157259
0.074815 0.018326 0.157702
0.152010 0.002304 0.137865
0.255955 0.003296 0.108156
0.373861 0.004486 0.091325
0.480629 0.005570 0.074403
0.551965 0.006317 0.068498
0.583902 0.006729 0.080369
0.004166 0.090104 0.216663
0.031968 0.071977 0.189822
0.088289 0.076707 0.198962
0.196506 0.086305 0.186709
0.308324 0.003967 0.130388
0.427176 0.005188 0.114824
0.530999 0.006271 0.106691
0.579614 0.006836 0.113817
0.605158 0.007156 0.122713
0.009995 0.248096 0.266667
0.009979 0.247364 0.262242
0.011261 0.280568 0.294575
0.343664 0.344396 0.344427
0.527199 0.276463 0.284016
0.659144 0.218936 0.247959
0.752224 0.164309 0.219196
0.799969 0.162951 0.234821
0.835065 0.216129 0.276600
0.020325 0.534890 0.308614
0.020386 0.536309 0.312245
0.021897 0.573800 0.345968
0.243595 0.632013 0.385946
0.679606 0.639246 0.415167
0.841031 0.576562 0.424231
0.935897 0.577447 0.436744
0.973953 0.600458 0.464988
0.985000 0.641077 0.498360
0.027253 0.732677 0.292638
0.027421 0.736812 0.297948
0.028794 0.770871 0.336919
0.030243 0.806027 0.380316
0.623331 0.883360 0.474006
0.899733 0.863676 0.503853
0.972198 0.844572 0.510216
0.991531 0.846723 0.523491
0.993027 0.862211 0.542870
0.031800 0.861448 0.292927
0.032151 0.869245 0.303822
0.032898 0.886839 0.334829
0.033295 0.896117 0.350759
0.389685 0.941497 0.427741
0.880339 0.951980 0.484993
0.963653 0.939010 0.496483
0.992889 0.939742 0.514336
0.995911 0.945312 0.529274
0.033661 0.915526 0.281880
0.033738 0.918563 0.275807
0.034226 0.927413 0.311955
0.034714 0.938338 0.334829
0.213626 0.963546 0.388479
0.862562 0.982055 0.456825
0.955520 0.969482 0.461295
0.987335 0.965560 0.466346
0.994064 0.966415 0.473915
0.034623 0.930175 0.377905
0.034714 0.934600 0.365774
0.035279 0.945144 0.404883
0.035477 0.951019 0.404913
0.318242 0.973754 0.441321
0.872450 0.986023 0.474632
0.956756 0.974533 0.459236
0.986068 0.970428 0.452476
0.992950 0.969635 0.452415
0.001190 0.001190 0.252064
0.055848 0.001831 0.260746
0.097917 0.002350 0.273808
0.181308 0.003235 0.271977
0.315312 0.004639 0.259586
0.435126 0.005829 0.233539
0.528466 0.006775 0.221378
0.570657 0.007202 0.214099
0.589792 0.007416 0.213474
0.001694 0.015732 0.250935
0.027359 0.013413 0.234455
0.058305 0.001724 0.234516
0.130694 0.002457 0.221439
0.248173 0.003647 0.203922
0.367742 0.004822 0.177615
0.478477 0.006012 0.172992
0.550912 0.006821 0.178134
0.583535 0.007233 0.188876
0.002838 0.044221 0.280995
0.020539 0.034638 0.254185
0.059983 0.036027 0.260349
0.146624 0.011582 0.247303
0.274815 0.004044 0.227420
0.405600 0.005386 0.209766
0.518151 0.006622 0.211444
0.574868 0.007279 0.220890
0.590265 0.007507 0.232731
0.008881 0.201846 0.383566
0.008713 0.197818 0.376638
0.044236 0.222477 0.408270
0.264561 0.252583 0.449790
0.493812 0.289876 0.435538
0.619516 0.166430 0.336889
0.709270 0.041749 0.298909
0.758038 0.079561 0.318456
0.793271 0.159106 0.376516
0.020142 0.500023 0.538506
0.020157 0.500664 0.537881
0.021408 0.532540 0.567025
0.250309 0.592477 0.612116
0.687907 0.674891 0.664195
0.849119 0.590021 0.589761
0.940429 0.584756 0.593774
0.976745 0.612665 0.624384
0.985962 0.647211 0.659953
0.029557 0.760830 0.580148
0.029831 0.768200 0.583688
0.031098 0.798444 0.628794
0.032242 0.827146 0.655756
0.595010 0.896086 0.697032
0.908095 0.892531 0.687007
0.978500 0.870298 0.672755
0.993118 0.870863 0.684688
0.994553 0.883970 0.706325
0.034424 0.892714 0.626612
0.034592 0.897536 0.626719
0.035096 0.908644 0.651148
0.035462 0.917617 0.659571
0.396811 0.952911 0.681575
0.882124 0.971756 0.685771
0.971603 0.962875 0.683513
0.996384 0.962860 0.688472
0.997436 0.966049 0.705180
0.036271 0.940887 0.657420
0.036469 0.947173 0.653147
0.036744 0.951690 0.676249
0.037064 0.959762 0.686641
0.286763 0.978790 0.700587
0.852888 0.995499 0.699840
0.965774 0.990295 0.679133
0.992416 0.987259 0.673396
0.997909 0.987060 0.677531
0.036667 0.944625 0.714565
0.036835 0.949996 0.707637
0.037049 0.954025 0.725811
0.037400 0.963851 0.727306
0.329564 0.985031 0.734752
0.859342 0.997131 0.716625
0.965911 0.994858 0.684672
0.991547 0.992035 0.671290
0.997513 0.991730 0.671839
0.001755 0.001755 0.373022
0.045869 0.002274 0.379187
0.086686 0.002777 0.392172
0.170901 0.003662 0.386206
0.292897 0.004944 0.377371
0.424567 0.006287 0.358938
0.519814 0.007263 0.344762
0.567010 0.007752 0.337926
0.589929 0.007996 0.339178
0.002228 0.016327 0.361547
0.020844 0.014527 0.343542
0.044633 0.011505 0.345907
0.118181 0.002838 0.331212
0.221256 0.003876 0.316320
0.360082 0.005325 0.301808
0.473060 0.006531 0.297002
0.549783 0.007401 0.304585
0.583597 0.007813 0.315068
0.002564 0.024750 0.370718
0.018250 0.021317 0.349966
0.042405 0.022538 0.359716
0.128664 0.003052 0.354681
0.253391 0.004379 0.348089
0.400031 0.005936 0.339895
0.516228 0.007218 0.342443
0.575128 0.007904 0.352163
0.590509 0.008133 0.365270
0.006714 0.131182 0.457511
0.006256 0.119860 0.442222
0.025986 0.138994 0.472770
0.191012 0.144106 0.491569
0.327337 0.103182 0.434379
0.437995 0.011902 0.369436
0.549630 0.007630 0.355306
0.621012 0.008453 0.364660
0.664332 0.009110 0.403952
0.018265 0.431098 0.664042
0.018036 0.425254 0.659831
0.019165 0.453681 0.687221
0.259632 0.487999 0.721675
0.572503 0.554528 0.769360
0.813474 0.617746 0.766903
0.914397 0.607034 0.760952
0.954910 0.622065 0.778592
0.967529 0.655009 0.805570
0.028687 0.713527 0.758190
0.029038 0.722469 0.764279
0.030259 0.753719 0.792432
0.031510 0.785794 0.817594
0.569146 0.877424 0.880598
0.906355 0.900160 0.894881
0.977539 0.875883 0.872724
0.994110 0.874922 0.872358
0.995468 0.886946 0.885954
0.034302 0.866697 0.802502
0.034531 0.872419 0.805982
0.035081 0.886122 0.821424
0.035493 0.896483 0.831907
0.400549 0.944228 0.873030
0.862318 0.974380 0.896651
0.973632 0.972366 0.893492
0.997589 0.970520 0.893355
0.998566 0.972778 0.900908
0.036438 0.924681 0.820798
0.036576 0.928527 0.820340
0.037064 0.939971 0.838224
0.037537 0.949523 0.848661
0.215320 0.969650 0.869642
0.819028 0.996735 0.905608
0.965469 0.996490 0.900618
0.994430 0.994705 0.895232
0.999313 0.994476 0.896086
0.036683 0.928054 0.847715
0.037003 0.936996 0.849363
0.037293 0.943832 0.860929
0.037705 0.954391 0.866255
0.169390 0.972137 0.879286
0.817685 0.997589 0.911696
0.963134 0.999130 0.904433
0.993774 0.999237 0.897383
0.999466 0.998779 0.895903
0.002304 0.002319 0.489982
0.035904 0.002670 0.489586
0.080552 0.003235 0.505684
0.162142 0.004059 0.493477
0.278294 0.005249 0.477333
0.413489 0.006638 0.459693
0.512337 0.007660 0.445991
0.564370 0.008179 0.438666
0.588464 0.008469 0.441810
0.002899 0.022370 0.462394
0.021668 0.019776 0.442405
0.034302 0.018982 0.442329
0.111696 0.003235 0.432868
0.214740 0.004288 0.418585
0.351644 0.005722 0.406134
0.472526 0.007034 0.405509
0.550622 0.007919 0.413214
0.584222 0.008331 0.423072
0.003159 0.029313 0.468025
0.021515 0.026352 0.449577
0.037553 0.027741 0.460792
0.128267 0.003555 0.462730
0.252033 0.004898 0.460883
0.397421 0.006409 0.448203
0.517235 0.007736 0.452598
0.577646 0.008438 0.461799
0.596933 0.008698 0.473991
0.005158 0.078981 0.518227
0.004730 0.069322 0.500999
0.040406 0.089204 0.537942
0.155047 0.094728 0.551324
0.294118 0.050828 0.519692
0.420066 0.006729 0.461677
0.534890 0.007950 0.458412
0.599313 0.008713 0.471321
0.628885 0.009186 0.502159
0.016800 0.380224 0.736233
0.016403 0.370138 0.728283
0.017517 0.398138 0.756588
0.235050 0.423194 0.783642
0.523857 0.471183 0.827482
0.763592 0.538201 0.829114
0.879133 0.546319 0.830045
0.925826 0.557778 0.842466
0.942184 0.593393 0.865263
0.027832 0.678126 0.846555
0.028153 0.686488 0.852216
0.029526 0.721782 0.877134
0.030625 0.750866 0.894270
0.545983 0.834318 0.939666
0.869581 0.863478 0.951736
0.968505 0.874434 0.949111
0.994583 0.878202 0.950759
0.995865 0.888777 0.958526
0.034089 0.849744 0.886870
0.034241 0.853849 0.889891
0.034821 0.868513 0.902235
0.035233 0.879393 0.909148
0.394263 0.925475 0.939055
0.839445 0.967651 0.966293
0.971038 0.969696 0.968704
0.997909 0.969787 0.969711
0.998856 0.971817 0.971771
0.036637 0.919753 0.902586
0.036744 0.922774 0.902541
0.037217 0.934524 0.916548
0.037583 0.943740 0.923095
0.092592 0.957198 0.933623
0.785336 0.996384 0.969894
0.960052 0.996185 0.971359
0.994339 0.995178 0.970275
0.999664 0.994888 0.970291
0.037049 0.928512 0.923705
0.037247 0.934401 0.922271
0.037507 0.940688 0.930220
0.037934 0.951400 0.935286
0.094453 0.963027 0.939132
0.778271 0.997436 0.972351
0.956329 0.999374 0.972732
0.993057 0.999771 0.971420
0.999847 0.999847 0.970794
0.002625 0.002625 0.556985
0.036225 0.002976 0.552178
0.071565 0.003403 0.561807
0.150988 0.004227 0.554818
0.267277 0.005447 0.544976
0.404349 0.006882 0.532738
0.504952 0.007935 0.522545
0.559228 0.008499 0.516487
0.584802 0.008789 0.520531
0.003891 0.036210 0.572885
0.033112 0.030899 0.551690
0.046357 0.030823 0.552544
0.118013 0.003815 0.541283
0.219883 0.004807 0.516777
0.359258 0.006195 0.489464
0.485252 0.007553 0.488472
0.565576 0.008469 0.494926
0.604135 0.008942 0.507713
0.004425 0.048936 0.593179
0.039826 0.045441 0.576867
0.057526 0.049256 0.593027
0.155138 0.041657 0.605325
0.283253 0.005722 0.567224
0.434699 0.007218 0.534768
0.557504 0.008560 0.536522
0.617868 0.009232 0.539742
0.635035 0.009461 0.546914
0.006012 0.089189 0.627573
0.042237 0.081987 0.613291
0.067079 0.096376 0.645090
0.170047 0.096406 0.658122
0.314137 0.014084 0.611948
0.455222 0.007492 0.544152
0.578912 0.008820 0.541222
0.648310 0.009613 0.548989
0.675196 0.010010 0.569711
0.014832 0.319387 0.777020
0.014343 0.306920 0.766690
0.015473 0.335363 0.794095
0.212604 0.355566 0.815885
0.488304 0.394781 0.855421
0.726696 0.448463 0.855207
0.845838 0.453773 0.852628
0.897688 0.464057 0.860578
0.917876 0.508507 0.881315
0.027130 0.651347 0.898802
0.027619 0.663432 0.905226
0.029023 0.701625 0.924056
0.029892 0.724910 0.934600
0.521141 0.800000 0.967437
0.849134 0.834638 0.978241
0.960830 0.852522 0.977447
0.994064 0.860059 0.978744
0.995392 0.872450 0.983764
0.033951 0.839780 0.934981
0.034150 0.845121 0.936919
0.034760 0.861051 0.945693
0.035187 0.871702 0.951171
0.387549 0.912413 0.971069
0.819654 0.958770 0.990524
0.965866 0.962280 0.992477
0.997894 0.966506 0.992996
0.998840 0.968612 0.994125
0.036790 0.918212 0.946822
0.037003 0.924224 0.949020
0.037354 0.933379 0.955657
0.037736 0.942992 0.961959
0.038102 0.952804 0.966491
0.759777 0.993423 0.992203
0.953140 0.994064 0.993545
0.993393 0.993439 0.993423
0.999741 0.993729 0.993576
0.037369 0.933471 0.957687
0.037522 0.937301 0.959976
0.037736 0.942931 0.963439
0.038087 0.952224 0.967910
0.094392 0.962173 0.970443
0.747555 0.997208 0.992950
0.948714 0.999405 0.994202
0.991165 0.999863 0.993942
0.999954 0.999954 0.993729
0.002655 0.002655 0.563333
0.036454 0.003021 0.561776
0.073457 0.003433 0.565866
0.150530 0.004257 0.562982
0.268345 0.005539 0.561090
0.400717 0.006958 0.557000
0.503426 0.008072 0.556313
0.559609 0.008667 0.552544
0.584131 0.008942 0.555108
0.004074 0.038071 0.599710
0.034836 0.030945 0.586511
0.041123 0.032380 0.588952
0.108080 0.006882 0.581781
0.219638 0.005066 0.573358
0.362921 0.006485 0.544945
0.491310 0.007889 0.543984
0.570611 0.008759 0.545525
0.604852 0.009155 0.551263
0.004639 0.051392 0.622019
0.039841 0.047852 0.616403
0.065126 0.050889 0.624353
0.152605 0.044770 0.633051
0.284840 0.005936 0.606928
0.438773 0.007416 0.566094
0.561776 0.008743 0.563256
0.620401 0.009369 0.561868
0.636515 0.009552 0.562600
0.006439 0.094697 0.677943
0.055680 0.092790 0.675990
0.079164 0.102617 0.688594
0.181582 0.105196 0.700328
0.332326 0.033692 0.651576
0.474907 0.007843 0.575235
0.600671 0.009186 0.568383
0.666529 0.009903 0.567742
0.683848 0.010147 0.581827
0.013275 0.273930 0.787015
0.026886 0.255451 0.780835
0.044297 0.298268 0.803555
0.216052 0.332509 0.829480
0.491157 0.381888 0.868574
0.726497 0.434119 0.867811
0.851774 0.452323 0.867765
0.900893 0.469184 0.872297
0.923522 0.521843 0.892119
0.026902 0.641550 0.927153
0.027329 0.652979 0.931716
0.029007 0.699199 0.941146
0.029801 0.720714 0.948852
0.511772 0.791714 0.977569
0.846448 0.825299 0.988113
0.959915 0.843946 0.987350
0.993927 0.854917 0.987640
0.995377 0.871061 0.989990
0.034012 0.839307 0.952010
0.034180 0.843275 0.955734
0.034806 0.860777 0.959350
0.035248 0.871900 0.964782
0.388510 0.910491 0.982589
0.817258 0.956512 0.996536
0.965331 0.959777 0.998215
0.997848 0.964416 0.998734
0.998825 0.967483 0.998840
0.036988 0.922698 0.958129
0.037079 0.924620 0.961349
0.037446 0.934798 0.964187
0.037797 0.943816 0.969268
0.039857 0.952102 0.974594
0.754192 0.992615 0.997147
0.950484 0.992874 0.999222
0.992035 0.992065 0.999634
0.999725 0.992523 0.999741
0.037385 0.933471 0.959319
0.037553 0.937789 0.961868
0.037751 0.943084 0.965194
0.038102 0.952270 0.970321
0.097108 0.962341 0.976059
0.738231 0.997131 0.997131
0.944686 0.999374 0.999390
0.989853 0.999878 0.999893
0.999985 0.999985 1.000000
