lut/Sony/NewLook/SL3SG3toWarm_709.cube
# Copyright 2023 SONY
# Warm 709 LUT
# S-Log3/S-Gamut3 to Rec.709
# 
LUT_3D_SIZE 33
0.000000 0.000000 0.000000
0.002955 0.000000 0.000000
0.024559 0.000000 0.000000
0.050227 0.000000 0.000000
0.082688 0.000000 0.000000
0.112245 0.000000 0.000000
0.139323 0.000000 0.000000
0.171704 0.000000 0.000000
0.209475 0.000000 0.000000
0.254329 0.000000 0.000000
0.305247 0.000000 0.000000
0.362653 0.000000 0.000000
0.425238 0.000000 0.000000
0.491540 0.000000 0.000000
0.562667 0.000000 0.000000
0.636892 0.000000 0.000000
0.709082 0.000000 0.000000
0.775115 0.000000 0.000000
0.834841 0.000000 0.000000
0.886762 0.000000 0.000000
0.929851 0.000000 0.000000
0.966049 0.000000 0.000000
0.988355 0.000000 0.000000
0.991943 0.000000 0.000000
0.990277 0.000000 0.022729
0.985537 0.047701 0.129991
0.965657 0.182026 0.224371
0.952633 0.281889 0.302472
0.941043 0.366225 0.369485
0.927746 0.442060 0.426616
0.923110 0.517345 0.489216
0.928581 0.592545 0.555915
0.939799 0.670670 0.626239
0.000000 0.000000 0.000040
0.000000 0.000000 0.000012
0.020203 0.000000 0.000000
0.044573 0.000125 0.000001
0.076409 0.000270 0.000001
0.107698 0.000192 0.000000
0.135456 0.000000 0.000000
0.168425 0.000000 0.000000
0.206594 0.000000 0.000000
0.251800 0.000000 0.000000
0.303157 0.000000 0.000000
0.360855 0.000000 0.000000
0.423796 0.000000 0.000000
0.490356 0.000000 0.000000
0.561690 0.000000 0.000000
0.636125 0.000000 0.000000
0.708498 0.000000 0.000000
0.774672 0.000000 0.000000
0.834471 0.000000 0.000000
0.886485 0.000000 0.000000
0.929620 0.000000 0.000000
0.965849 0.000000 0.000000
0.988231 0.000000 0.000000
0.991947 0.000000 0.000000
0.989574 0.004019 0.022054
0.983345 0.060128 0.127930
0.963834 0.192852 0.222560
0.951692 0.288147 0.301546
0.940515 0.370391 0.368973
0.927555 0.445057 0.426502
0.923091 0.519525 0.489252
0.928622 0.594173 0.555997
0.939849 0.671829 0.626318
0.000039 0.019436 0.000084
0.000041 0.017963 0.000025
0.015973 0.015933 0.000014
0.039025 0.013585 0.000060
0.070174 0.010762 0.000043
0.103037 0.007047 0.000000
0.131549 0.003545 0.000000
0.165148 0.000722 0.000000
0.203670 0.000000 0.000000
0.249232 0.000000 0.000000
0.301046 0.000000 0.000000
0.359049 0.000000 0.000000
0.422337 0.000000 0.000000
0.489173 0.000000 0.000000
0.560709 0.000000 0.000000
0.635333 0.000000 0.000000
0.707891 0.000000 0.000000
0.774202 0.000000 0.000000
0.834096 0.000000 0.000000
0.886196 0.000000 0.000000
0.929381 0.000000 0.000000
0.965623 0.000000 0.000000
0.988209 0.000000 0.000000
0.991951 0.000000 0.000000
0.987790 0.014045 0.020117
0.980357 0.077080 0.125038
0.962389 0.201879 0.221153
0.950825 0.294071 0.300700
0.939998 0.374489 0.368474
0.927366 0.448024 0.426390
0.923071 0.521687 0.489288
0.928663 0.595792 0.556079
0.939900 0.672983 0.626396
0.000058 0.039464 0.000130
0.000058 0.038347 0.000038
0.012215 0.035868 0.000000
0.033777 0.033379 0.000006
0.063865 0.030601 0.000006
0.097675 0.027006 0.000000
0.127345 0.022721 0.000000
0.161609 0.016477 0.000000
0.200672 0.008287 0.000000
0.246757 0.000079 0.000000
0.298905 0.000000 0.000000
0.357217 0.000000 0.000000
0.420870 0.000000 0.000000
0.487975 0.000000 0.000000
0.559710 0.000000 0.000000
0.634526 0.000000 0.000000
0.707260 0.000000 0.000000
0.773723 0.000000 0.000000
0.833723 0.000000 0.000000
0.885908 0.000000 0.000000
0.929152 0.000000 0.000000
0.965409 0.000000 0.000000
0.988176 0.000000 0.000000
0.991954 0.000000 0.000000
0.986077 0.023678 0.018262
0.977459 0.093522 0.122245
0.960977 0.210699 0.219783
0.949972 0.299891 0.299871
0.939488 0.378532 0.367982
0.927179 0.450961 0.426279
0.923052 0.523834 0.489323
0.928703 0.597402 0.556160
0.939950 0.674132 0.626474
0.000016 0.065120 0.000167
0.000014 0.064513 0.000041
0.008771 0.061954 0.000000
0.029368 0.059348 0.000000
0.057747 0.056606 0.000000
0.091468 0.052901 0.000000
0.122909 0.048134 0.000000
0.157823 0.041257 0.000000
0.197257 0.031253 0.000000
0.243703 0.016393 0.000000
0.296718 0.001631 0.000000
0.355353 0.000000 0.000000
0.419374 0.000000 0.000000
0.486750 0.000000 0.000000
0.558681 0.000000 0.000000
0.633691 0.000000 0.000000
0.706634 0.000000 0.000000
0.773247 0.000000 0.000000
0.833359 0.000000 0.000000
0.885615 0.000000 0.000000
0.928901 0.000000 0.000000
0.965206 0.000000 0.000000
0.987990 0.000000 0.000000
0.991958 0.000000 0.000000
0.984430 0.032948 0.016483
0.974647 0.109482 0.119547
0.959597 0.219320 0.218448
0.949135 0.305611 0.299059
0.938985 0.382522 0.367499
0.926994 0.453869 0.426170
0.923033 0.525964 0.489359
0.928743 0.599002 0.556241
0.940001 0.675276 0.626552
0.000000 0.093634 0.000179
0.000000 0.093636 0.000016
0.005536 0.091221 0.000000
0.024700 0.088747 0.000000
0.051826 0.086195 0.000000
0.085082 0.083092 0.000000
0.118113 0.078032 0.000000
0.153753 0.070763 0.000000
0.193563 0.060412 0.000000
0.240182 0.044781 0.000000
0.293641 0.023258 0.000000
0.353269 0.001757 0.000000
0.417821 0.000000 0.000000
0.485483 0.000000 0.000000
0.557634 0.000000 0.000000
0.632864 0.000000 0.000000
0.706007 0.000000 0.000000
0.772776 0.000000 0.000000
0.832978 0.000000 0.000000
0.885328 0.000000 0.000000
0.928649 0.000000 0.000000
0.964962 0.000000 0.000000
0.987813 0.000000 0.000000
0.991962 0.000000 0.000000
0.982700 0.042902 0.014626
0.971916 0.124989 0.116937
0.958248 0.227752 0.217149
0.948312 0.311234 0.298263
0.938488 0.386461 0.367022
0.926810 0.456748 0.426063
0.923014 0.528078 0.489395
0.928783 0.600594 0.556322
0.940050 0.676415 0.626630
0.000000 0.124282 0.000171
0.000000 0.124629 0.000128
0.002160 0.122443 0.000000
0.018531 0.120258 0.000000
0.044126 0.117994 0.000000
0.076538 0.115269 0.000000
0.112306 0.111130 0.000000
0.148361 0.104367 0.000000
0.188789 0.094918 0.000000
0.235798 0.079555 0.000000
0.289551 0.057065 0.000000
0.349417 0.028843 0.000000
0.415378 0.003490 0.000000
0.483924 0.000000 0.000000
0.556336 0.000000 0.000000
0.631824 0.000000 0.000000
0.705215 0.000000 0.000000
0.772175 0.000000 0.000000
0.832512 0.000000 0.000000
0.884935 0.000000 0.000000
0.928344 0.000000 0.000000
0.964669 0.000000 0.000000
0.987770 0.000000 0.000000
0.991967 0.000000 0.000000
0.980573 0.056376 0.012701
0.968709 0.143418 0.113892
0.956601 0.238047 0.215569
0.947301 0.318139 0.297289
0.937876 0.391318 0.366436
0.926583 0.460310 0.425932
0.922991 0.530701 0.489440
0.928832 0.602572 0.556423
0.940113 0.677833 0.626727
0.000000 0.155026 0.000097
0.000000 0.155423 0.000111
0.000000 0.154106 0.000000
0.009817 0.152306 0.000000
0.033365 0.150553 0.000000
0.064293 0.148517 0.000000
0.103587 0.145240 0.000000
0.141623 0.140371 0.000000
0.182026 0.131780 0.000000
0.229684 0.119307 0.000000
0.283963 0.100241 0.000000
0.343780 0.073744 0.000000
0.410034 0.041042 0.000000
0.480196 0.011997 0.000000
0.554501 0.000000 0.000000
0.630354 0.000000 0.000000
0.704092 0.000000 0.000000
0.771324 0.000000 0.000000
0.831817 0.000000 0.000000
0.884394 0.000000 0.000000
0.927863 0.000000 0.000000
0.964270 0.000000 0.000000
0.987727 0.000000 0.000000
0.989605 0.022050 0.000000
0.978388 0.076700 0.012884
0.964539 0.167718 0.109963
0.954383 0.251971 0.213458
0.945918 0.327588 0.295962
0.937033 0.398002 0.365633
0.926269 0.465235 0.425751
0.922959 0.534339 0.489503
0.928901 0.605323 0.556563
0.940199 0.679810 0.626862
0.000000 0.189391 0.000000
0.000000 0.189730 0.000000
0.000000 0.189325 0.000000
0.002024 0.187889 0.000000
0.019959 0.186509 0.000000
0.047910 0.185018 0.000000
0.090285 0.182464 0.000000
0.131675 0.178798 0.000000
0.174387 0.172888 0.000000
0.221406 0.161189 0.000000
0.276658 0.145500 0.000000
0.336739 0.124071 0.000000
0.402804 0.096618 0.000000
0.472737 0.064400 0.000000
0.548274 0.033557 0.000000
0.627193 0.008435 0.000000
0.702253 0.002140 0.000000
0.770141 0.000000 0.000000
0.830880 0.000000 0.000000
0.883628 0.000000 0.000000
0.927242 0.000000 0.000000
0.963856 0.000000 0.000000
0.987391 0.000000 0.000000
0.986276 0.053123 0.000000
0.975003 0.112342 0.010500
0.961657 0.197651 0.108361
0.951595 0.269577 0.210831
0.944153 0.339691 0.294277
0.935944 0.406639 0.364601
0.925862 0.471634 0.425519
0.922916 0.539089 0.489587
0.928992 0.608928 0.556748
0.940313 0.682406 0.627040
0.000000 0.229407 0.000000
0.000000 0.229711 0.000000
0.000000 0.230014 0.000000
0.000000 0.228909 0.000000
0.004936 0.227817 0.000000
0.027704 0.226822 0.000000
0.067315 0.225262 0.000000
0.116045 0.222351 0.000000
0.162508 0.218136 0.000000
0.212566 0.210567 0.000000
0.266761 0.195081 0.000000
0.327525 0.177416 0.000000
0.394049 0.155484 0.000000
0.463419 0.130861 0.000000
0.538153 0.104529 0.000000
0.617689 0.075423 0.000000
0.695127 0.046790 0.000000
0.765293 0.027252 0.000000
0.828240 0.011773 0.000000
0.881660 0.008645 0.000000
0.924538 0.013155 0.000000
0.961855 0.009434 0.000000
0.982583 0.044953 0.000000
0.981517 0.098656 0.000000
0.970753 0.157670 0.007158
0.958963 0.226335 0.107195
0.949294 0.291754 0.209332
0.941922 0.355051 0.292165
0.934551 0.417707 0.363290
0.925335 0.479903 0.425224
0.922862 0.545261 0.489699
0.929110 0.613634 0.556992
0.940463 0.685808 0.627275
0.000000 0.276658 0.000000
0.000000 0.276933 0.000000
0.000000 0.277206 0.000000
0.000000 0.277091 0.000000
0.000000 0.276189 0.000000
0.003366 0.275389 0.000000
0.036099 0.274442 0.000000
0.091167 0.272587 0.000000
0.143583 0.269453 0.000000
0.197929 0.264360 0.000000
0.257137 0.254673 0.000000
0.315445 0.235872 0.000000
0.382799 0.217097 0.000000
0.452641 0.197014 0.000000
0.527067 0.176917 0.000000
0.606390 0.156931 0.000000
0.683916 0.135499 0.000000
0.754618 0.113578 0.000000
0.818136 0.091119 0.000000
0.872798 0.079324 0.000000
0.917477 0.069527 0.000000
0.953093 0.081924 0.000000
0.974479 0.117280 0.000000
0.976008 0.156491 0.000000
0.965991 0.208513 0.004991
0.955803 0.259970 0.105995
0.947003 0.316172 0.208151
0.939863 0.374386 0.290703
0.932786 0.431763 0.361645
0.924647 0.490481 0.424839
0.922792 0.553237 0.489848
0.929264 0.619749 0.557310
0.940658 0.690249 0.627582
0.000000 0.329339 0.000000
0.000000 0.329568 0.000000
0.000000 0.329796 0.000000
0.000000 0.330024 0.000000
0.000000 0.329763 0.000000
0.000000 0.329040 0.000000
0.004202 0.328188 0.000000
0.053783 0.327009 0.000000
0.114659 0.324990 0.000000
0.175023 0.321169 0.000000
0.239765 0.314663 0.000000
0.305531 0.303070 0.000000
0.369355 0.280854 0.000000
0.439598 0.262339 0.000000
0.514715 0.245354 0.000000
0.594677 0.229650 0.000000
0.672826 0.213915 0.000000
0.743827 0.198221 0.000000
0.807226 0.183863 0.000000
0.862163 0.171702 0.000000
0.906969 0.166584 0.000000
0.943192 0.174275 0.000000
0.967002 0.191352 0.000000
0.969997 0.221030 0.000000
0.961502 0.256575 0.004431
0.952099 0.299428 0.105474
0.944250 0.345508 0.206832
0.937813 0.396341 0.289560
0.930971 0.449302 0.360304
0.923755 0.503888 0.424344
0.922702 0.563452 0.490047
0.929463 0.627651 0.557727
0.940913 0.696020 0.627985
0.000000 0.388962 0.000000
0.000000 0.389159 0.000000
0.000000 0.389356 0.000000
0.000000 0.389553 0.000000
0.000000 0.389750 0.000000
0.000000 0.389610 0.000000
0.000000 0.388846 0.000000
0.003173 0.387808 0.000000
0.071287 0.386161 0.000000
0.141065 0.383620 0.000000
0.212905 0.378555 0.000000
0.286377 0.370762 0.000000
0.360164 0.357529 0.000000
0.425566 0.333327 0.000000
0.499964 0.315966 0.000000
0.581403 0.302431 0.000000
0.660863 0.289138 0.000000
0.732823 0.276051 0.000000
0.796785 0.263912 0.000000
0.852286 0.253913 0.000000
0.897489 0.248645 0.000000
0.934488 0.251388 0.000000
0.959429 0.262917 0.000000
0.964443 0.281324 0.000000
0.956660 0.308546 0.002370
0.948207 0.340886 0.105332
0.940978 0.380371 0.205459
0.935337 0.422850 0.288260
0.929085 0.469565 0.359214
0.922403 0.520327 0.423533
0.922589 0.576418 0.490313
0.929723 0.637776 0.558271
0.941242 0.703478 0.628509
0.000000 0.453553 0.000000
0.000000 0.453710 0.000000
0.000000 0.453867 0.000000
0.000000 0.454023 0.000000
0.000000 0.454179 0.000000
0.000000 0.454336 0.000000
0.000000 0.454374 0.000000
0.000000 0.453435 0.000000
0.005812 0.451827 0.000000
0.093929 0.449158 0.000000
0.174652 0.445359 0.000000
0.257480 0.438767 0.000000
0.339670 0.429901 0.000000
0.417897 0.415806 0.000000
0.486715 0.391416 0.000000
0.566390 0.375095 0.000000
0.647659 0.362896 0.000000
0.721122 0.350930 0.000000
0.786044 0.339614 0.000000
0.842380 0.329768 0.000000
0.888304 0.323641 0.000000
0.925968 0.323108 0.000000
0.952415 0.329433 0.000000
0.958802 0.342627 0.000000
0.951774 0.361585 0.002691
0.943838 0.387395 0.105334
0.937477 0.417896 0.204435
0.932378 0.454525 0.286853
0.926801 0.494108 0.357964
0.921308 0.539542 0.423143
0.922072 0.592203 0.490308
0.930061 0.650631 0.558980
0.941665 0.713045 0.629189
0.000000 0.519293 0.000000
0.000000 0.519407 0.000000
0.000000 0.519522 0.000000
0.000000 0.519636 0.000000
0.000000 0.519750 0.000000
0.000000 0.519864 0.000000
0.000000 0.520007 0.000000
0.000000 0.520161 0.000000
0.000000 0.519028 0.000000
0.019842 0.516515 0.000000
0.123875 0.512267 0.000000
0.218227 0.506531 0.000000
0.309402 0.498580 0.000000
0.398355 0.489226 0.000000
0.480411 0.475033 0.000000
0.554246 0.450353 0.000000
0.633252 0.433683 0.000000
0.708545 0.422071 0.000000
0.774799 0.411255 0.000000
0.832227 0.401591 0.000000
0.879019 0.394737 0.000000
0.917335 0.392434 0.000000
0.945499 0.395221 0.000000
0.953235 0.403817 0.000000
0.946577 0.417622 0.000967
0.939340 0.435776 0.106920
0.933512 0.460391 0.203615
0.929145 0.489216 0.285701
0.924067 0.523478 0.356585
0.920086 0.562893 0.422835
0.921581 0.611077 0.490496
0.930064 0.666257 0.559481
0.942205 0.725209 0.630068
0.000000 0.585292 0.000000
0.000000 0.585377 0.000000
0.000000 0.585462 0.000000
0.000000 0.585547 0.000000
0.000000 0.585631 0.000000
0.000000 0.585716 0.000000
0.000000 0.585822 0.000000
0.000000 0.585970 0.000000
0.000000 0.586167 0.000000
0.000000 0.584850 0.000000
0.041644 0.581378 0.000000
0.164105 0.575668 0.000000
0.268938 0.568337 0.000000
0.368767 0.559454 0.000000
0.461692 0.549951 0.000000
0.548333 0.534627 0.000000
0.622325 0.509300 0.000000
0.695077 0.492602 0.000000
0.762574 0.481379 0.000000
0.821514 0.471616 0.000000
0.869355 0.464047 0.000000
0.908404 0.460125 0.000000
0.938287 0.460289 0.000000
0.947641 0.464983 0.000000
0.941369 0.474176 0.000330
0.934541 0.487506 0.109234
0.929349 0.505295 0.203648
0.925463 0.528720 0.284683
0.921231 0.555487 0.355522
0.918498 0.590718 0.422433
0.921058 0.634110 0.490857
0.929856 0.684134 0.559900
0.942448 0.739978 0.630764
0.000000 0.649739 0.000000
0.000000 0.649798 0.000000
0.000000 0.649858 0.000157
0.000000 0.649918 0.000524
0.000000 0.649978 0.000891
0.000000 0.650039 0.001258
0.000000 0.650114 0.001718
0.000000 0.650220 0.002362
0.000000 0.650360 0.003216
0.000000 0.650545 0.004347
0.000000 0.649002 0.002651
0.074711 0.644274 0.000000
0.213177 0.637008 0.000000
0.328021 0.628434 0.000000
0.431688 0.618949 0.000000
0.529904 0.609142 0.000000
0.617156 0.591929 0.000000
0.685837 0.566912 0.000000
0.750398 0.550203 0.000000
0.810181 0.539173 0.000000
0.859259 0.531013 0.000000
0.899187 0.525909 0.000000
0.930114 0.524123 0.000000
0.941900 0.525960 0.000000
0.936144 0.531362 0.004282
0.929685 0.540406 0.112708
0.924895 0.553535 0.204511
0.921667 0.570129 0.284339
0.918032 0.591891 0.354589
0.916394 0.621754 0.421881
0.920352 0.661616 0.491298
0.929640 0.705842 0.560498
0.942306 0.754991 0.631214
0.000000 0.711885 0.008928
0.000000 0.711927 0.009300
0.000000 0.711968 0.009672
0.000000 0.712010 0.010044
0.000000 0.712052 0.010416
0.000000 0.712094 0.010788
0.000000 0.712146 0.011253
0.000000 0.712219 0.011901
0.000000 0.712314 0.012755
0.000000 0.712440 0.013887
0.000000 0.712608 0.015638
0.000000 0.710692 0.008978
0.118134 0.704305 0.001950
0.268380 0.695523 0.000000
0.390110 0.686008 0.000000
0.498561 0.676155 0.000000
0.600031 0.665804 0.000000
0.681691 0.647190 0.000000
0.743090 0.623337 0.000000
0.799990 0.606501 0.000000
0.848874 0.596057 0.000000
0.889669 0.589808 0.000000
0.921607 0.586388 0.000000
0.935262 0.585913 0.000000
0.930956 0.588269 0.015128
0.924854 0.593431 0.117138
0.920448 0.602328 0.206532
0.917593 0.614889 0.284663
0.914535 0.631398 0.354036
0.914107 0.657456 0.421590
0.918680 0.691010 0.491087
0.929311 0.731776 0.561234
0.942145 0.772935 0.631826
0.000000 0.770651 0.026402
0.000000 0.770678 0.027027
0.000000 0.770705 0.027653
0.000000 0.770732 0.028279
0.000000 0.770759 0.028904
0.000000 0.770786 0.029530
0.000000 0.770820 0.030313
0.000000 0.770867 0.031411
0.000000 0.770930 0.032866
0.000000 0.771013 0.034794
0.000000 0.771120 0.037314
0.000000 0.771261 0.040652
0.000000 0.768896 0.030787
0.170667 0.760243 0.006807
0.329655 0.750160 0.000000
0.455216 0.740023 0.000000
0.568826 0.729782 0.000000
0.666789 0.718665 0.000000
0.739823 0.699794 0.000000
0.795097 0.677046 0.000000
0.841342 0.661079 0.000000
0.880913 0.651654 0.000000
0.913083 0.646380 0.000000
0.928781 0.644197 0.000000
0.925987 0.644516 0.028370
0.920111 0.647314 0.123705
0.915968 0.653015 0.209497
0.913407 0.661964 0.285721
0.910746 0.674322 0.353984
0.911009 0.694719 0.421089
0.916828 0.724571 0.491114
0.927890 0.756694 0.561157
0.941912 0.794441 0.632597
0.000000 0.828130 0.054562
0.000000 0.828148 0.055156
0.000000 0.828166 0.055750
0.000000 0.828183 0.056343
0.000000 0.828201 0.056937
0.000000 0.828219 0.057530
0.000000 0.828242 0.058273
0.000000 0.828273 0.059315
0.000000 0.828313 0.060699
0.000000 0.828365 0.062535
0.000000 0.828433 0.064968
0.000000 0.828515 0.067955
0.000000 0.828621 0.071824
0.000000 0.825552 0.060085
0.227736 0.814381 0.022642
0.393493 0.803290 0.000000
0.525146 0.792708 0.000000
0.637785 0.782248 0.000000
0.727032 0.770622 0.000000
0.793138 0.752242 0.000000
0.839303 0.732036 0.000000
0.876393 0.717702 0.000000
0.907225 0.708935 0.000000
0.923100 0.703476 0.002155
0.922029 0.701459 0.045938
0.915903 0.701760 0.133626
0.911907 0.704692 0.214754
0.909415 0.709911 0.288014
0.907139 0.718527 0.354790
0.907679 0.734150 0.421038
0.914143 0.756262 0.490814
0.926296 0.784423 0.561296
0.940759 0.813955 0.632704
0.000000 0.883368 0.084387
0.000000 0.883380 0.084758
0.000000 0.883391 0.085127
0.000000 0.883402 0.085494
0.000000 0.883413 0.085860
0.000000 0.883424 0.086224
0.000000 0.883439 0.086677
0.000000 0.883459 0.087307
0.000000 0.883484 0.088153
0.000000 0.883514 0.089345
0.000000 0.883554 0.090899
0.000000 0.883607 0.092915
0.000000 0.883681 0.095515
0.000000 0.883780 0.098843
0.011034 0.879432 0.084648
0.291090 0.865785 0.041041
0.460755 0.853855 0.001630
0.596417 0.842841 0.000000
0.701129 0.832280 0.000000
0.781683 0.820246 0.000000
0.838228 0.803507 0.000000
0.876524 0.786711 0.000000
0.905888 0.773723 0.001695
0.920988 0.764174 0.007633
0.921327 0.759131 0.069944
0.914785 0.756680 0.149947
0.909918 0.755820 0.224373
0.907286 0.757049 0.293779
0.905262 0.760940 0.358382
0.904825 0.770871 0.422169
0.911632 0.788820 0.491317
0.924251 0.809473 0.561509
0.939524 0.835413 0.633100
0.000000 0.931279 0.111501
0.000000 0.931284 0.111797
0.000000 0.931289 0.112092
0.000000 0.931292 0.112426
0.000000 0.931295 0.112761
0.000000 0.931298 0.113094
0.000000 0.931302 0.113510
0.000000 0.931307 0.114090
0.000000 0.931315 0.114854
0.000000 0.931325 0.115856
0.000000 0.931338 0.117169
0.000000 0.931357 0.118882
0.000000 0.931384 0.121106
0.000000 0.931421 0.123977
0.000000 0.931473 0.127656
0.047169 0.924800 0.110360
0.357486 0.909178 0.064539
0.532429 0.896384 0.020598
0.663835 0.884863 0.006786
0.758628 0.874105 0.000000
0.828278 0.861677 0.000000
0.875108 0.847044 0.000000
0.906336 0.832049 0.022075
0.923289 0.819896 0.037931
0.925087 0.812574 0.105203
0.918271 0.808466 0.174431
0.913032 0.805029 0.241916
0.909399 0.802392 0.305777
0.906654 0.801855 0.366652
0.906037 0.806907 0.428416
0.911194 0.819005 0.494624
0.922816 0.835051 0.562934
0.938617 0.854837 0.634287
0.000000 0.941622 0.143529
0.000000 0.941621 0.143831
0.000000 0.941620 0.144133
0.000000 0.941619 0.144434
0.000000 0.941618 0.144734
0.000000 0.941618 0.145033
0.000000 0.941616 0.145407
0.000000 0.941615 0.145929
0.000000 0.941613 0.146617
0.000000 0.941610 0.147522
0.000000 0.941607 0.148712
0.000000 0.941603 0.150270
0.000000 0.941597 0.152304
0.000000 0.941589 0.154947
0.000000 0.941580 0.158360
0.000000 0.941567 0.162738
0.124417 0.937252 0.141711
0.427716 0.929287 0.097753
0.604413 0.924454 0.062578
0.724589 0.915929 0.042769
0.808999 0.904755 0.020437
0.866177 0.892633 0.036254
0.904662 0.879042 0.054064
0.925680 0.866351 0.090181
0.931276 0.857492 0.145650
0.925055 0.853468 0.206611
0.919808 0.848971 0.266365
0.915987 0.844319 0.324709
0.912670 0.840848 0.381324
0.910861 0.841646 0.439606
0.914991 0.848970 0.503182
0.924790 0.859824 0.568486
0.938422 0.874731 0.636704
0.000000 0.939721 0.182249
0.000000 0.939720 0.182535
0.000000 0.939719 0.182819
0.000000 0.939718 0.183103
0.000000 0.939717 0.183387
0.000000 0.939715 0.183670
0.000000 0.939714 0.184024
0.000000 0.939712 0.184518
0.000000 0.939709 0.185171
0.000000 0.939706 0.186031
0.000000 0.939701 0.187164
0.000000 0.939695 0.188652
0.000000 0.939687 0.190602
0.000000 0.939676 0.193148
0.000000 0.939662 0.196457
0.000000 0.939644 0.200733
0.000000 0.939620 0.206220
0.199702 0.935433 0.182671
0.502616 0.930455 0.144665
0.672174 0.927583 0.118535
0.780974 0.923251 0.100573
0.850659 0.919688 0.101967
0.897310 0.913345 0.116602
0.925162 0.901740 0.147926
0.936436 0.891884 0.187338
0.930940 0.887800 0.240104
0.926640 0.884004 0.294693
0.923414 0.879151 0.347342
0.920515 0.874743 0.400007
0.918700 0.873792 0.455507
0.921313 0.877498 0.515567
0.929486 0.883985 0.577755
0.941213 0.894464 0.642734
0.000000 0.937383 0.229581
0.000000 0.937382 0.229826
0.000000 0.937381 0.230072
0.000000 0.937381 0.230316
0.000000 0.937380 0.230561
0.000000 0.937379 0.230805
0.000000 0.937378 0.231110
0.000000 0.937377 0.231537
0.000000 0.937376 0.232101
0.000000 0.937373 0.232846
0.000000 0.937371 0.233829
0.000000 0.937367 0.235122
0.000000 0.937362 0.236821
0.000000 0.937355 0.239047
0.000000 0.937347 0.241954
0.000000 0.937336 0.245734
0.000000 0.937321 0.250620
0.000000 0.937302 0.256892
0.274527 0.931779 0.230920
0.577963 0.926718 0.198690
0.733441 0.924059 0.180130
0.828119 0.922208 0.172435
0.884297 0.918759 0.181435
0.918665 0.912836 0.200595
0.936596 0.906024 0.232200
0.933878 0.906044 0.274093
0.930429 0.905982 0.322099
0.928791 0.905129 0.371318
0.926540 0.900266 0.419431
0.925711 0.899164 0.472617
0.928321 0.902314 0.530284
0.935315 0.905990 0.589414
0.945298 0.912509 0.650957
0.000000 0.936468 0.284423
0.000000 0.936477 0.284648
0.000000 0.936487 0.284873
0.000000 0.936497 0.285098
0.000000 0.936506 0.285323
0.000000 0.936516 0.285547
0.000000 0.936528 0.285827
0.000000 0.936545 0.286220
0.000000 0.936567 0.286739
0.000000 0.936596 0.287425
0.000000 0.936635 0.288331
0.000000 0.936686 0.289525
0.000000 0.936753 0.291098
0.000000 0.936841 0.293164
0.000000 0.936957 0.295872
0.000000 0.937108 0.299408
0.000000 0.937305 0.304007
0.000000 0.937558 0.309954
0.000000 0.937882 0.317590
0.348597 0.928866 0.287230
0.648204 0.923833 0.258987
0.787973 0.921330 0.245689
0.866138 0.919181 0.245320
0.908997 0.913390 0.256728
0.930848 0.907427 0.276448
0.933494 0.905884 0.310148
0.930138 0.906223 0.349082
0.928634 0.905764 0.392079
0.927592 0.905503 0.437058
0.928956 0.909906 0.488458
0.932647 0.916473 0.544270
0.940292 0.922790 0.601849
0.949571 0.927601 0.660527
0.000000 0.941005 0.351206
0.000000 0.941039 0.351412
0.000000 0.941074 0.351618
0.000000 0.941109 0.351824
0.000000 0.941143 0.352030
0.000000 0.941178 0.352236
0.000000 0.941221 0.352493
0.000000 0.941281 0.352853
0.000000 0.941361 0.353330
0.000000 0.941467 0.353960
0.000000 0.941606 0.354793
0.000000 0.941791 0.355892
0.000000 0.942034 0.357342
0.000000 0.942354 0.359252
0.000000 0.942775 0.361761
0.000000 0.943326 0.365049
0.000000 0.944046 0.369344
0.000000 0.944983 0.374930
0.000000 0.946194 0.382155
0.000000 0.947744 0.391428
0.423900 0.926451 0.347143
0.711262 0.921604 0.321006
0.832952 0.919220 0.311193
0.896008 0.914879 0.313573
0.923701 0.907869 0.325361
0.932173 0.904129 0.346997
0.929452 0.904514 0.380143
