lut/Sony/NewLook/SL3SG3CtoCool_709.cube
# Copyright 2023 SONY
# Cool 709 LUT
# S-Log3/S-Gamut3.Cine to Rec.709
# 
LUT_3D_SIZE 9
0.000000 0.000000 0.000000
0.055543 0.000000 0.000000
0.150103 0.000000 0.000000
0.391638 0.000000 0.000000
0.660578 0.000000 0.000000
0.906188 0.000000 0.000000
0.999756 0.000000 0.000000
0.999954 0.000000 0.000000
1.000000 0.000000 0.000000
0.000000 0.066224 0.000000
0.051377 0.056336 0.000000
0.152010 0.039612 0.000000
0.420737 0.000000 0.000000
0.688823 0.000000 0.000000
0.927337 0.000000 0.000000
0.999802 0.000000 0.000000
0.999954 0.000000 0.000000
1.000000 0.000000 0.000000
0.000000 0.191882 0.000000
0.043519 0.192050 0.000000
0.147265 0.180072 0.000000
0.409033 0.128435 0.000000
0.671489 0.007065 0.000000
0.907637 0.000000 0.000000
0.999741 0.000000 0.000000
0.999954 0.000000 0.000000
1.000000 0.000000 0.000000
0.000000 0.471489 0.002594
0.009552 0.467399 0.000992
0.131350 0.443656 0.000000
0.405707 0.415412 0.000000
0.658000 0.355489 0.000000
0.889982 0.248112 0.000000
0.999710 0.127520 0.000000
0.999954 0.103395 0.000000
1.000000 0.084306 0.000000
0.000000 0.727245 0.006790
0.000000 0.711482 0.002014
0.062852 0.687739 0.000000
0.358679 0.675074 0.000000
0.640253 0.650965 0.000000
0.887694 0.608270 0.000000
0.999741 0.577020 0.000000
0.999954 0.567285 0.000000
1.000000 0.560388 0.000000
0.000000 0.950530 0.010285
0.000000 0.948455 0.006729
0.001205 0.939025 0.000275
0.327306 0.934737 0.000000
0.623148 0.919036 0.000000
0.875990 0.890410 0.000000
0.999588 0.869993 0.000000
0.999954 0.863600 0.000000
1.000000 0.859022 0.000000
0.000000 0.999802 0.016220
0.000000 0.999802 0.012726
0.000000 0.999786 0.006317
0.305074 0.999802 0.000000
0.611627 0.999802 0.000000
0.868132 0.999802 0.000000
0.999451 0.999802 0.000000
0.999954 0.999695 0.000000
1.000000 0.999603 0.000000
0.000000 0.999969 0.018113
0.000000 0.999969 0.014618
0.000000 0.999969 0.008255
0.296834 0.999969 0.000000
0.607706 0.999969 0.000000
0.865370 0.999969 0.000000
0.999329 0.999969 0.000000
0.999954 0.999969 0.000000
1.000000 0.999969 0.000000
0.000000 1.000000 0.019318
0.000000 1.000000 0.015824
0.000000 1.000000 0.009415
0.291508 1.000000 0.000000
0.605341 1.000000 0.000000
0.863798 1.000000 0.000000
0.999359 1.000000 0.000000
0.999954 1.000000 0.000000
1.000000 1.000000 0.000000
0.000000 0.000000 0.052781
0.048325 0.000000 0.045701
0.145083 0.000000 0.032898
0.389288 0.000000 0.000000
0.660471 0.000000 0.000000
0.907698 0.000000 0.000000
0.999771 0.000000 0.000000
0.999954 0.000000 0.000000
1.000000 0.000000 0.000000
0.000000 0.056748 0.053056
0.044450 0.047166 0.046998
0.149187 0.030915 0.036332
0.423407 0.000000 0.000000
0.689921 0.000000 0.000000
0.927504 0.000000 0.000000
0.999802 0.000000 0.000000
0.999954 0.000000 0.000000
1.000000 0.000000 0.000000
0.000000 0.189090 0.055039
0.036469 0.187808 0.050217
0.142885 0.175250 0.037766
0.407385 0.121141 0.000000
0.669413 0.005386 0.000000
0.905257 0.000000 0.000000
0.999741 0.000000 0.000000
0.999954 0.000000 0.000000
1.000000 0.000000 0.000000
0.000000 0.469047 0.072129
0.005341 0.462058 0.064256
0.124773 0.437949 0.047135
0.398215 0.407935 0.000183
0.651835 0.345388 0.000000
0.885252 0.236027 0.000000
0.999710 0.121889 0.000000
0.999954 0.097673 0.000000
1.000000 0.077882 0.000000
0.000000 0.721584 0.081758
0.000000 0.705608 0.069871
0.054047 0.682734 0.052430
0.356146 0.673381 0.001801
0.638376 0.648676 0.000000
0.886717 0.606378 0.000000
0.999741 0.575036 0.000000
0.999954 0.565255 0.000000
1.000000 0.558312 0.000000
0.000000 0.949294 0.088731
0.000000 0.947234 0.081559
0.000000 0.937819 0.068376
0.324666 0.933562 0.015885
0.621500 0.917601 0.000000
0.874983 0.889128 0.000000
0.999557 0.868650 0.000000
0.999954 0.861723 0.000000
1.000000 0.857603 0.000000
0.000000 0.999802 0.099931
0.000000 0.999802 0.093553
0.000000 0.999786 0.080796
0.302083 0.999802 0.027680
0.610117 0.999802 0.000000
0.867048 0.999802 0.000000
0.999390 0.999802 0.000000
0.999954 0.999619 0.000000
1.000000 0.999557 0.000000
0.000000 0.999969 0.103426
0.000000 0.999969 0.097047
0.000000 0.999969 0.084733
0.293385 0.999969 0.031510
0.606134 0.999969 0.000000
0.864256 0.999969 0.000000
0.999252 0.999969 0.000000
0.999954 0.999969 0.000000
1.000000 0.999969 0.000000
0.000000 1.000000 0.105562
0.000000 1.000000 0.099291
0.000000 1.000000 0.087098
0.287953 1.000000 0.033905
0.603784 1.000000 0.000000
0.862699 1.000000 0.000000
0.999207 1.000000 0.000000
0.999954 1.000000 0.000000
1.000000 1.000000 0.000000
0.000000 0.000000 0.197650
0.028122 0.000000 0.193271
0.129793 0.000000 0.181186
0.379644 0.000000 0.150973
0.655741 0.000000 0.059190
0.906050 0.000000 0.000000
0.999771 0.000000 0.000000
0.999954 0.000000 0.000000
1.000000 0.000000 0.000000
0.000000 0.030213 0.197482
0.024323 0.020462 0.196490
0.135653 0.004974 0.192264
0.418509 0.000000 0.166155
0.685222 0.000000 0.086732
0.923461 0.000000 0.000000
0.999786 0.000000 0.000000
0.999954 0.000000 0.000000
1.000000 0.000000 0.000000
0.000000 0.173709 0.200793
0.015915 0.171023 0.200183
0.127352 0.157397 0.191012
0.397452 0.096010 0.158953
0.661875 0.001190 0.066346
0.898894 0.000000 0.000000
0.999725 0.000000 0.000000
0.999939 0.000000 0.000000
1.000000 0.000000 0.000000
0.000000 0.456962 0.225803
0.000000 0.447959 0.218524
0.104677 0.422568 0.199527
0.381628 0.391165 0.160967
0.641703 0.327184 0.062959
0.878080 0.212909 0.000000
0.999710 0.102602 0.000000
0.999939 0.076875 0.000000
1.000000 0.056229 0.000000
0.000000 0.708919 0.222827
0.000000 0.693721 0.209262
0.032837 0.674281 0.192615
0.345251 0.666468 0.163958
0.632074 0.641245 0.076616
0.881849 0.598520 0.000000
0.999725 0.566369 0.000000
0.999954 0.555474 0.000000
1.000000 0.549157 0.000000
0.000000 0.943160 0.216495
0.000000 0.941619 0.212604
0.000000 0.932448 0.201617
0.312200 0.927764 0.174243
0.615106 0.912016 0.092653
0.870039 0.883375 0.000000
0.999237 0.862531 0.000000
0.999954 0.855375 0.000000
1.000000 0.851255 0.000000
0.000000 0.999802 0.223377
0.000000 0.999802 0.219638
0.000000 0.999786 0.209064
0.287922 0.999802 0.182040
0.603342 0.999802 0.103761
0.861921 0.999802 0.000000
0.998688 0.999802 0.000000
0.999954 0.999222 0.000000
1.000000 0.999023 0.000000
0.000000 0.999969 0.225635
0.000000 0.999969 0.221805
0.000000 0.999969 0.211307
0.279072 0.999969 0.184375
0.599222 0.999969 0.106966
0.859037 0.999969 0.000000
0.998245 0.999969 0.000000
0.999954 0.999969 0.000000
1.000000 0.999969 0.000000
0.000000 1.000000 0.226978
0.000000 1.000000 0.223117
0.000000 1.000000 0.212619
0.273991 1.000000 0.185824
0.596857 1.000000 0.109087
0.857496 1.000000 0.000000
0.998215 1.000000 0.000000
0.999954 1.000000 0.000000
1.000000 1.000000 0.000000
0.000000 0.000000 0.389639
0.000000 0.000000 0.386709
0.088975 0.000000 0.375463
0.368338 0.000000 0.364553
0.650996 0.000000 0.335943
0.903548 0.000000 0.289738
0.999771 0.000000 0.263127
0.999954 0.000000 0.263706
1.000000 0.000000 0.263844
0.000000 0.000000 0.390173
0.000000 0.000000 0.395148
0.095155 0.000000 0.395697
0.409461 0.000000 0.392981
0.678431 0.000000 0.369131
0.918227 0.000000 0.320882
0.999802 0.000000 0.286213
0.999954 0.000000 0.271153
1.000000 0.000000 0.249424
0.000000 0.129992 0.395361
0.000000 0.125246 0.398032
0.083909 0.108003 0.389471
0.384222 0.028778 0.377249
0.652445 0.000000 0.340841
0.891783 0.000000 0.272923
0.999725 0.000000 0.207904
0.999939 0.000000 0.162844
1.000000 0.000000 0.122957
0.000000 0.438193 0.425116
0.000000 0.427726 0.416648
0.053681 0.400885 0.395392
0.361227 0.366659 0.371054
0.630213 0.299321 0.325887
0.872343 0.176501 0.255680
0.999710 0.072389 0.197513
0.999939 0.037171 0.174166
1.000000 0.013397 0.161624
0.000000 0.694118 0.412192
0.000000 0.679744 0.396429
0.005325 0.664897 0.381628
0.330541 0.656367 0.369635
0.624521 0.630793 0.336187
0.876936 0.587213 0.276524
0.999634 0.554543 0.226078
0.999954 0.543648 0.207904
1.000000 0.537087 0.196033
0.000000 0.936873 0.399588
0.000000 0.935347 0.397223
0.000000 0.926238 0.386404
0.296345 0.921263 0.374594
0.607324 0.905303 0.341970
0.865019 0.876341 0.283391
0.999084 0.855100 0.233845
0.999954 0.848264 0.216175
1.000000 0.844068 0.204303
0.000000 0.999802 0.403967
0.000000 0.999802 0.401724
0.000000 0.999786 0.391073
0.270924 0.999802 0.379065
0.595392 0.999802 0.346410
0.856840 0.999802 0.288487
0.998398 0.999435 0.239597
0.999954 0.999039 0.222477
1.000000 0.998947 0.210864
0.000000 0.999969 0.405402
0.000000 0.999969 0.402991
0.000000 0.999969 0.391943
0.261524 0.999969 0.380209
0.591226 0.999969 0.347570
0.853971 0.999969 0.289860
0.996765 0.999969 0.241199
0.999954 0.999969 0.224201
1.000000 0.999969 0.212696
0.000000 1.000000 0.406256
0.000000 1.000000 0.403815
0.000000 1.000000 0.392660
0.256123 1.000000 0.381048
0.588830 1.000000 0.348516
0.852399 1.000000 0.290959
0.995377 1.000000 0.242557
0.999954 1.000000 0.225666
1.000000 1.000000 0.214237
0.000000 0.000000 0.627741
0.000000 0.000000 0.625406
0.004730 0.000000 0.615747
0.336797 0.000000 0.612696
0.635828 0.000000 0.602640
0.892897 0.000000 0.583124
0.999786 0.000000 0.573144
0.999954 0.000000 0.574304
1.000000 0.000000 0.574914
0.000000 0.000000 0.629450
0.000000 0.000000 0.637964
0.005341 0.000000 0.638788
0.381460 0.000000 0.640040
0.661753 0.000000 0.628473
0.905684 0.000000 0.602182
0.999802 0.000000 0.584192
0.999954 0.000000 0.574319
1.000000 0.000000 0.562264
0.000000 0.011521 0.634958
0.000000 0.010269 0.637766
0.000855 0.005737 0.630060
0.350393 0.000000 0.623652
0.632212 0.000000 0.601938
0.876967 0.000000 0.562753
0.999191 0.000000 0.527108
0.999939 0.000000 0.503655
1.000000 0.000000 0.488685
0.000000 0.395544 0.657191
0.000000 0.382895 0.650095
0.000000 0.352789 0.631189
0.319982 0.314137 0.613062
0.607736 0.235111 0.584619
0.859815 0.081468 0.548486
0.998383 0.000137 0.523583
0.999954 0.000000 0.514656
1.000000 0.000000 0.510338
0.000000 0.666560 0.642802
0.000000 0.653284 0.630335
0.000000 0.641443 0.619516
0.293004 0.631739 0.614023
0.605615 0.605325 0.597009
0.864210 0.559609 0.565972
0.999542 0.525200 0.543236
0.999954 0.513970 0.535927
1.000000 0.506905 0.531487
0.000000 0.920958 0.633310
0.000000 0.919463 0.631754
0.000000 0.910353 0.622339
0.254658 0.905028 0.617090
0.587793 0.888533 0.600198
0.852049 0.858900 0.569238
0.994583 0.837079 0.546044
0.999954 0.830350 0.538827
1.000000 0.826001 0.534188
0.000000 0.999802 0.636591
0.000000 0.999802 0.635019
0.000000 0.999786 0.625330
0.225116 0.999802 0.619837
0.575402 0.999802 0.602945
0.843656 0.999756 0.571908
0.987366 0.997711 0.548775
0.999954 0.992111 0.541543
1.000000 0.988418 0.536843
0.000000 0.999969 0.637629
0.000000 0.999969 0.635859
0.000000 0.999969 0.625818
0.213916 0.999969 0.620478
0.571145 0.999969 0.603510
0.840558 0.999969 0.572244
0.985016 0.999969 0.549355
0.999954 0.999969 0.542153
1.000000 0.999969 0.537514
0.000000 1.000000 0.638254
0.000000 1.000000 0.636439
0.000000 1.000000 0.626383
0.207401 1.000000 0.621012
0.568658 1.000000 0.604150
0.838758 1.000000 0.572702
0.983581 1.000000 0.550118
0.999954 1.000000 0.542931
1.000000 1.000000 0.537957
0.000000 0.000000 0.862043
0.000000 0.000000 0.860487
0.000000 0.000000 0.852201
0.277699 0.000000 0.852811
0.609049 0.000000 0.848234
0.874556 0.000000 0.835142
0.999557 0.000000 0.828153
0.999954 0.000000 0.828519
1.000000 0.000000 0.828656
0.000000 0.000000 0.865553
0.000000 0.000000 0.873228
0.000000 0.000000 0.873518
0.329915 0.000000 0.873732
0.633555 0.000000 0.865232
0.885222 0.000000 0.846555
0.999451 0.000000 0.833570
0.999954 0.000000 0.825818
1.000000 0.000000 0.816983
0.000000 0.000000 0.869093
0.000000 0.000000 0.870756
0.000000 0.000000 0.864225
0.287938 0.000000 0.858549
0.599023 0.000000 0.842985
0.852689 0.000000 0.815106
0.992905 0.000000 0.788220
0.999939 0.000000 0.770596
1.000000 0.000000 0.763775
0.000000 0.321431 0.883528
0.000000 0.304006 0.876905
0.000000 0.265354 0.862089
0.245792 0.215259 0.847944
0.573053 0.093156 0.827817
0.838392 0.000000 0.805539
0.989685 0.000000 0.789029
0.999954 0.000000 0.783841
1.000000 0.000000 0.781216
0.000000 0.623545 0.870436
0.000000 0.612589 0.863249
0.000000 0.601572 0.854566
0.220844 0.590951 0.851804
0.573556 0.562325 0.841169
0.842649 0.512612 0.820203
0.986633 0.474266 0.804959
0.999954 0.462165 0.800534
1.000000 0.454231 0.797711
0.000000 0.894240 0.866133
0.000000 0.892714 0.864988
0.000000 0.883146 0.856123
0.168750 0.877913 0.853941
0.554635 0.860655 0.843336
0.830091 0.829892 0.822309
0.976120 0.807202 0.806897
0.999954 0.800183 0.802228
1.000000 0.795636 0.799237
0.000000 0.999802 0.868681
0.000000 0.999802 0.867491
0.000000 0.999786 0.858503
0.128084 0.999802 0.856062
0.541360 0.999786 0.845273
0.821302 0.991684 0.824018
0.968719 0.973251 0.808698
0.999954 0.967468 0.803983
1.000000 0.963653 0.800977
0.000000 0.999969 0.869413
0.000000 0.999969 0.868025
0.000000 0.999969 0.858976
0.114519 0.999969 0.856458
0.536812 0.999969 0.845609
0.818021 0.999969 0.824063
0.966339 0.999969 0.809064
0.999954 0.999969 0.804364
1.000000 0.999969 0.801221
0.000000 1.000000 0.869886
0.000000 1.000000 0.868254
0.000000 1.000000 0.859403
0.106203 1.000000 0.856901
0.534112 1.000000 0.846067
0.816373 1.000000 0.824567
0.964874 1.000000 0.809598
0.999954 1.000000 0.804929
1.000000 1.000000 0.801556
0.000000 0.000000 0.996353
0.000000 0.000000 0.995392
0.000000 0.000000 0.991989
0.229435 0.000000 0.989258
0.590936 0.000000 0.980041
0.862638 0.000000 0.964614
0.993561 0.000000 0.955154
0.999954 0.000000 0.953094
1.000000 0.000000 0.951400
0.000000 0.000000 0.997879
0.000000 0.000000 0.998077
0.000000 0.000000 0.997299
0.290394 0.000000 0.994751
0.614771 0.000000 0.984527
0.871611 0.000000 0.967315
0.994049 0.000000 0.956024
0.999954 0.000000 0.951278
1.000000 0.000000 0.946517
0.000000 0.000000 0.998169
0.000000 0.000000 0.997681
0.000000 0.000000 0.995941
0.231968 0.000000 0.990204
0.572076 0.000000 0.977401
0.832334 0.000000 0.956954
0.976974 0.000000 0.939422
0.999939 0.000000 0.930755
1.000000 0.000000 0.927901
0.000000 0.256107 0.999588
0.000000 0.230472 0.998489
0.000000 0.173831 0.994202
0.164385 0.102724 0.985992
0.545190 0.000443 0.972519
0.820996 0.000000 0.954986
0.975204 0.000000 0.941619
0.999954 0.000000 0.937301
1.000000 0.000000 0.934951
0.000000 0.588327 0.999603
0.000000 0.580896 0.997604
0.000000 0.567773 0.993515
0.147463 0.557671 0.989334
0.548379 0.527855 0.978500
0.825910 0.474022 0.960876
0.972763 0.432700 0.948363
0.999954 0.419455 0.944533
1.000000 0.410605 0.942016
0.000000 0.873610 1.000000
0.000000 0.872038 0.999313
0.000000 0.861631 0.995285
0.087449 0.856611 0.991150
0.528481 0.839185 0.980331
0.812818 0.807004 0.962615
0.962036 0.784070 0.950103
0.999954 0.776822 0.946197
1.000000 0.772122 0.943633
0.000000 0.999802 1.000000
0.000000 0.999802 1.000000
0.000000 0.999786 0.996902
0.033280 0.999695 0.992615
0.514488 0.999313 0.981750
0.803937 0.973190 0.964034
0.954528 0.954452 0.951507
0.996445 0.948547 0.947585
1.000000 0.944472 0.944839
0.000000 0.999969 1.000000
0.000000 0.999969 1.000000
0.000000 0.999969 0.997299
0.015671 0.999969 0.992996
0.509667 0.999969 0.982101
0.800885 0.999969 0.964385
0.952087 0.999969 0.951873
0.994186 0.995651 0.947967
1.000000 0.991897 0.945235
0.000000 1.000000 1.000000
0.000000 1.000000 1.000000
0.000000 1.000000 0.997604
0.004028 1.000000 0.993301
0.506706 1.000000 0.982391
0.799222 1.000000 0.964721
0.950607 1.000000 0.952239
0.992706 1.000000 0.948333
1.000000 1.000000 0.945602
0.000000 0.000000 1.000000
0.000000 0.000000 1.000000
0.000000 0.000000 1.000000
0.218357 0.000000 1.000000
0.588296 0.000000 1.000000
0.860639 0.000000 0.999222
0.990509 0.000000 0.988632
0.999954 0.000000 0.985809
1.000000 0.000000 0.983658
0.000000 0.000000 1.000000
0.000000 0.000000 1.000000
0.000000 0.000000 1.000000
0.279652 0.000000 1.000000
0.609766 0.000000 1.000000
0.867506 0.000000 0.999283
0.989975 0.000000 0.988708
0.999954 0.000000 0.985290
1.000000 0.000000 0.982330
0.000000 0.000000 1.000000
0.000000 0.000000 1.000000
0.000000 0.000000 1.000000
0.207614 0.000000 1.000000
0.560464 0.000000 1.000000
0.822248 0.000000 0.999466
0.970336 0.000000 0.986481
0.999939 0.000000 0.981521
1.000000 0.000000 0.979278
0.000000 0.226383 1.000000
0.000000 0.195315 1.000000
0.000000 0.127306 1.000000
0.116625 0.059297 1.000000
0.535454 0.000000 1.000000
0.814679 0.000000 1.000000
0.970138 0.000000 0.987442
0.999954 0.000000 0.983261
1.000000 0.000000 0.980911
0.000000 0.574166 1.000000
0.000000 0.569955 1.000000
0.000000 0.555962 1.000000
0.122515 0.546075 1.000000
0.539940 0.516091 1.000000
0.820386 0.460624 1.000000
0.968170 0.418204 0.989441
0.999954 0.404501 0.985702
1.000000 0.394934 0.983215
0.000000 0.866743 1.000000
0.000000 0.864836 1.000000
0.000000 0.854215 1.000000
0.054414 0.849393 1.000000
0.519631 0.832044 1.000000
0.807218 0.799481 1.000000
0.957336 0.776287 0.991226
0.999176 0.768963 0.987472
1.000000 0.763684 0.984970
0.000000 0.999786 1.000000
0.000000 0.999741 1.000000
0.000000 0.999298 1.000000
0.000000 0.998932 1.000000
0.504921 0.993317 1.000000
0.798245 0.967041 1.000000
0.949798 0.948180 0.992523
0.991928 0.942229 0.988769
1.000000 0.938109 0.986267
0.000000 0.999969 1.000000
0.000000 0.999969 1.000000
0.000000 0.999969 1.000000
0.000000 0.999969 1.000000
0.499672 0.999969 1.000000
0.795163 0.999969 1.000000
0.947356 0.995300 0.992905
0.989654 0.989639 0.989166
1.000000 0.985855 0.986664
0.000000 1.000000 1.000000
0.000000 1.000000 1.000000
0.000000 1.000000 1.000000
0.000000 1.000000 1.000000
0.496880 1.000000 1.000000
0.793500 1.000000 1.000000
0.945876 1.000000 0.993179
0.988144 1.000000 0.989410
1.000000 1.000000 0.986938
0.000000 0.000000 1.000000
0.000000 0.000000 1.000000
0.000000 0.000000 1.000000
0.217655 0.000000 1.000000
0.588556 0.000000 1.000000
0.859525 0.000000 1.000000
0.988647 0.000000 1.000000
0.999954 0.000000 1.000000
1.000000 0.000000 1.000000
0.000000 0.000000 1.000000
0.000000 0.000000 1.000000
0.000000 0.000000 1.000000
0.273930 0.000000 1.000000
0.606470 0.000000 1.000000
0.864378 0.000000 1.000000
0.987182 0.000000 1.000000
0.999954 0.000000 1.000000
1.000000 0.000000 1.000000
0.000000 0.000000 1.000000
0.000000 0.000000 1.000000
0.000000 0.000000 1.000000
0.188830 0.000000 1.000000
0.551629 0.000000 1.000000
0.815106 0.000000 1.000000
0.966430 0.000000 1.000000
0.999939 0.000000 0.999313
1.000000 0.000000 0.998245
0.000000 0.202731 1.000000
0.000000 0.165347 1.000000
0.000000 0.098161 1.000000
0.091401 0.035737 1.000000
0.530861 0.000000 1.000000
0.811505 0.000000 1.000000
0.967712 0.000000 1.000000
0.999954 0.000000 0.999786
1.000000 0.000000 0.999283
0.000000 0.566918 1.000000
0.000000 0.563882 1.000000
0.000000 0.550042 1.000000
0.108782 0.539925 1.000000
0.535302 0.509544 1.000000
0.817380 0.453193 1.000000
0.965637 0.410101 1.000000
0.999954 0.396078 1.000000
1.000000 0.385641 0.999969
0.000000 0.863050 1.000000
0.000000 0.860929 1.000000
0.000000 0.850568 1.000000
0.034989 0.845624 1.000000
0.514473 0.827909 1.000000
0.804135 0.795346 1.000000
0.954742 0.772000 1.000000
0.996674 0.764645 1.000000
1.000000 0.759258 1.000000
0.000000 0.999710 1.000000
0.000000 0.999634 1.000000
0.000000 0.998840 1.000000
0.000000 0.998703 1.000000
0.499657 0.989960 1.000000
0.795117 0.963623 1.000000
0.947173 0.944671 1.000000
0.989395 0.938628 1.000000
1.000000 0.934585 1.000000
0.000000 0.999969 1.000000
0.000000 0.999969 1.000000
0.000000 0.999969 1.000000
0.000000 0.999969 1.000000
0.494530 0.999969 1.000000
0.792035 0.999969 1.000000
0.944717 0.991974 1.000000
0.987106 0.986267 1.000000
1.000000 0.982498 1.000000
0.000000 1.000000 1.000000
0.000000 1.000000 1.000000
0.000000 1.000000 1.000000
0.000000 1.000000 1.000000
0.491707 1.000000 1.000000
0.790372 1.000000 1.000000
0.943236 1.000000 1.000000
0.985611 1.000000 1.000000
1.000000 1.000000 1.000000
