lut/Sony/NewLook/SL3SG3CtoWarm_709.cube
# Copyright 2023 SONY
# Warm 709 LUT
# S-Log3/S-Gamut3.Cine to Rec.709
# 
LUT_3D_SIZE 5
0.000000 0.000000 0.000000
0.185901 0.000000 0.000000
0.671824 0.000000 0.000000
0.989792 0.000000 0.000000
0.974044 0.000000 0.000000
0.000000 0.198978 0.000000
0.176364 0.179660 0.000000
0.669688 0.000000 0.000000
0.989792 0.000000 0.000000
0.974044 0.000000 0.000000
0.000000 0.666209 0.000000
0.068650 0.659693 0.000000
0.622263 0.604471 0.000000
0.941848 0.503639 0.000000
0.927459 0.488518 0.000000
0.000000 0.937636 0.000000
0.000000 0.937636 0.000000
0.583230 0.927108 0.000000
0.943618 0.910689 0.000000
0.929900 0.913161 0.000000
0.000000 0.949065 0.000000
0.000000 0.949065 0.000000
0.576211 0.938659 0.000000
0.944625 0.923735 0.000000
0.930648 0.925917 0.000000
0.000000 0.000320 0.168826
0.173465 0.000107 0.155917
0.668208 0.000000 0.000000
0.989792 0.000000 0.000000
0.974044 0.000000 0.000000
0.000000 0.186084 0.169528
0.165682 0.165438 0.156435
0.666041 0.000000 0.000000
0.989792 0.000000 0.000000
0.974044 0.000000 0.000000
0.000000 0.661402 0.143160
0.046525 0.655222 0.129168
0.618357 0.599710 0.000000
0.942245 0.498619 0.000000
0.927977 0.483299 0.000000
0.000000 0.937026 0.144488
0.000000 0.937087 0.131975
0.578897 0.927001 0.000000
0.943618 0.910689 0.000000
0.929900 0.913161 0.000000
0.000000 0.948455 0.147311
0.000000 0.948516 0.135027
0.571756 0.938537 0.000000
0.944625 0.923735 0.000000
0.930648 0.925917 0.000000
0.000000 0.000870 0.601602
0.012451 0.001083 0.598245
0.653071 0.000687 0.573617
1.000000 0.000000 0.524620
0.999786 0.000000 0.512627
0.000000 0.000870 0.601999
0.000000 0.000885 0.598413
0.650690 0.000702 0.573938
1.000000 0.000000 0.525078
0.999786 0.000000 0.513100
0.000000 0.658946 0.601846
0.000000 0.653422 0.598123
0.631296 0.606607 0.570855
0.939620 0.451133 0.445502
0.925216 0.434806 0.434806
0.000000 0.988449 0.606821
0.000000 0.988373 0.603113
0.547524 0.932479 0.521691
0.926177 0.906249 0.448051
0.920790 0.895613 0.435111
0.000000 1.000000 0.607706
0.000000 1.000000 0.603937
0.538445 0.942382 0.520607
0.926619 0.924193 0.453468
0.926131 0.923842 0.441535
0.000000 0.001358 0.943938
0.000000 0.001358 0.941772
0.593668 0.001724 0.929747
0.999084 0.001144 0.904463
0.997375 0.001129 0.898146
0.000000 0.001358 0.944167
0.000000 0.001358 0.942000
0.591119 0.001724 0.929992
0.997742 0.001129 0.904692
0.997360 0.001129 0.898405
0.000000 0.531914 0.988327
0.000000 0.526131 0.986465
0.573449 0.533867 0.930037
0.988952 0.438239 0.904967
0.999771 0.415076 0.898833
0.000000 0.982345 0.938979
0.000000 0.982712 0.937209
0.538109 0.988205 0.929442
0.966537 0.939132 0.899062
0.990265 0.923827 0.887388
0.000000 0.996033 0.940734
0.000000 0.996246 0.939300
0.530297 1.000000 0.929992
0.961776 0.994583 0.898619
0.991913 0.991424 0.889403
0.000000 0.001434 0.997330
0.000000 0.001434 0.997330
0.579965 0.001907 1.000000
0.991302 0.001419 1.000000
0.996780 0.001419 1.000000
0.000000 0.001434 0.997330
0.000000 0.001434 0.997330
0.577295 0.001923 1.000000
0.989883 0.001419 1.000000
0.996780 0.001419 1.000000
0.000000 0.514153 1.000000
0.000000 0.508095 1.000000
0.559258 0.515694 1.000000
0.980972 0.415778 1.000000
0.999100 0.391272 1.000000
0.000000 0.971954 0.976928
0.000000 0.971954 0.976928
0.491188 0.947280 0.966491
0.963073 0.934142 1.000000
0.999863 0.924300 1.000000
0.000000 0.986969 0.979889
0.000000 0.986969 0.979889
0.498589 0.984360 0.980941
0.958877 0.999710 0.999420
1.000000 1.000000 1.000000
