lut/Sony/NewLook/SL3SG3toWarm_709.cube
# Copyright 2023 SONY
# Warm 709 LUT
# S-Log3/S-Gamut3 to Rec.709
# 
LUT_3D_SIZE 5
0.000000 0.000000 0.000000
0.209475 0.000000 0.000000
0.709082 0.000000 0.000000
0.990277 0.000000 0.022729
0.939799 0.670670 0.626239
0.000000 0.189391 0.000000
0.174387 0.172888 0.000000
0.702253 0.002140 0.000000
0.975003 0.112342 0.010500
0.940313 0.682406 0.627040
0.000000 0.649739 0.000000
0.000000 0.650360 0.003216
0.617156 0.591929 0.000000
0.936144 0.531362 0.004282
0.942306 0.754991 0.631214
0.000000 0.937383 0.229581
0.000000 0.937376 0.232101
0.000000 0.937321 0.250620
0.936596 0.906024 0.232200
0.945298 0.912509 0.650957
0.000000 0.999849 0.730022
0.000000 0.999849 0.730290
0.000000 0.999849 0.732363
0.000000 0.999855 0.750986
0.974018 0.972927 0.776513
0.000000 0.000312 0.162829
0.201417 0.000040 0.149799
0.707673 0.000000 0.013567
1.000000 0.000000 0.202715
0.941461 0.671387 0.637934
0.000000 0.182443 0.166464
0.165682 0.165438 0.156435
0.701282 0.000000 0.021865
0.982837 0.100888 0.180216
0.941978 0.683108 0.638708
0.000000 0.645950 0.161915
0.000000 0.646550 0.164814
0.612010 0.586952 0.052793
0.934457 0.524868 0.153871
0.944632 0.756330 0.643307
0.000000 0.939288 0.316293
0.000000 0.939364 0.318285
0.000000 0.940537 0.334054
0.933514 0.905762 0.296878
0.946937 0.913208 0.661071
0.000000 0.999849 0.740074
0.000000 0.999849 0.740327
0.000000 0.999849 0.742291
0.000000 0.999875 0.759985
0.974767 0.973693 0.780851
0.000000 0.000857 0.592338
0.095134 0.001307 0.589449
0.696523 0.000583 0.565735
1.000000 0.000065 0.563148
0.962457 0.685907 0.719415
0.000000 0.072024 0.586704
0.033302 0.047071 0.587686
0.689257 0.000609 0.567081
1.000000 0.089455 0.563705
0.960763 0.695514 0.717742
0.000000 0.652764 0.596981
0.000000 0.653475 0.597540
0.631296 0.606607 0.570855
0.936132 0.502794 0.486047
0.957138 0.762689 0.714533
0.000000 0.989047 0.634148
0.000000 0.989045 0.634603
0.000000 0.989034 0.638122
0.927281 0.904044 0.527698
0.958733 0.918954 0.726412
0.000000 0.999880 0.801310
0.000000 0.999881 0.801478
0.000000 0.999883 0.802778
0.000000 0.999898 0.814354
0.980030 0.979076 0.811330
0.000000 0.216478 0.920335
0.026102 0.198616 0.916892
0.657703 0.116648 0.923496
0.996647 0.191173 0.902388
1.000000 0.733587 0.910627
0.000000 0.315382 0.936617
0.002232 0.302663 0.925120
0.651500 0.254757 0.923532
0.996311 0.289824 0.902257
1.000000 0.743783 0.910602
0.000000 0.604519 0.979014
0.000000 0.601939 0.977788
0.577092 0.595608 0.901735
0.992210 0.588663 0.902088
1.000000 0.803466 0.910507
0.000000 0.982885 0.937073
0.000000 0.982878 0.937097
0.000000 0.982827 0.937278
0.966537 0.939132 0.899062
0.992535 0.937147 0.903638
0.000000 0.995432 0.942257
0.000000 0.995432 0.942260
0.000000 0.995430 0.942282
0.000000 0.995411 0.942484
0.995032 0.994523 0.916295
0.507908 0.778189 0.968860
0.548533 0.780418 0.969827
0.742627 0.807358 0.976438
0.980669 0.813317 0.999030
0.999893 0.875867 0.999461
0.499576 0.783379 0.968091
0.541313 0.785626 0.969431
0.737612 0.811644 0.975429
0.980342 0.819230 0.999008
0.999890 0.878055 0.999462
0.432986 0.816633 0.960842
0.480924 0.816628 0.963538
0.712334 0.838688 0.980395
0.978200 0.852633 0.998917
0.999870 0.893907 0.999467
0.000000 0.970674 0.975668
0.000000 0.970672 0.975668
0.325523 0.966407 0.973965
0.967006 0.951709 0.998786
0.999874 0.949580 0.999466
0.000000 0.986984 0.979312
0.000000 0.986984 0.979313
0.000000 0.986984 0.979319
0.000000 0.986982 0.979374
1.000000 1.000000 1.000000
