lut/Sony/NewLook/SL3SG3CtoTealOR_709.cube
# Copyright 2023 SONY
# Teal and Orange 709 LUT
# S-Log3/S-Gamut3.Cine to Rec.709
# 
LUT_3D_SIZE 9
0.000000 0.000000 0.000000
0.067384 0.000000 0.000000
0.125200 0.000000 0.000000
0.338430 0.000000 0.000000
0.675059 0.000000 0.000000
0.875761 0.000000 0.000000
0.966155 0.000000 0.000000
1.000000 0.000000 0.000000
1.000000 0.000000 0.000000
0.000000 0.051255 0.000000
0.067231 0.049805 0.000000
0.129152 0.062715 0.000000
0.348852 0.062120 0.000000
0.670268 0.087388 0.000000
0.878294 0.098634 0.000000
0.960891 0.104967 0.000000
1.000000 0.221103 0.000000
1.000000 0.331884 0.000000
0.000000 0.134112 0.000000
0.086931 0.133761 0.000000
0.132052 0.125704 0.000000
0.369482 0.120058 0.000000
0.674647 0.056672 0.000000
0.879530 0.072618 0.000000
0.964675 0.076951 0.000000
1.000000 0.170275 0.000000
1.000000 0.261143 0.000000
0.000000 0.307607 0.000000
0.091401 0.312291 0.000000
0.121920 0.338949 0.000000
0.399115 0.310002 0.000000
0.743938 0.323079 0.000000
0.900862 0.228153 0.000000
0.971160 0.160998 0.000000
1.000000 0.236835 0.000000
1.000000 0.313420 0.000000
0.000000 0.555825 0.000000
0.135500 0.562890 0.000000
0.118624 0.583001 0.000000
0.402808 0.634165 0.000000
0.753979 0.568826 0.000000
0.945113 0.578317 0.000000
0.995148 0.464759 0.000000
1.000000 0.445121 0.000000
1.000000 0.504097 0.000000
0.000000 0.790188 0.000000
0.237095 0.793683 0.000000
0.133623 0.800336 0.000000
0.384375 0.819608 0.000000
0.709285 0.846723 0.000000
0.925277 0.780194 0.000000
0.996719 0.779538 0.000000
1.000000 0.655055 0.000000
1.000000 0.611856 0.000000
0.000000 0.936706 0.000000
0.337560 0.936599 0.000000
0.228443 0.937591 0.000000
0.423239 0.939529 0.000000
0.669841 0.951354 0.000000
0.873518 0.968383 0.000000
0.994324 0.921111 0.000000
0.998825 0.859297 0.000000
0.994385 0.575479 0.000000
0.000000 1.000000 0.000000
0.409674 1.000000 0.000000
0.360830 1.000000 0.000000
0.476921 1.000000 0.000000
0.706157 0.999481 0.000000
0.843717 0.999466 0.000000
0.981811 0.999924 0.000000
0.999283 0.994675 0.000000
0.995682 1.000000 0.000000
0.000000 1.000000 0.000000
0.453407 1.000000 0.000000
0.394720 1.000000 0.000000
0.507836 1.000000 0.000000
0.745800 1.000000 0.000000
0.867430 1.000000 0.000000
0.969665 0.999344 0.000000
1.000000 1.000000 0.000000
0.998535 1.000000 0.000000
0.000000 0.000000 0.046143
0.033768 0.000000 0.035752
0.113375 0.000000 0.045426
0.331060 0.000000 0.003143
0.679850 0.000000 0.023133
0.873472 0.000000 0.062547
0.966522 0.000000 0.072465
1.000000 0.000000 0.074220
1.000000 0.000000 0.106569
0.000000 0.047959 0.046937
0.039734 0.042588 0.042664
0.122744 0.061891 0.036225
0.348730 0.054139 0.000000
0.672404 0.066316 0.028351
0.875715 0.103304 0.059724
0.961334 0.103792 0.066850
1.000000 0.217655 0.079194
1.000000 0.326192 0.095369
0.000000 0.136934 0.078263
0.071885 0.131838 0.068818
0.124575 0.124559 0.053498
0.360922 0.116670 0.001251
0.668681 0.058549 0.029618
0.876844 0.077790 0.060655
0.965133 0.077958 0.068147
1.000000 0.169070 0.079591
1.000000 0.260624 0.096910
0.000000 0.316167 0.120317
0.064408 0.311589 0.102556
0.102861 0.329854 0.088731
0.385443 0.307332 0.031342
0.734798 0.320531 0.055161
0.896544 0.227085 0.065186
0.971374 0.159777 0.068543
1.000000 0.231388 0.080400
1.000000 0.309438 0.095918
0.000000 0.569100 0.185611
0.116548 0.565881 0.160662
0.101457 0.578485 0.137194
0.376181 0.625177 0.123201
0.739101 0.568704 0.070375
0.942351 0.575662 0.093187
0.994827 0.465248 0.083940
1.000000 0.441062 0.084108
1.000000 0.502434 0.091859
0.000000 0.795758 0.284001
0.224674 0.795499 0.256519
0.123293 0.802213 0.235843
0.374487 0.818021 0.201648
0.698451 0.844846 0.205325
0.917128 0.781567 0.107317
0.996445 0.777066 0.116304
1.000000 0.665385 0.107362
1.000000 0.611109 0.089632
0.000000 0.937240 0.419547
0.332357 0.936431 0.393133
0.224002 0.937438 0.381445
0.418448 0.939483 0.348943
0.664302 0.950149 0.334234
0.870237 0.967285 0.330816
0.993759 0.921248 0.142718
0.998459 0.859129 0.120775
0.994827 0.582025 0.079667
0.000000 1.000000 0.498497
0.406775 1.000000 0.488502
0.358114 1.000000 0.478798
0.473518 0.999924 0.453635
0.702327 0.998520 0.438682
0.841535 0.998291 0.436240
0.980087 0.998764 0.420310
0.998505 0.994263 0.258091
0.994842 1.000000 0.261723
0.000000 1.000000 0.533471
0.451881 1.000000 0.527291
0.393194 1.000000 0.521340
0.505394 1.000000 0.495903
0.743755 1.000000 0.480690
0.865812 1.000000 0.479088
0.967987 0.998062 0.472404
0.999252 1.000000 0.470665
0.997330 1.000000 0.434836
0.000000 0.000000 0.141619
0.018982 0.000000 0.130098
0.077699 0.000000 0.109545
0.266392 0.000000 0.101976
0.631907 0.000000 0.024628
0.866896 0.000000 0.042069
0.966567 0.000000 0.050401
1.000000 0.000000 0.054856
1.000000 0.000000 0.076585
0.000000 0.093599 0.133242
0.014649 0.086137 0.134936
0.084611 0.073899 0.115862
0.279042 0.104280 0.104952
0.629786 0.120455 0.023514
0.868284 0.118273 0.041566
0.961685 0.107118 0.047379
1.000000 0.210834 0.055970
1.000000 0.326375 0.068284
0.000000 0.128054 0.129335
0.009583 0.128328 0.129030
0.093492 0.127840 0.130266
0.340658 0.112154 0.078431
0.644053 0.088212 0.023835
0.869764 0.090364 0.042420
0.965408 0.080705 0.048432
1.000000 0.161639 0.055756
1.000000 0.260700 0.069657
0.000000 0.346761 0.188006
0.000000 0.336843 0.170092
0.074662 0.325887 0.145098
0.357534 0.313512 0.099519
0.699641 0.318853 0.035294
0.883604 0.225711 0.044343
0.971466 0.158053 0.048600
1.000000 0.215747 0.055787
1.000000 0.302892 0.068788
0.000000 0.595666 0.239948
0.084169 0.584405 0.220523
0.075334 0.581811 0.188968
0.329519 0.613718 0.160128
0.709773 0.575097 0.056397
0.930159 0.571786 0.063813
0.994644 0.463584 0.058823
1.000000 0.432456 0.058213
1.000000 0.500877 0.064668
0.000000 0.802502 0.308080
0.200061 0.802197 0.290761
0.103349 0.804471 0.263478
0.352819 0.814786 0.229679
0.677119 0.840467 0.191592
0.903059 0.784314 0.082216
0.996551 0.772351 0.083497
1.000000 0.663874 0.075532
1.000000 0.610178 0.062394
0.000000 0.937758 0.395102
0.322927 0.936675 0.383261
0.218082 0.938003 0.367834
0.410651 0.939895 0.344335
0.659861 0.949340 0.298436
0.865293 0.966567 0.276707
0.993790 0.921889 0.108980
0.998627 0.858930 0.088319
0.995392 0.585870 0.054108
0.000000 1.000000 0.489921
0.405936 1.000000 0.483619
0.357168 1.000000 0.472053
0.470771 0.999939 0.453864
0.700160 0.998611 0.409735
0.840040 0.998367 0.386099
0.979370 0.998886 0.359533
0.998642 0.993683 0.206394
0.994934 1.000000 0.204532
0.000000 1.000000 0.544793
0.450599 1.000000 0.539635
0.393057 1.000000 0.535546
0.503365 1.000000 0.518883
0.742565 1.000000 0.476677
0.864973 1.000000 0.454658
0.967544 0.998169 0.448432
0.999313 1.000000 0.445594
0.997482 1.000000 0.392691
0.000000 0.000000 0.337392
0.002441 0.000000 0.319188
0.038254 0.000000 0.290410
0.186664 0.000000 0.252415
0.504540 0.000000 0.233112
0.771038 0.000000 0.200366
0.967132 0.000000 0.136507
1.000000 0.000000 0.129931
1.000000 0.000000 0.149416
0.000000 0.154162 0.325338
0.000000 0.148226 0.330632
0.034257 0.143389 0.301350
0.191058 0.146990 0.256382
0.502083 0.178180 0.232502
0.769329 0.213626 0.204349
0.961913 0.120912 0.133883
1.000000 0.189410 0.129839
1.000000 0.326162 0.140658
0.000000 0.166308 0.320150
0.000000 0.168200 0.323568
0.031907 0.165515 0.337362
0.211734 0.133455 0.278202
0.512551 0.141176 0.235721
0.777554 0.171557 0.204959
0.965148 0.093492 0.135576
1.000000 0.144778 0.129946
1.000000 0.260502 0.142443
0.000000 0.305882 0.319738
0.000000 0.313466 0.323690
0.020783 0.322850 0.330404
0.249195 0.335561 0.343328
0.651865 0.315251 0.277119
0.830213 0.274495 0.205646
0.972473 0.153841 0.137530
1.000000 0.173617 0.132097
1.000000 0.273472 0.143709
0.000000 0.623148 0.443961
0.114611 0.627741 0.433539
0.031205 0.619211 0.408743
0.247990 0.609277 0.355703
0.667872 0.596765 0.289342
0.889326 0.585412 0.220356
0.992142 0.455894 0.148852
1.000000 0.410285 0.138689
1.000000 0.494194 0.142245
0.000000 0.819577 0.494026
0.171054 0.817304 0.479149
0.053819 0.813565 0.460090
0.300740 0.815869 0.403403
0.632151 0.831342 0.378943
0.885924 0.794858 0.257328
0.996307 0.771695 0.180545
1.000000 0.663996 0.161151
1.000000 0.605982 0.144106
0.000000 0.937774 0.544244
0.294194 0.936782 0.531868
0.166369 0.938247 0.517098
0.389197 0.941894 0.479835
0.646357 0.947036 0.456428
0.850019 0.964233 0.426413
0.993393 0.924392 0.229099
0.998459 0.856321 0.178576
0.995865 0.593698 0.138964
0.000000 1.000000 0.599832
0.396994 1.000000 0.592676
0.350210 1.000000 0.583993
0.462150 0.999756 0.567132
0.694194 0.998291 0.547646
0.835492 0.997940 0.518517
0.976211 0.998566 0.470451
0.998474 0.991211 0.303410
0.994797 1.000000 0.281239
0.000000 1.000000 0.655482
0.446281 1.000000 0.650828
0.389929 1.000000 0.648234
0.495125 1.000000 0.637125
0.737697 1.000000 0.619471
0.861219 1.000000 0.592493
0.965225 0.997955 0.565927
0.999069 1.000000 0.544823
0.997192 1.000000 0.497063
0.000000 0.000000 0.582238
0.015488 0.000000 0.571862
0.010193 0.000000 0.523598
0.114504 0.000000 0.470909
0.379980 0.000000 0.394720
0.707515 0.000000 0.342443
0.817090 0.000000 0.349798
1.000000 0.000000 0.289815
1.000000 0.000000 0.315267
0.000000 0.269734 0.569802
0.030640 0.263676 0.579309
0.005631 0.258000 0.557855
0.109056 0.248676 0.478386
0.373678 0.258381 0.389319
0.709163 0.253101 0.336034
0.821653 0.263996 0.344060
1.000000 0.147433 0.285527
1.000000 0.325658 0.305852
0.000000 0.209552 0.569543
0.039811 0.216480 0.575753
0.008759 0.219471 0.592447
0.117098 0.209049 0.519875
0.383093 0.208804 0.395178
0.712673 0.201602 0.341375
0.832166 0.210208 0.345998
1.000000 0.105104 0.285756
1.000000 0.260060 0.307362
0.000000 0.365789 0.566018
0.043107 0.372457 0.571832
0.009918 0.384527 0.584665
0.135714 0.390936 0.610712
0.504662 0.355505 0.494133
0.737331 0.267872 0.375113
0.861448 0.228168 0.356619
1.000000 0.111818 0.289616
1.000000 0.265446 0.307820
0.000000 0.544945 0.577111
0.076081 0.555489 0.582574
0.017548 0.569406 0.591394
0.143099 0.589273 0.605951
0.567437 0.616815 0.625696
0.847913 0.601022 0.585504
0.945907 0.521172 0.444068
1.000000 0.362982 0.293156
1.000000 0.479149 0.304524
0.000000 0.822110 0.709728
0.180041 0.827802 0.705699
0.049409 0.829313 0.698466
0.169146 0.824109 0.671901
0.577569 0.823011 0.619379
0.861295 0.805020 0.550225
0.992874 0.795514 0.503655
1.000000 0.659983 0.319112
1.000000 0.596841 0.303685
0.000000 0.940841 0.738430
0.237263 0.939086 0.728847
0.090700 0.939849 0.718959
0.276081 0.945266 0.694926
0.619410 0.949859 0.640299
0.825727 0.959960 0.618524
0.987213 0.932815 0.484337
0.998459 0.889738 0.364920
0.995987 0.624506 0.300237
0.000000 1.000000 0.749172
0.376135 0.999832 0.741451
0.319860 1.000000 0.733303
0.425986 0.999649 0.718547
0.682033 0.998215 0.690120
0.826612 0.997360 0.672663
0.964233 0.997971 0.642786
0.998260 0.987015 0.482582
0.994247 1.000000 0.401556
0.000000 1.000000 0.785855
0.440482 1.000000 0.780972
0.384085 1.000000 0.778164
0.471870 1.000000 0.767788
0.727886 1.000000 0.750988
0.854582 1.000000 0.734615
0.958465 0.997909 0.716274
0.998718 1.000000 0.697353
0.996872 1.000000 0.689097
0.000000 0.000000 0.771832
0.063005 0.000000 0.776547
0.034012 0.000000 0.781109
0.125795 0.000000 0.691203
0.307698 0.000000 0.606577
0.609949 0.000000 0.490852
0.817670 0.000000 0.397742
0.694484 0.000000 0.367773
1.000000 0.000000 0.497948
0.000000 0.404257 0.764691
0.118059 0.390082 0.774945
0.029618 0.387182 0.784634
0.125780 0.375921 0.724788
0.306844 0.366491 0.609140
0.608148 0.372244 0.492012
0.834195 0.280690 0.393332
0.574685 0.130632 0.352056
1.000000 0.334768 0.430610
0.000000 0.313588 0.767346
0.120699 0.317906 0.775830
0.031952 0.319158 0.783505
0.128222 0.310216 0.756725
0.326268 0.298634 0.642206
0.616846 0.298024 0.495583
0.843061 0.227436 0.394995
0.559564 0.093736 0.353826
1.000000 0.261601 0.413764
0.000000 0.436011 0.767498
0.120760 0.439170 0.772961
0.031525 0.443381 0.779767
0.128542 0.436896 0.796033
0.383612 0.381888 0.741711
0.669551 0.301823 0.536233
0.857786 0.245136 0.405844
0.544366 0.098421 0.354849
1.000000 0.265324 0.410895
0.000000 0.599023 0.767437
0.123537 0.603494 0.772625
0.031052 0.612711 0.779095
0.122164 0.628595 0.791897
0.443641 0.636469 0.818998
0.775158 0.602640 0.749355
0.904982 0.520897 0.552789
0.599832 0.324178 0.360311
1.000000 0.456291 0.409796
0.000000 0.749783 0.785122
0.148898 0.755718 0.788724
0.038300 0.762005 0.792462
0.118242 0.773053 0.800610
0.466819 0.796139 0.819471
0.817472 0.810987 0.809155
0.975097 0.806332 0.798657
0.986999 0.679866 0.619272
0.995315 0.549218 0.397452
0.000000 0.939742 0.882506
0.223514 0.941085 0.882414
0.069154 0.943465 0.877745
0.143114 0.946075 0.867460
0.467002 0.956512 0.843900
0.805692 0.954253 0.794003
0.975357 0.935409 0.732082
0.999573 0.922164 0.691142
0.997772 0.728542 0.417929
0.000000 1.000000 0.885603
0.329366 0.999527 0.882445
0.222660 1.000000 0.876646
0.326589 0.999817 0.862867
0.603708 0.998550 0.835264
0.814786 0.997269 0.800534
0.946609 0.997223 0.780270
0.998428 0.989120 0.670298
0.995087 0.984894 0.521782
0.000000 1.000000 0.885130
0.426535 0.999924 0.882933
0.373587 1.000000 0.879973
0.425772 1.000000 0.870527
0.702434 0.999161 0.855955
0.846052 1.000000 0.833509
0.949340 1.000000 0.821515
0.998550 1.000000 0.803311
0.996979 1.000000 0.825757
0.000000 0.000000 0.927260
0.078035 0.000000 0.926863
0.056947 0.000000 0.928222
0.138659 0.000000 0.934432
0.318242 0.000000 0.891768
0.552483 0.000000 0.799390
0.782650 0.000000 0.663478
0.909529 0.000000 0.536767
1.000000 0.000000 0.471977
0.000000 0.457786 0.920134
0.166934 0.455497 0.922042
0.047593 0.456489 0.925139
0.132815 0.453529 0.929519
0.301579 0.449485 0.894163
0.561288 0.447349 0.806699
0.761334 0.449561 0.688304
0.804868 0.464408 0.720562
1.000000 0.226627 0.406378
0.000000 0.411505 0.921294
0.169207 0.412238 0.922683
0.048798 0.413291 0.925353
0.133211 0.410361 0.929488
0.304524 0.400549 0.903136
0.577890 0.391241 0.818891
0.768277 0.391852 0.689845
0.789899 0.432670 0.730495
1.000000 0.168948 0.400702
0.000000 0.500832 0.920638
0.168627 0.499580 0.921782
0.047974 0.498360 0.924254
0.128435 0.479133 0.928969
0.315053 0.420706 0.924193
0.631952 0.398932 0.871824
0.793576 0.396597 0.711345
0.797116 0.442786 0.738262
1.000000 0.164157 0.400763
0.000000 0.674846 0.919570
0.168688 0.674846 0.920348
0.046128 0.676966 0.922011
0.114946 0.680537 0.927199
0.327840 0.674708 0.938338
0.692042 0.639460 0.925780
0.877760 0.575540 0.810162
0.847776 0.622553 0.754437
1.000000 0.351034 0.396506
0.000000 0.787121 0.922118
0.174151 0.789715 0.922850
0.047211 0.793286 0.924895
0.092699 0.799298 0.928923
0.348608 0.809888 0.939727
0.730907 0.813718 0.947158
0.940276 0.795636 0.915694
0.986038 0.752300 0.827787
0.998657 0.536614 0.394064
0.000000 0.887572 0.939925
0.198016 0.887770 0.939361
0.056718 0.890227 0.939742
0.091981 0.897246 0.940780
0.405570 0.914626 0.946456
0.742077 0.926802 0.944228
0.947662 0.939818 0.932174
0.998093 0.934630 0.929656
1.000000 0.819837 0.652247
0.000000 0.995010 0.988617
0.279561 0.994018 0.985672
0.107805 0.995483 0.985519
0.140978 0.996750 0.981735
0.451896 0.997940 0.973297
0.740764 0.997559 0.950439
0.937697 0.996323 0.916152
0.996094 0.992004 0.866468
0.996674 0.984543 0.837339
0.000000 1.000000 0.988739
0.394064 0.999695 0.985153
0.343847 1.000000 0.984161
0.353750 1.000000 0.980591
0.649882 0.998459 0.970642
0.807553 0.999603 0.949050
0.945769 1.000000 0.923568
0.994003 0.999969 0.911482
0.997253 1.000000 0.930282
0.000000 0.000000 1.000000
0.090166 0.000000 1.000000
0.078172 0.000000 1.000000
0.156359 0.000000 1.000000
0.328222 0.000000 1.000000
0.564355 0.000000 1.000000
0.812253 0.000000 0.965911
0.959716 0.000000 0.847135
1.000000 0.000000 0.759655
0.000000 0.498283 0.997253
0.210697 0.495857 0.997223
0.066422 0.496727 0.998428
0.148486 0.496513 0.999115
0.312123 0.492805 1.000000
0.562676 0.489479 1.000000
0.826200 0.488167 0.964935
0.965606 0.538384 0.814343
1.000000 0.550149 0.911254
0.000000 0.471351 0.997757
0.211933 0.468696 0.997528
0.066926 0.469306 0.998642
0.147478 0.468864 0.999268
0.312016 0.465385 1.000000
0.561074 0.462104 1.000000
0.829221 0.458869 0.964981
0.960571 0.503563 0.809888
1.000000 0.520195 0.891905
0.000000 0.555657 0.996307
0.211292 0.550072 0.996048
0.065797 0.544869 0.997147
0.140551 0.516793 0.998306
0.309712 0.483421 0.999985
0.565164 0.479255 1.000000
0.847776 0.470405 0.975372
0.960311 0.515572 0.822217
1.000000 0.538125 0.881575
0.000000 0.746593 0.992737
0.208362 0.743084 0.992386
0.062440 0.742306 0.993423
0.121981 0.736492 0.994202
0.301305 0.721752 0.995727
0.579385 0.691814 1.000000
0.872358 0.658885 0.989151
0.964874 0.702998 0.866468
1.000000 0.748425 0.870680
0.000000 0.847318 0.991363
0.209140 0.846983 0.990845
0.061616 0.846998 0.991806
0.092912 0.845685 0.992721
0.294774 0.843030 0.993881
0.611612 0.834928 0.999710
0.899657 0.822568 0.993790
0.992493 0.770077 0.966949
1.000000 0.885359 0.870649
0.000000 0.914076 0.992111
0.213733 0.913237 0.991394
0.063691 0.915160 0.992370
0.071748 0.918410 0.992889
0.309865 0.922774 0.993927
0.651560 0.928145 0.997589
0.917617 0.940673 0.992523
0.994537 0.927214 0.987808
1.000000 0.908476 0.936797
0.000000 0.959045 0.997803
0.281788 0.958221 0.996551
0.116854 0.959640 0.997620
0.143389 0.962661 0.998077
0.436118 0.967956 0.997345
0.715740 0.978424 0.996201
0.922164 0.988251 0.990555
0.991913 0.990967 0.985824
0.998535 0.988876 0.987427
0.000000 1.000000 1.000000
0.371984 1.000000 0.999664
0.302693 1.000000 1.000000
0.329076 1.000000 1.000000
0.587259 1.000000 0.998825
0.751354 1.000000 0.998016
0.916442 1.000000 0.993591
0.991485 0.999832 0.988083
1.000000 0.999786 0.971954
0.000000 0.000000 1.000000
0.067262 0.000000 1.000000
0.069001 0.000000 1.000000
0.146990 0.000000 1.000000
0.340551 0.000000 1.000000
0.540642 0.000000 1.000000
0.853239 0.000000 1.000000
0.985260 0.000000 1.000000
1.000000 0.000000 1.000000
0.000000 0.523568 1.000000
0.108888 0.522881 1.000000
0.025971 0.523461 1.000000
0.102892 0.523140 1.000000
0.305653 0.521416 1.000000
0.527062 0.518120 1.000000
0.868223 0.510414 1.000000
0.995987 0.511940 1.000000
1.000000 0.497261 1.000000
0.000000 0.495247 1.000000
0.110994 0.494530 1.000000
0.026886 0.495125 1.000000
0.102190 0.494804 1.000000
0.305013 0.493034 1.000000
0.520623 0.490349 1.000000
0.865095 0.482521 1.000000
0.992020 0.484428 1.000000
1.000000 0.469856 1.000000
0.000000 0.570916 1.000000
0.111147 0.567102 1.000000
0.026017 0.561395 1.000000
0.095613 0.530358 1.000000
0.302724 0.510185 1.000000
0.519539 0.507622 1.000000
0.863630 0.499962 1.000000
0.985504 0.500587 1.000000
1.000000 0.486351 1.000000
0.000000 0.794873 0.999863
0.110460 0.791745 0.998077
0.022828 0.790539 0.998886
0.076860 0.783062 0.999344
0.294835 0.765011 0.998993
0.523140 0.738293 1.000000
0.862150 0.707607 1.000000
0.982589 0.688411 1.000000
1.000000 0.669047 1.000000
0.000000 0.887541 0.998123
0.144686 0.886580 0.996094
0.034607 0.886702 0.997024
0.062638 0.883757 0.997528
0.297536 0.876295 0.997559
0.553658 0.863264 0.999435
0.878416 0.846159 1.000000
0.991333 0.827131 1.000000
1.000000 0.802258 1.000000
0.000000 0.951385 0.999039
0.233890 0.950515 0.996796
0.073167 0.952056 0.997818
0.080980 0.953170 0.997696
0.304753 0.950515 0.996902
0.604501 0.945083 0.998260
0.892882 0.946014 0.998199
0.992111 0.936004 0.998459
1.000000 0.885740 1.000000
0.000000 0.963333 0.999908
0.272648 0.962219 0.997375
0.101213 0.963516 0.998520
0.123674 0.964767 0.998764
0.416327 0.967193 0.998428
0.693858 0.973495 0.999008
0.900374 0.986206 0.999130
0.990692 0.990692 0.999008
1.000000 0.987198 0.999084
0.000000 0.981567 1.000000
0.386786 0.979446 0.998962
0.336309 0.980011 0.999298
0.342397 0.980728 0.999344
0.626581 0.981048 0.997772
0.794553 0.984848 0.996735
0.940505 0.990143 0.995621
0.990341 0.994385 0.996811
1.000000 1.000000 1.000000
