lut/Sony/NewLook/SL3SG3toTealOR_709.cube
# Copyright 2023 SONY
# Teal and Orange 709 LUT
# S-Log3/S-Gamut3 to Rec.709
# 
LUT_3D_SIZE 33
0.000000 0.000000 0.000000
0.003192 0.000000 0.000000
0.026239 0.000000 0.000000
0.052832 0.000000 0.000924
0.071861 0.000000 0.001848
0.080899 0.000000 0.002714
0.093967 0.000000 0.003009
0.114877 0.000000 0.003015
0.145246 0.000000 0.001417
0.184218 0.000000 0.000698
0.235638 0.000000 0.000752
0.304057 0.000000 0.000848
0.388824 0.000000 0.003591
0.477726 0.000956 0.010962
0.561945 0.013319 0.016577
0.638351 0.029483 0.018727
0.708126 0.057689 0.028846
0.772680 0.084124 0.056684
0.825143 0.066899 0.053779
0.861090 0.079779 0.051676
0.888616 0.105931 0.048546
0.920772 0.113604 0.047774
0.953485 0.093129 0.048109
0.968187 0.084243 0.048741
0.973562 0.105457 0.064942
0.989722 0.159149 0.114652
1.000000 0.203949 0.159249
1.000000 0.256995 0.205506
1.000000 0.376296 0.258896
1.000000 0.469162 0.299228
1.000000 0.512074 0.328679
1.000000 0.538989 0.354866
1.000000 0.563190 0.378871
0.000000 0.000000 0.000034
0.000000 0.000000 0.000011
0.022039 0.000000 0.000000
0.047019 0.000220 0.001211
0.069832 0.000765 0.002290
0.079495 0.001377 0.003158
0.092009 0.001998 0.003364
0.112684 0.002888 0.003112
0.143064 0.003990 0.001177
0.182526 0.005756 0.000895
0.235074 0.008147 0.001033
0.305061 0.011124 0.001248
0.390421 0.016085 0.003303
0.479709 0.026299 0.010109
0.562672 0.046272 0.016318
0.637576 0.077326 0.022214
0.707198 0.091407 0.034278
0.772082 0.070824 0.057559
0.824603 0.062045 0.053681
0.860814 0.075693 0.051626
0.888736 0.102659 0.048553
0.921010 0.112617 0.047829
0.953631 0.093229 0.048165
0.968400 0.085059 0.048800
0.973804 0.108871 0.065123
0.989795 0.166310 0.114876
1.000000 0.209621 0.159409
1.000000 0.260282 0.205664
1.000000 0.378365 0.258953
1.000000 0.470401 0.299241
1.000000 0.512939 0.328689
1.000000 0.539577 0.354874
1.000000 0.563588 0.378876
0.000000 0.018407 0.000057
0.000000 0.017803 0.000000
0.017359 0.016537 0.000000
0.041197 0.015824 0.001633
0.068182 0.019083 0.002796
0.077433 0.021380 0.003585
0.090007 0.022452 0.003691
0.111045 0.022978 0.003140
0.142239 0.024716 0.000957
0.183225 0.028681 0.000885
0.237340 0.034461 0.001099
0.308340 0.041799 0.001474
0.392650 0.050776 0.003180
0.480238 0.064680 0.009070
0.562318 0.073493 0.015426
0.636723 0.080384 0.021959
0.706316 0.079863 0.034873
0.771328 0.065286 0.057432
0.823993 0.058206 0.053451
0.860779 0.072002 0.051602
0.889052 0.101128 0.048561
0.921166 0.112405 0.047884
0.953780 0.093981 0.048214
0.968735 0.086319 0.048891
0.974000 0.115854 0.065312
0.989786 0.175076 0.115072
1.000000 0.214397 0.159596
1.000000 0.263399 0.205829
1.000000 0.380396 0.259009
1.000000 0.471627 0.299255
1.000000 0.513797 0.328700
1.000000 0.540162 0.354882
1.000000 0.563983 0.378881
0.000000 0.037120 0.000069
0.000000 0.036904 0.000000
0.012723 0.035753 0.000000
0.035719 0.034385 0.000000
0.067380 0.034777 0.003195
0.075501 0.039630 0.003940
0.088771 0.047533 0.003945
0.110575 0.054463 0.003064
0.142910 0.056848 0.000814
0.185031 0.057858 0.000918
0.239118 0.061032 0.001260
0.309245 0.063426 0.001848
0.391737 0.064578 0.003631
0.477646 0.066098 0.008991
0.560164 0.068208 0.015256
0.635538 0.073040 0.021745
0.705398 0.072791 0.035279
0.770758 0.060797 0.057423
0.823514 0.055795 0.053246
0.860605 0.070201 0.051549
0.889208 0.100197 0.048560
0.921388 0.112008 0.047936
0.953916 0.094673 0.048261
0.969052 0.087516 0.048976
0.974187 0.122562 0.065497
0.989777 0.183578 0.115267
1.000000 0.219065 0.159781
1.000000 0.266460 0.205993
1.000000 0.382400 0.259064
1.000000 0.472840 0.299268
1.000000 0.514649 0.328711
1.000000 0.540743 0.354890
1.000000 0.564377 0.378887
0.000000 0.048686 0.001921
0.000000 0.048231 0.002128
0.011483 0.047907 0.002577
0.031616 0.047899 0.003198
0.064822 0.047432 0.003798
0.073795 0.048721 0.004403
0.087304 0.053996 0.004308
0.109226 0.060356 0.002639
0.141905 0.062317 0.000884
0.183914 0.061404 0.001123
0.237881 0.059097 0.001528
0.307737 0.059697 0.002199
0.389442 0.061603 0.004113
0.475068 0.063042 0.009020
0.558052 0.064281 0.015101
0.634923 0.065908 0.021793
0.705121 0.066044 0.035922
0.770145 0.057658 0.057283
0.822978 0.053851 0.053189
0.860707 0.069319 0.051491
0.889488 0.099443 0.048564
0.921643 0.111518 0.047986
0.954038 0.095151 0.048319
0.969294 0.088688 0.049053
0.974367 0.129017 0.065679
0.989768 0.191831 0.115462
1.000000 0.223627 0.159965
1.000000 0.269468 0.206156
1.000000 0.384376 0.259119
1.000000 0.474042 0.299282
1.000000 0.515494 0.328722
1.000000 0.541321 0.354898
1.000000 0.564769 0.378892
0.000000 0.063714 0.002742
0.000000 0.063591 0.003107
0.008572 0.063131 0.003629
0.031257 0.063707 0.004249
0.064166 0.064016 0.004770
0.072567 0.063104 0.005047
0.085773 0.063983 0.005091
0.107797 0.068369 0.002936
0.140638 0.070361 0.001339
0.182606 0.069682 0.001405
0.237118 0.065477 0.001906
0.307748 0.059432 0.002713
0.389144 0.057676 0.004696
0.473922 0.059453 0.009216
0.556642 0.060665 0.015129
0.633660 0.062544 0.021763
0.704878 0.061273 0.036511
0.769882 0.054093 0.057117
0.822463 0.053845 0.053114
0.860259 0.069519 0.051382
0.889774 0.098810 0.048565
0.921769 0.111995 0.048039
0.954151 0.095592 0.048372
0.969438 0.089868 0.049124
0.974537 0.135785 0.065857
0.989759 0.199849 0.115656
1.000000 0.228090 0.160146
1.000000 0.272425 0.206316
1.000000 0.386327 0.259174
1.000000 0.475231 0.299295
1.000000 0.516333 0.328733
1.000000 0.541896 0.354906
1.000000 0.565160 0.378898
0.000000 0.083682 0.003720
0.000000 0.083932 0.004294
0.004070 0.083026 0.004665
0.026649 0.083342 0.005307
0.059576 0.083868 0.006009
0.074440 0.084306 0.006518
0.083728 0.080929 0.006177
0.106276 0.080430 0.004174
0.139339 0.082087 0.001602
0.181604 0.081706 0.001825
0.236665 0.077927 0.002405
0.308151 0.070682 0.003277
0.390641 0.061810 0.005738
0.474994 0.056260 0.009662
0.556416 0.057250 0.015364
0.633036 0.058833 0.021864
0.704078 0.057983 0.037106
0.768994 0.053988 0.056838
0.821651 0.054347 0.052991
0.860120 0.069555 0.051291
0.889745 0.098767 0.048552
0.921900 0.112629 0.048099
0.954317 0.097287 0.048471
0.969609 0.091286 0.049210
0.974734 0.144682 0.066044
0.989843 0.209484 0.115885
1.000000 0.233539 0.160371
1.000000 0.276055 0.206514
1.000000 0.388732 0.259242
1.000000 0.476702 0.299313
1.000000 0.517373 0.328747
1.000000 0.542610 0.354917
1.000000 0.565646 0.378904
0.000000 0.103554 0.004870
0.000000 0.103835 0.005567
0.000000 0.103190 0.005915
0.017370 0.103068 0.006388
0.048974 0.103281 0.006886
0.077744 0.104358 0.007568
0.081617 0.105579 0.008408
0.102528 0.098124 0.006601
0.136265 0.097123 0.003745
0.180073 0.098089 0.001996
0.236577 0.096968 0.002674
0.309352 0.092209 0.003675
0.393586 0.083301 0.006726
0.478899 0.071042 0.011452
0.559580 0.056803 0.016052
0.634259 0.057095 0.022113
0.704046 0.056912 0.037980
0.768014 0.054088 0.056327
0.820751 0.055370 0.052803
0.859638 0.070187 0.051117
0.890087 0.098886 0.048549
0.922252 0.112926 0.048182
0.954534 0.099624 0.048603
0.969908 0.105453 0.049108
0.974987 0.157536 0.066123
0.990090 0.222342 0.116186
1.000000 0.241020 0.160698
1.000000 0.281021 0.206789
1.000000 0.392040 0.259338
1.000000 0.478735 0.299337
1.000000 0.518817 0.328766
1.000000 0.543603 0.354931
1.000000 0.566323 0.378914
0.000000 0.127478 0.006353
0.000000 0.127746 0.007057
0.000000 0.127673 0.007267
0.006938 0.127497 0.007723
0.033839 0.127735 0.008390
0.085280 0.127991 0.009209
0.080003 0.131199 0.011228
0.098873 0.132443 0.011864
0.130033 0.121402 0.009889
0.176976 0.120358 0.003954
0.236379 0.120930 0.002646
0.311675 0.120765 0.003818
0.399177 0.117441 0.008523
0.486860 0.108905 0.014008
0.567380 0.093663 0.019009
0.639717 0.069196 0.023183
0.705997 0.062063 0.039712
0.767802 0.057372 0.056051
0.819577 0.057960 0.052567
0.859486 0.071255 0.051001
0.890309 0.099507 0.048539
0.922622 0.116383 0.048245
0.954892 0.102752 0.048692
0.970280 0.125068 0.048944
0.975407 0.176083 0.066445
0.990426 0.237611 0.116683
1.000000 0.250640 0.161149
1.000000 0.287225 0.207181
1.000000 0.396313 0.259463
1.000000 0.481377 0.299370
1.000000 0.520701 0.328792
1.000000 0.544905 0.354951
1.000000 0.567213 0.378927
0.000000 0.156513 0.009285
0.000000 0.156756 0.010078
0.000000 0.156999 0.010870
0.001050 0.156848 0.010947
0.017053 0.157220 0.011394
0.061498 0.157742 0.012267
0.077743 0.159801 0.013666
0.091589 0.165528 0.016141
0.126300 0.166332 0.015451
0.169772 0.151361 0.011722
0.232654 0.150023 0.002280
0.312488 0.151598 0.004157
0.405477 0.153425 0.010771
0.498551 0.153204 0.017469
0.581787 0.148090 0.022925
0.653308 0.132781 0.027717
0.713570 0.103102 0.042876
0.770156 0.085505 0.056144
0.819652 0.073696 0.052450
0.858956 0.080853 0.050634
0.890933 0.112669 0.048303
0.923272 0.127527 0.048179
0.954895 0.130826 0.048421
0.970301 0.152974 0.048675
0.975937 0.199199 0.066901
0.990452 0.252669 0.117513
1.000000 0.262449 0.161724
1.000000 0.294875 0.207740
1.000000 0.402132 0.259749
1.000000 0.484788 0.299414
1.000000 0.523150 0.328827
1.000000 0.546603 0.354977
1.000000 0.568379 0.378944
0.000000 0.192511 0.014091
0.000000 0.192743 0.015014
0.000000 0.192974 0.015937
0.000000 0.193046 0.015984
0.004823 0.193469 0.016293
0.028978 0.194433 0.016894
0.090202 0.195753 0.018011
0.079175 0.202205 0.020074
0.113289 0.210125 0.021851
0.166387 0.209627 0.018672
0.224002 0.189244 0.011659
0.308200 0.189399 0.006395
0.407749 0.193577 0.012575
0.507593 0.198318 0.019515
0.596623 0.201670 0.026142
0.671586 0.200184 0.035286
0.731562 0.187770 0.052452
0.779978 0.159501 0.058574
0.824398 0.136897 0.053128
0.861450 0.132679 0.050398
0.892156 0.149859 0.047857
0.923485 0.168953 0.047654
0.954907 0.172396 0.047929
0.970879 0.184471 0.048484
0.976554 0.226202 0.067458
0.990439 0.270439 0.118609
1.000000 0.274755 0.162790
1.000000 0.304390 0.208514
1.000000 0.410001 0.260289
1.000000 0.489557 0.299517
1.000000 0.526313 0.328875
1.000000 0.548811 0.355012
1.000000 0.569901 0.378966
0.000000 0.239838 0.021660
0.000000 0.240073 0.022743
0.000000 0.240307 0.023826
0.000000 0.240541 0.024909
0.000000 0.240560 0.024193
0.006260 0.241337 0.024362
0.048262 0.242822 0.024622
0.075807 0.247977 0.025501
0.092343 0.259260 0.027628
0.147216 0.269575 0.030718
0.219890 0.265648 0.025684
0.297437 0.240221 0.013766
0.402979 0.243646 0.014608
0.510317 0.250279 0.021058
0.605127 0.257306 0.028467
0.685370 0.262312 0.041577
0.748894 0.262215 0.062346
0.799070 0.252125 0.066728
0.837719 0.226722 0.057504
0.871256 0.203406 0.052148
0.898342 0.207490 0.048339
0.926334 0.217101 0.047463
0.955138 0.214114 0.047748
0.971411 0.220432 0.048425
0.977679 0.252488 0.068620
0.991469 0.292166 0.119971
1.000000 0.289479 0.164186
1.000000 0.316694 0.209507
1.000000 0.419906 0.261012
1.000000 0.496160 0.299710
1.000000 0.530369 0.328937
1.000000 0.551663 0.355059
1.000000 0.571879 0.378997
0.000000 0.294293 0.032793
0.000000 0.294498 0.034043
0.000000 0.294704 0.035292
0.000000 0.294909 0.036541
0.000000 0.295114 0.037790
0.000000 0.295148 0.037265
0.007321 0.296193 0.036076
0.090829 0.298840 0.035322
0.075703 0.309802 0.035861
0.118374 0.324508 0.040236
0.196085 0.335296 0.042549
0.291636 0.326371 0.031722
0.390450 0.299754 0.019111
0.505647 0.304749 0.022538
0.607005 0.311449 0.031326
0.692127 0.318539 0.048314
0.759216 0.324165 0.071096
0.812984 0.325685 0.070781
0.855135 0.318314 0.064351
0.889525 0.295880 0.057394
0.913117 0.276480 0.050941
0.935043 0.270404 0.048775
0.958594 0.257745 0.048174
0.972800 0.255529 0.048535
0.979175 0.282494 0.070159
0.991647 0.315608 0.122278
1.000000 0.309195 0.165753
1.000000 0.331778 0.210757
1.000000 0.429977 0.261463
1.000000 0.504263 0.299980
1.000000 0.535523 0.329021
1.000000 0.555315 0.355122
1.000000 0.574435 0.379038
0.000000 0.355242 0.049308
0.000000 0.355420 0.050578
0.000000 0.355598 0.051848
0.000000 0.355775 0.053118
0.000000 0.355953 0.054388
0.000000 0.356130 0.055657
0.000000 0.356220 0.055867
0.016208 0.358123 0.051542
0.066046 0.363490 0.048106
0.091766 0.378338 0.046932
0.161204 0.397360 0.051328
0.262763 0.408226 0.052067
0.380616 0.392548 0.037390
0.492252 0.365276 0.026706
0.601243 0.370301 0.036410
0.692011 0.377204 0.056054
0.762983 0.384582 0.076354
0.820410 0.390655 0.071426
0.865583 0.393234 0.067990
0.903382 0.387111 0.062670
0.934751 0.367758 0.056710
0.950173 0.343954 0.052714
0.966718 0.316120 0.050303
0.976111 0.300488 0.049439
0.981451 0.313141 0.072194
0.993046 0.342167 0.124862
1.000000 0.330238 0.168443
1.000000 0.348805 0.212663
1.000000 0.442019 0.261997
1.000000 0.512262 0.300186
1.000000 0.541935 0.329146
1.000000 0.559949 0.355207
1.000000 0.577713 0.379093
0.000000 0.418825 0.065737
0.000000 0.419017 0.065677
0.000000 0.419209 0.065618
0.000000 0.419401 0.065558
0.000000 0.419593 0.065499
0.000000 0.419785 0.065439
0.000000 0.420025 0.065365
0.000000 0.420232 0.065885
0.030939 0.422615 0.067126
0.065514 0.431565 0.061206
0.124356 0.451077 0.059285
0.218751 0.473655 0.064344
0.346669 0.482043 0.063955
0.476451 0.460045 0.047771
0.586940 0.432647 0.044931
0.684572 0.437035 0.065554
0.760659 0.442984 0.074797
0.821176 0.449726 0.070416
0.869797 0.455843 0.069366
0.910383 0.459215 0.065557
0.943751 0.455302 0.061385
0.968151 0.439592 0.059915
0.978898 0.398887 0.055599
0.983238 0.362229 0.052457
0.985044 0.355912 0.075702
0.993489 0.372142 0.128849
1.000000 0.355493 0.171405
1.000000 0.370163 0.215102
1.000000 0.460586 0.263924
1.000000 0.521793 0.300446
1.000000 0.549133 0.329329
1.000000 0.565721 0.355327
1.000000 0.581879 0.379168
0.000000 0.483684 0.074434
0.000000 0.483854 0.074333
0.000000 0.484023 0.074233
0.000000 0.484192 0.074133
0.000000 0.484361 0.074032
0.000000 0.484530 0.073932
0.000000 0.484741 0.073807
0.000000 0.485037 0.073630
0.000000 0.485430 0.073397
0.070172 0.487615 0.087623
0.081667 0.500494 0.077755
0.171439 0.523802 0.076605
0.295197 0.547776 0.089660
0.439784 0.552362 0.093423
0.565532 0.526315 0.077081
0.670112 0.498148 0.071171
0.750803 0.501172 0.071040
0.816069 0.505313 0.070303
0.867361 0.511282 0.069089
0.912078 0.517518 0.067001
0.946402 0.522329 0.064920
0.971655 0.521083 0.065352
0.989234 0.507384 0.064571
0.992324 0.449864 0.058571
0.991235 0.414726 0.082377
0.996367 0.411395 0.134051
1.000000 0.387130 0.175934
1.000000 0.397490 0.218695
1.000000 0.477363 0.265158
1.000000 0.535569 0.301123
1.000000 0.557823 0.329577
1.000000 0.572202 0.355500
1.000000 0.587075 0.379274
0.000000 0.547409 0.082479
0.000000 0.547553 0.082374
0.000000 0.547696 0.083090
0.000000 0.547838 0.084905
0.000000 0.547979 0.086719
0.000000 0.548121 0.088534
0.000000 0.548298 0.090804
0.000000 0.548547 0.093989
0.000000 0.548876 0.098209
0.000000 0.549312 0.103801
0.109203 0.551310 0.127753
0.111881 0.567967 0.118165
0.233583 0.593294 0.122992
0.385026 0.616266 0.141036
0.529142 0.616999 0.127124
0.643240 0.589346 0.084207
0.735093 0.560046 0.067941
0.805008 0.561200 0.069613
0.860142 0.563695 0.068178
0.907197 0.569107 0.067068
0.945126 0.575451 0.067458
0.969424 0.581548 0.069258
0.987482 0.581934 0.070190
0.997845 0.569233 0.072725
0.997265 0.506190 0.095026
0.998573 0.474339 0.143110
1.000000 0.429671 0.181417
1.000000 0.430576 0.222977
1.000000 0.503264 0.268062
1.000000 0.548161 0.301701
1.000000 0.568240 0.329919
0.999996 0.580028 0.355733
0.999909 0.592983 0.379421
0.000000 0.609943 0.141504
0.000000 0.610057 0.143504
0.000000 0.610171 0.145503
0.000000 0.610285 0.147503
0.000000 0.610399 0.149502
0.000000 0.610513 0.151502
0.000000 0.610655 0.154003
0.000000 0.610867 0.157305
0.000000 0.611154 0.161536
0.000000 0.611535 0.167144
0.000000 0.612040 0.173522
0.083406 0.614734 0.179479
0.156735 0.633587 0.154496
0.309778 0.658525 0.143254
0.475180 0.678658 0.140681
0.606656 0.676694 0.121639
0.706034 0.649625 0.083873
0.787605 0.619632 0.068817
0.848103 0.618029 0.067382
0.898518 0.619262 0.066549
0.938512 0.624453 0.068801
0.965979 0.630677 0.071571
0.984853 0.636719 0.073515
0.996557 0.637266 0.082602
0.999736 0.622839 0.114128
0.999820 0.557429 0.155754
1.000000 0.490014 0.190452
1.000000 0.478619 0.229763
1.000000 0.526448 0.270326
1.000000 0.566811 0.303223
0.999844 0.579366 0.330399
0.999834 0.589388 0.356049
0.999785 0.600129 0.379619
0.000000 0.671361 0.207026
0.000000 0.671456 0.207845
0.000000 0.671551 0.208664
0.000000 0.671646 0.209483
0.000000 0.671741 0.210302
0.000000 0.671835 0.211122
0.000000 0.671954 0.212147
0.000000 0.672121 0.213585
0.000000 0.672341 0.215490
0.000000 0.672634 0.218015
0.000000 0.673080 0.221195
0.000000 0.673675 0.225399
0.081607 0.676803 0.184972
0.213149 0.695960 0.159962
0.394386 0.719039 0.149623
0.554988 0.735413 0.147062
0.672058 0.732259 0.127074
0.758049 0.707538 0.087227
0.829600 0.676408 0.069894
0.885794 0.671806 0.067671
0.929650 0.672052 0.069857
0.960828 0.676658 0.073088
0.981446 0.682091 0.075898
0.994599 0.686496 0.091960
0.999067 0.682245 0.127363
1.000000 0.660803 0.171530
1.000000 0.581110 0.203093
1.000000 0.551531 0.239461
1.000000 0.573610 0.275796
1.000000 0.582360 0.304403
0.999777 0.592096 0.331176
0.999653 0.599570 0.356484
0.999635 0.608709 0.379890
0.000000 0.730253 0.249274
0.000000 0.730326 0.249257
0.000000 0.730400 0.249240
0.000000 0.730473 0.249222
0.000000 0.730546 0.249205
0.000000 0.730620 0.249187
0.000000 0.730712 0.249166
0.000000 0.730841 0.249135
0.000000 0.731036 0.249163
0.000000 0.731321 0.249269
0.000000 0.731698 0.249409
0.000000 0.732158 0.249858
0.000000 0.732755 0.250550
0.094293 0.736653 0.207861
0.284595 0.754011 0.179292
0.477389 0.773973 0.164676
0.625554 0.786781 0.157470
0.727288 0.783481 0.137677
0.801703 0.761919 0.098298
0.866417 0.729603 0.076681
0.918773 0.722724 0.073131
0.955598 0.722347 0.075376
0.977570 0.725912 0.078350
0.992296 0.729244 0.104933
0.998298 0.727488 0.141275
1.000000 0.712787 0.181936
1.000000 0.684225 0.217424
1.000000 0.629115 0.248631
1.000000 0.618693 0.280426
1.000000 0.609906 0.307224
0.999560 0.605359 0.332071
0.999458 0.611717 0.357759
0.999475 0.617021 0.380203
0.000000 0.785334 0.275419
0.000000 0.785392 0.275486
0.000000 0.785449 0.275552
0.000000 0.785506 0.275619
0.000000 0.785563 0.275685
0.000000 0.785620 0.275751
0.000000 0.785691 0.275833
0.000000 0.785790 0.275948
0.000000 0.785917 0.276115
0.000000 0.786069 0.276410
0.000000 0.786268 0.276795
0.000000 0.786528 0.277296
0.000000 0.786866 0.277944
0.000000 0.787305 0.278775
0.126283 0.792734 0.231794
0.368020 0.806861 0.202935
0.551912 0.823047 0.187406
0.682892 0.832749 0.178626
0.774455 0.829849 0.159425
0.840626 0.810831 0.121046
0.900277 0.778383 0.087821
0.946765 0.770794 0.085236
0.973553 0.769377 0.088481
0.989965 0.771711 0.122383
0.997517 0.769788 0.157839
0.999704 0.758331 0.194236
0.999969 0.735210 0.227476
0.999965 0.705776 0.258036
0.999981 0.662667 0.285526
1.000000 0.635929 0.310206
0.999490 0.625532 0.334040
0.999224 0.623055 0.358745
0.999294 0.626194 0.380622
0.000000 0.837737 0.303229
0.000000 0.837774 0.303302
0.000000 0.837811 0.303374
0.000000 0.837838 0.303606
0.000000 0.837865 0.303844
0.000000 0.837891 0.304082
0.000000 0.837924 0.304378
0.000000 0.837971 0.304791
0.000000 0.838032 0.305334
0.000000 0.838113 0.306048
0.000000 0.838219 0.306984
0.000000 0.838360 0.308204
0.000000 0.838543 0.309790
0.000000 0.838784 0.311839
0.000000 0.839097 0.314466
0.180559 0.845057 0.266179
0.452304 0.855193 0.240126
0.617851 0.867657 0.226971
0.734222 0.875282 0.215525
0.814811 0.872847 0.194679
0.877089 0.854905 0.159449
0.930872 0.823650 0.108832
0.967944 0.815611 0.124761
0.987406 0.812298 0.146896
0.996625 0.811973 0.178515
0.999139 0.803180 0.210504
0.999598 0.783155 0.239855
0.999758 0.753995 0.267626
0.999461 0.712126 0.292955
0.999867 0.670281 0.315949
0.999324 0.649506 0.337698
0.998891 0.641203 0.360185
0.999003 0.642700 0.382253
0.000000 0.872826 0.345438
0.000000 0.872837 0.345695
0.000000 0.872847 0.345950
0.000000 0.872857 0.346206
0.000000 0.872868 0.346460
0.000000 0.872878 0.346714
0.000000 0.872891 0.347031
0.000000 0.872909 0.347474
0.000000 0.872933 0.348058
0.000000 0.872965 0.348826
0.000000 0.873007 0.349836
0.000000 0.873062 0.351159
0.000000 0.873135 0.352885
0.000000 0.873230 0.355130
0.000000 0.873355 0.358030
0.000000 0.873518 0.361752
0.252613 0.881105 0.311068
0.527727 0.891915 0.288809
0.674991 0.905167 0.279573
0.777851 0.913118 0.271109
0.851891 0.910537 0.256100
0.910604 0.893580 0.222194
0.957313 0.862399 0.172341
0.983920 0.853610 0.190638
0.995753 0.847904 0.203261
0.998648 0.843196 0.231053
0.999125 0.829041 0.257773
0.999201 0.803814 0.280662
0.999195 0.761928 0.302252
0.999057 0.711398 0.323781
0.999048 0.682236 0.343364
0.998576 0.664515 0.363305
0.998527 0.661452 0.384616
0.000000 0.902197 0.396405
0.000000 0.902203 0.396650
0.000000 0.902208 0.396894
0.000000 0.902213 0.397138
0.000000 0.902219 0.397382
0.000000 0.902224 0.397625
0.000000 0.902231 0.397928
0.000000 0.902240 0.398353
0.000000 0.902253 0.398913
0.000000 0.902269 0.399652
0.000000 0.902291 0.400625
0.000000 0.902320 0.401903
0.000000 0.902358 0.403577
0.000000 0.902408 0.405764
0.000000 0.902474 0.408607
0.000000 0.902562 0.412282
0.000000 0.902677 0.417000
0.335529 0.909687 0.364511
0.595609 0.919868 0.347285
0.726300 0.931863 0.342047
0.816802 0.940325 0.339085
0.886799 0.940956 0.333253
0.940254 0.928061 0.302477
0.978143 0.896284 0.233844
0.994684 0.886482 0.252242
0.998097 0.879327 0.255018
0.998638 0.871121 0.279790
0.998637 0.853507 0.301060
0.998706 0.816419 0.315724
0.998793 0.752935 0.330279
0.998306 0.716347 0.350448
0.997488 0.678536 0.366632
0.997294 0.671065 0.387355
0.000000 0.930862 0.454973
0.000000 0.930865 0.455202
0.000000 0.930868 0.455430
0.000000 0.930872 0.455658
0.000000 0.930875 0.455886
0.000000 0.930879 0.456113
0.000000 0.930883 0.456397
0.000000 0.930889 0.456794
0.000000 0.930896 0.457320
0.000000 0.930907 0.458013
0.000000 0.930921 0.458928
0.000000 0.930939 0.460132
0.000000 0.930963 0.461714
0.000000 0.930995 0.463787
0.000000 0.931037 0.466495
0.000000 0.931093 0.470016
0.000000 0.931167 0.474569
0.000000 0.931265 0.480416
0.421984 0.936182 0.426741
0.654749 0.943785 0.412545
0.769882 0.953584 0.407599
0.853142 0.961156 0.405565
0.918851 0.962062 0.402696
0.964722 0.950981 0.376124
0.991943 0.921723 0.294537
0.998073 0.912524 0.306819
0.998216 0.905835 0.303341
0.998185 0.896970 0.324711
0.998217 0.872947 0.338586
0.998068 0.819005 0.344897
0.997106 0.748541 0.355960
0.995677 0.709465 0.371614
0.995314 0.693851 0.390605
0.000000 0.956967 0.518820
0.000000 0.956969 0.518982
0.000000 0.956971 0.519144
0.000000 0.956974 0.519305
0.000000 0.956976 0.519467
0.000000 0.956978 0.519628
0.000000 0.956981 0.519830
0.000000 0.956986 0.520112
0.000000 0.956991 0.520486
0.000000 0.956998 0.520980
0.000000 0.957008 0.521631
0.000000 0.957021 0.522491
0.000000 0.957038 0.523622
0.000000 0.957061 0.525109
0.000000 0.957090 0.527058
0.000000 0.957130 0.529604
0.000000 0.957182 0.532915
0.000000 0.957251 0.537197
0.000000 0.957342 0.542809
0.504246 0.959748 0.486429
0.709597 0.964807 0.474084
0.808800 0.971854 0.470148
0.887632 0.977317 0.469965
0.946536 0.977410 0.468856
0.983083 0.967606 0.441952
0.997274 0.941378 0.350507
0.998391 0.931603 0.355644
0.997977 0.924375 0.348574
0.997879 0.915797 0.364018
0.997636 0.888898 0.371215
0.996497 0.834218 0.373770
0.994798 0.783042 0.382544
0.994430 0.775118 0.402886
0.000000 0.978399 0.578506
0.000000 0.978400 0.578643
0.000000 0.978402 0.578780
0.000000 0.978403 0.578916
0.000000 0.978404 0.579053
0.000000 0.978405 0.579189
0.000000 0.978407 0.579360
0.000000 0.978409 0.579599
0.000000 0.978412 0.579915
0.000000 0.978415 0.580333
0.000000 0.978420 0.580885
0.000000 0.978427 0.581615
0.000000 0.978435 0.582577
0.000000 0.978447 0.583843
0.000000 0.978462 0.585507
0.000000 0.978482 0.587689
0.000000 0.978509 0.590539
0.000000 0.978544 0.594245
0.000000 0.978591 0.599040
0.000000 0.978657 0.605345
0.578530 0.978539 0.547743
0.755765 0.981234 0.536207
0.844930 0.985731 0.531472
0.918144 0.988975 0.530489
0.968800 0.988327 0.527659
0.993079 0.980106 0.498214
0.998283 0.957596 0.400735
