lut/Sony/NewLook/SL3SG3CtoWarm_709.cube
# Copyright 2023 SONY
# Warm 709 LUT
# S-Log3/S-Gamut3.Cine to Rec.709
# 
LUT_3D_SIZE 9
0.000000 0.000000 0.000000
0.063737 0.000000 0.000000
0.185901 0.000000 0.000000
0.390051 0.000000 0.000000
0.671824 0.000000 0.000000
0.910780 0.000000 0.000000
0.989792 0.000000 0.000000
0.980804 0.000000 0.000000
0.974044 0.000000 0.000000
0.000000 0.073030 0.000000
0.059220 0.061402 0.000000
0.182940 0.036790 0.000000
0.388907 0.000000 0.000000
0.671092 0.000000 0.000000
0.910262 0.000000 0.000000
0.989792 0.000000 0.000000
0.980804 0.000000 0.000000
0.974044 0.000000 0.000000
0.000000 0.198978 0.000000
0.047730 0.193256 0.000000
0.176364 0.179660 0.000000
0.379858 0.108339 0.000000
0.669688 0.000000 0.000000
0.909255 0.000000 0.000000
0.989792 0.000000 0.000000
0.980804 0.000000 0.000000
0.974044 0.000000 0.000000
0.000000 0.404578 0.000000
0.000000 0.401984 0.000000
0.139879 0.396933 0.000000
0.363470 0.368902 0.000000
0.635828 0.294133 0.000000
0.884611 0.207721 0.000000
0.976257 0.129793 0.000000
0.970062 0.100069 0.000000
0.965454 0.076829 0.000000
0.000000 0.666209 0.000000
0.000000 0.664576 0.000000
0.068650 0.659693 0.000000
0.328420 0.642756 0.000000
0.622263 0.604471 0.000000
0.846510 0.535332 0.000000
0.941848 0.503639 0.000000
0.933623 0.494652 0.000000
0.927459 0.488518 0.000000
0.000000 0.898817 0.000000
0.000000 0.897658 0.000000
0.000000 0.895384 0.000000
0.287068 0.881025 0.000000
0.599054 0.857053 0.000000
0.844190 0.817227 0.000000
0.928985 0.774075 0.000000
0.920684 0.768536 0.000000
0.914473 0.764904 0.000000
0.000000 0.937636 0.000000
0.000000 0.937636 0.000000
0.000000 0.937636 0.000000
0.262089 0.932509 0.000000
0.583230 0.927108 0.000000
0.838926 0.922148 0.000000
0.943618 0.910689 0.000000
0.935836 0.912139 0.000000
0.929900 0.913161 0.000000
0.000000 0.940200 0.000000
0.000000 0.940200 0.000000
0.000000 0.940200 0.000000
0.254704 0.935210 0.000000
0.579217 0.929747 0.000000
0.836316 0.924865 0.000000
0.943847 0.913649 0.000000
0.936019 0.915068 0.000000
0.930083 0.916045 0.000000
0.000000 0.949065 0.000000
0.000000 0.949065 0.000000
0.000000 0.949065 0.000000
0.249393 0.944137 0.000000
0.576211 0.938659 0.000000
0.834241 0.933928 0.000000
0.944625 0.923735 0.000000
0.936675 0.925032 0.000000
0.930648 0.925917 0.000000
0.000000 0.000122 0.056031
0.055833 0.000015 0.048844
0.182879 0.000000 0.034760
0.388113 0.000000 0.000000
0.670604 0.000000 0.000000
0.909911 0.000000 0.000000
0.989792 0.000000 0.000000
0.980804 0.000000 0.000000
0.974044 0.000000 0.000000
0.000000 0.063005 0.056611
0.051392 0.051301 0.049332
0.179202 0.026963 0.034302
0.386969 0.000000 0.000000
0.669871 0.000000 0.000000
0.909377 0.000000 0.000000
0.989792 0.000000 0.000000
0.980804 0.000000 0.000000
0.974044 0.000000 0.000000
0.000000 0.194278 0.054841
0.040650 0.188540 0.048249
0.172992 0.175097 0.033799
0.378424 0.100847 0.000000
0.668437 0.000000 0.000000
0.908370 0.000000 0.000000
0.989792 0.000000 0.000000
0.980804 0.000000 0.000000
0.974044 0.000000 0.000000
0.000000 0.403159 0.043992
0.000000 0.400519 0.036667
0.136629 0.396414 0.024369
0.361624 0.366415 0.000000
0.634852 0.291295 0.000000
0.884123 0.203983 0.000000
0.976822 0.124514 0.000000
0.970733 0.093889 0.000000
0.966171 0.069703 0.000000
0.000000 0.664530 0.039139
0.000000 0.662913 0.031693
0.061433 0.658167 0.016236
0.326314 0.641306 0.000000
0.620981 0.602914 0.000000
0.845762 0.533745 0.000000
0.941909 0.501945 0.000000
0.933791 0.492912 0.000000
0.927611 0.486748 0.000000
0.000000 0.897490 0.043122
0.000000 0.896376 0.036133
0.000000 0.894179 0.021469
0.284642 0.879973 0.000000
0.597772 0.856001 0.000000
0.843320 0.816114 0.000000
0.928908 0.772778 0.000000
0.920562 0.767254 0.000000
0.914382 0.763592 0.000000
0.000000 0.937301 0.052064
0.000000 0.937331 0.045411
0.000000 0.937362 0.031815
0.259373 0.932448 0.000000
0.581903 0.927138 0.000000
0.838026 0.922194 0.000000
0.943618 0.910689 0.000000
0.935836 0.912139 0.000000
0.929900 0.913161 0.000000
0.000000 0.939879 0.055131
0.000000 0.939864 0.048661
0.000000 0.939910 0.035157
0.251926 0.935103 0.000000
0.577859 0.929778 0.000000
0.835416 0.924895 0.000000
0.943847 0.913649 0.000000
0.936019 0.915068 0.000000
0.930083 0.916045 0.000000
0.000000 0.948745 0.056748
0.000000 0.948730 0.050416
0.000000 0.948775 0.037110
0.246479 0.944060 0.000000
0.574868 0.938674 0.000000
0.833310 0.933959 0.000000
0.944625 0.923735 0.000000
0.936675 0.925032 0.000000
0.930648 0.925917 0.000000
0.000000 0.000320 0.168826
0.039979 0.000290 0.164385
0.173465 0.000107 0.155917
0.393713 0.000000 0.115236
0.668208 0.000000 0.000000
0.908202 0.000000 0.000000
0.989792 0.000000 0.000000
0.980804 0.000000 0.000000
0.974044 0.000000 0.000000
0.000000 0.042313 0.168276
0.035447 0.031556 0.164675
0.170718 0.008850 0.156390
0.392493 0.000000 0.115908
0.667460 0.000000 0.000000
0.907683 0.000000 0.000000
0.989792 0.000000 0.000000
0.980804 0.000000 0.000000
0.974044 0.000000 0.000000
0.000000 0.186084 0.169528
0.027009 0.179309 0.165011
0.165682 0.165438 0.156435
0.379385 0.088563 0.105501
0.666041 0.000000 0.000000
0.906676 0.000000 0.000000
0.989792 0.000000 0.000000
0.980804 0.000000 0.000000
0.974044 0.000000 0.000000
0.000000 0.402167 0.157198
0.000000 0.398962 0.152331
0.130663 0.396384 0.147143
0.366140 0.370275 0.104387
0.632883 0.285725 0.000000
0.883040 0.196612 0.000000
0.977752 0.113970 0.000000
0.971862 0.081331 0.000000
0.967544 0.054948 0.000000
0.000000 0.661402 0.143160
0.000000 0.659770 0.138796
0.046525 0.655222 0.129168
0.321355 0.638239 0.088090
0.618357 0.599710 0.000000
0.844312 0.530632 0.000000
0.942245 0.498619 0.000000
0.934112 0.489525 0.000000
0.927977 0.483299 0.000000
0.000000 0.895232 0.139864
0.000000 0.894057 0.135744
0.000000 0.891844 0.127321
0.279088 0.877562 0.087556
0.595041 0.853834 0.000000
0.841581 0.813947 0.000000
0.928740 0.770275 0.000000
0.920394 0.764736 0.000000
0.914168 0.761059 0.000000
0.000000 0.937026 0.144488
0.000000 0.937041 0.140307
0.000000 0.937087 0.131975
0.253361 0.932113 0.093309
0.578897 0.927001 0.000000
0.836316 0.922255 0.000000
0.943618 0.910689 0.000000
0.935836 0.912139 0.000000
0.929900 0.913161 0.000000
0.000000 0.939605 0.146319
0.000000 0.939590 0.142321
0.000000 0.939635 0.134081
0.245792 0.934798 0.095827
0.574838 0.929625 0.000000
0.833646 0.924971 0.000000
0.943847 0.913649 0.000000
0.936019 0.915068 0.000000
0.930083 0.916045 0.000000
0.000000 0.948455 0.147311
0.000000 0.948455 0.143221
0.000000 0.948516 0.135027
0.240345 0.943725 0.097139
0.571756 0.938537 0.000000
0.831525 0.933989 0.000000
0.944625 0.923735 0.000000
0.936675 0.925032 0.000000
0.930648 0.925917 0.000000
0.000000 0.000565 0.367422
0.000000 0.000565 0.365270
0.132815 0.000702 0.362310
0.376303 0.000397 0.347326
0.676356 0.000000 0.311940
0.925597 0.000000 0.251301
1.000000 0.000000 0.191150
0.997711 0.000000 0.169390
0.988876 0.000000 0.153552
0.000000 0.000565 0.367651
0.000000 0.000565 0.365499
0.129427 0.000702 0.362539
0.375036 0.000397 0.347570
0.675593 0.000000 0.312200
0.925063 0.000000 0.251652
1.000000 0.000000 0.191577
0.997772 0.000000 0.169894
0.988937 0.000000 0.154070
0.000000 0.127367 0.370001
0.000000 0.119249 0.364813
0.123064 0.109239 0.362371
0.372656 0.022736 0.347921
0.674083 0.000000 0.312718
0.924056 0.000000 0.252338
1.000000 0.000000 0.192477
0.997894 0.000000 0.170901
0.989075 0.000000 0.155138
0.000000 0.396735 0.367514
0.000000 0.393637 0.365332
0.094087 0.388190 0.362387
0.363775 0.363775 0.347448
0.631647 0.269245 0.275212
0.880873 0.165606 0.213657
0.989731 0.070619 0.174685
0.988312 0.029801 0.164187
0.986221 0.001053 0.155688
0.000000 0.681010 0.366247
0.000000 0.679042 0.363943
0.014359 0.672282 0.356664
0.314672 0.638025 0.321584
0.617044 0.597162 0.274495
0.835142 0.515938 0.177600
0.940795 0.483574 0.126894
0.932906 0.474372 0.110018
0.926986 0.468086 0.097749
0.000000 0.891630 0.331106
0.000000 0.890211 0.328817
0.000000 0.887465 0.324468
0.258885 0.869169 0.301335
0.582849 0.844800 0.262226
0.830640 0.802426 0.191012
0.920821 0.754192 0.114168
0.913085 0.749020 0.097902
0.907256 0.745647 0.086427
0.000000 0.939315 0.329717
0.000000 0.939101 0.327413
0.000000 0.938750 0.322988
0.231418 0.931792 0.301686
0.566140 0.926238 0.261875
0.827268 0.921691 0.200565
0.940368 0.908492 0.138796
0.933272 0.910567 0.123735
0.927779 0.911955 0.112734
0.000000 0.941878 0.330632
0.000000 0.941680 0.328328
0.000000 0.941314 0.323919
0.223392 0.934478 0.302708
0.562020 0.928862 0.262974
0.824460 0.924315 0.202014
0.939696 0.911818 0.141268
0.933608 0.913542 0.125872
0.928054 0.914900 0.115084
0.000000 0.950484 0.330541
0.000000 0.950271 0.328267
0.000000 0.949935 0.323857
0.217548 0.943435 0.303044
0.558892 0.937789 0.263294
0.822278 0.933242 0.202564
0.939651 0.922652 0.143816
0.934615 0.923888 0.128176
0.928893 0.925063 0.117128
0.000000 0.000870 0.601602
0.000000 0.000870 0.600351
0.012451 0.001083 0.598245
0.337987 0.001144 0.591409
0.653071 0.000687 0.573617
0.909758 0.000137 0.545937
1.000000 0.000000 0.524620
1.000000 0.000000 0.517479
0.999786 0.000000 0.512627
0.000000 0.000870 0.601740
0.000000 0.000870 0.600488
0.007721 0.001022 0.598321
0.336583 0.001129 0.591546
0.652277 0.000687 0.573754
0.909209 0.000153 0.546075
1.000000 0.000000 0.524773
1.000000 0.000000 0.517617
0.999786 0.000000 0.512795
0.000000 0.000870 0.601999
0.000000 0.000870 0.600748
0.000000 0.000885 0.598413
0.333867 0.001129 0.591836
0.650690 0.000702 0.573938
0.908141 0.000153 0.546380
1.000000 0.000000 0.525078
1.000000 0.000000 0.517937
0.999786 0.000000 0.513100
0.000000 0.314977 0.631785
0.000000 0.311727 0.630701
0.000000 0.305287 0.628534
0.323995 0.312764 0.590921
0.645853 0.246036 0.573907
0.904433 0.109407 0.546929
1.000000 0.000000 0.526268
1.000000 0.000000 0.519142
0.999878 0.000000 0.514290
0.000000 0.658946 0.601846
0.000000 0.657069 0.600580
0.000000 0.653422 0.598123
0.301274 0.639994 0.591592
0.631296 0.606607 0.570855
0.837034 0.503868 0.485069
0.939620 0.451133 0.445502
0.931640 0.441230 0.439796
0.925216 0.434806 0.434806
0.000000 0.917906 0.605035
0.000000 0.916640 0.603800
0.000000 0.914183 0.601389
0.251545 0.890105 0.579446
0.580774 0.848096 0.540078
0.827955 0.797070 0.490410
0.915740 0.735195 0.428611
0.911696 0.728847 0.422095
0.905608 0.725124 0.418235
0.000000 0.988449 0.606821
0.000000 0.988434 0.605570
0.000000 0.988373 0.603113
0.208545 0.959777 0.566705
0.547524 0.932479 0.521691
0.817136 0.928695 0.490043
0.926177 0.906249 0.448051
0.926116 0.897749 0.438193
0.920790 0.895613 0.435111
0.000000 0.991135 0.607416
0.000000 0.991104 0.606149
0.000000 0.991058 0.603708
0.201160 0.964691 0.569451
0.542763 0.934600 0.521737
0.814237 0.931243 0.490608
0.925811 0.912551 0.450752
0.928954 0.910445 0.441718
0.924331 0.912703 0.439292
0.000000 1.000000 0.607706
0.000000 1.000000 0.606439
0.000000 1.000000 0.603937
0.194095 0.973510 0.569253
0.538445 0.942382 0.520607
0.811261 0.939483 0.489876
0.926619 0.924193 0.453468
0.931167 0.921981 0.444373
0.926131 0.923842 0.441535
0.000000 0.001160 0.808331
0.000000 0.001160 0.807462
0.000000 0.001160 0.805783
0.276875 0.001694 0.801923
0.619699 0.001343 0.790799
0.886366 0.000931 0.773236
1.000000 0.000687 0.759976
1.000000 0.000656 0.755398
0.998337 0.000656 0.752331
0.000000 0.001160 0.808423
0.000000 0.001160 0.807553
0.000000 0.001160 0.805875
0.275242 0.001663 0.802121
0.618860 0.001343 0.790890
0.885817 0.000916 0.773327
1.000000 0.000687 0.760067
1.000000 0.000656 0.755505
0.998352 0.000656 0.752438
0.000000 0.001160 0.808606
0.000000 0.001160 0.807736
0.000000 0.001160 0.806058
0.271931 0.001678 0.802213
0.617243 0.001343 0.791074
0.884764 0.000916 0.773510
1.000000 0.000656 0.760235
1.000000 0.000656 0.755703
0.998337 0.000656 0.752636
0.000000 0.248417 0.797131
0.000000 0.244266 0.795056
0.000000 0.236042 0.791135
0.259998 0.222705 0.802106
0.611597 0.121431 0.791394
0.880430 0.000916 0.774273
1.000000 0.000671 0.760998
1.000000 0.000656 0.756466
0.998337 0.000671 0.753414
0.000000 0.566674 0.838788
0.000000 0.564813 0.837995
0.000000 0.561227 0.836469
0.182757 0.541878 0.804425
0.599771 0.567208 0.790372
0.873747 0.517418 0.773205
1.000000 0.479011 0.760281
1.000000 0.466575 0.755917
1.000000 0.458015 0.752895
0.000000 0.890547 0.808713
0.000000 0.889220 0.807843
0.000000 0.886656 0.806134
0.184527 0.877241 0.801511
0.580621 0.855970 0.790478
0.854551 0.818708 0.765866
0.952178 0.761913 0.717601
0.960678 0.749126 0.707424
0.955016 0.745617 0.705653
0.000000 0.988891 0.811048
0.000000 0.988891 0.810178
0.000000 0.988891 0.808515
0.144793 0.988678 0.802792
0.558267 0.979614 0.782910
0.832471 0.960403 0.753567
0.948882 0.924880 0.722683
0.958785 0.907301 0.706432
0.953460 0.905089 0.705043
0.000000 0.991592 0.811475
0.000000 0.991577 0.810620
0.000000 0.991577 0.808957
0.130510 0.991394 0.803143
0.554177 0.982696 0.783688
0.827680 0.968750 0.752041
0.952148 0.958877 0.728603
0.965682 0.948257 0.713649
0.961517 0.951019 0.713359
0.000000 1.000000 0.811734
0.000000 1.000000 0.810864
0.000000 1.000000 0.809232
0.120287 1.000000 0.803342
0.549096 0.989914 0.781842
0.823911 0.976242 0.750439
0.950668 0.968292 0.728969
0.967788 0.959686 0.716045
0.962921 0.961746 0.715038
0.000000 0.001358 0.943938
0.000000 0.001358 0.943191
0.000000 0.001358 0.941772
0.222202 0.002029 0.938628
0.593668 0.001724 0.929747
0.868696 0.001343 0.915450
0.999084 0.001144 0.904463
1.000000 0.001129 0.900725
0.997375 0.001129 0.898146
0.000000 0.001358 0.944015
0.000000 0.001358 0.943267
0.000000 0.001358 0.941848
0.220172 0.002045 0.938659
0.592798 0.001724 0.929839
0.868116 0.001343 0.915526
0.998672 0.001129 0.904540
1.000000 0.001129 0.900801
0.997360 0.001129 0.898238
0.000000 0.001358 0.944167
0.000000 0.001358 0.943420
0.000000 0.001358 0.942000
0.216205 0.002045 0.938766
0.591119 0.001724 0.929992
0.866957 0.001373 0.915541
0.997742 0.001129 0.904692
1.000000 0.001129 0.900969
0.997360 0.001129 0.898405
0.000000 0.176120 0.925216
0.000000 0.170840 0.925124
0.000000 0.160311 0.925002
0.200870 0.124178 0.938994
0.584360 0.001740 0.930495
0.862516 0.001373 0.916167
0.994095 0.001129 0.905348
1.000000 0.001129 0.901610
0.997360 0.001129 0.899031
0.000000 0.531914 0.988327
0.000000 0.529946 0.987686
0.000000 0.526131 0.986465
0.126772 0.508232 0.960266
0.573449 0.533867 0.930037
0.856077 0.480156 0.915633
0.988952 0.438239 0.904967
1.000000 0.424536 0.901350
0.999771 0.415076 0.898833
0.000000 0.828809 0.916365
0.000000 0.827176 0.915709
0.000000 0.824033 0.914397
0.046311 0.804944 0.908080
0.488899 0.769818 0.903181
0.843061 0.803388 0.914321
0.978592 0.780346 0.903792
1.000000 0.773098 0.900420
1.000000 0.768200 0.897887
0.000000 0.982345 0.938979
0.000000 0.982452 0.938384
0.000000 0.982712 0.937209
0.030518 0.983688 0.932860
0.538109 0.988205 0.929442
0.833982 0.962219 0.914656
0.966537 0.939132 0.899062
0.993500 0.927596 0.889738
0.990265 0.923827 0.887388
0.000000 0.985443 0.939498
0.000000 0.985504 0.939116
0.000000 0.985733 0.937911
0.010742 0.986603 0.933318
0.533440 0.991119 0.929793
0.828565 0.988159 0.912367
0.964080 0.985977 0.899138
0.991516 0.976303 0.890196
0.989944 0.972137 0.887251
0.000000 0.996033 0.940734
0.000000 0.996063 0.940551
0.000000 0.996246 0.939300
0.000000 0.997024 0.934524
0.530297 1.000000 0.929992
0.824506 0.995377 0.910460
0.961776 0.994583 0.898619
0.991974 0.991882 0.892348
0.991913 0.991424 0.889403
0.000000 0.001404 0.972274
0.000000 0.001404 0.972274
0.000000 0.001404 0.972274
0.201862 0.002136 0.974655
0.584924 0.001862 0.977630
0.862760 0.001526 0.978973
0.994171 0.001312 0.968277
1.000000 0.001297 0.964782
0.996979 0.001312 0.962173
0.000000 0.001404 0.972274
0.000000 0.001404 0.972274
0.000000 0.001404 0.972274
0.199710 0.002136 0.974609
0.584039 0.001862 0.977630
0.862104 0.001556 0.978897
0.993683 0.001312 0.968368
1.000000 0.001297 0.964858
0.996979 0.001312 0.962249
0.000000 0.001404 0.972274
0.000000 0.001404 0.972274
0.000000 0.001404 0.972274
0.195392 0.002136 0.974548
0.582345 0.001846 0.977630
0.860975 0.001556 0.979049
0.992752 0.001312 0.968521
1.000000 0.001297 0.965026
0.996979 0.001312 0.962402
0.000000 0.148379 0.956420
0.000000 0.142428 0.957214
0.000000 0.130388 0.959121
0.178271 0.076783 0.974319
0.575479 0.001877 0.977539
0.856535 0.001556 0.979644
0.989075 0.001328 0.969162
1.000000 0.001297 0.965652
0.996963 0.001328 0.963043
0.000000 0.520867 1.000000
0.000000 0.518822 1.000000
0.000000 0.514885 1.000000
0.100694 0.498405 0.996902
0.564462 0.522393 0.976043
0.850141 0.467338 0.978347
0.983871 0.424063 0.968826
1.000000 0.409857 0.965393
0.999374 0.400046 0.962936
0.000000 0.808392 0.948363
0.000000 0.806577 0.949111
0.000000 0.803098 0.950607
0.000000 0.786160 0.958770
0.476432 0.754864 0.945968
0.837293 0.796521 0.975464
0.973709 0.773159 0.967819
1.000000 0.765866 0.964599
1.000000 0.760906 0.962127
0.000000 0.978058 0.958038
0.000000 0.978058 0.958038
0.000000 0.978058 0.958038
0.000000 0.978058 0.958038
0.516762 0.970733 0.960494
0.810742 0.940093 0.964950
0.965911 0.937484 0.967376
0.998932 0.931609 0.964096
1.000000 0.927642 0.961685
0.000000 0.981292 0.958541
0.000000 0.981292 0.958541
0.000000 0.981292 0.958541
0.000000 0.981292 0.958541
0.515496 0.983001 0.963989
0.824735 0.990616 0.973724
0.963317 0.985687 0.967147
0.995605 0.979339 0.962921
0.998535 0.975143 0.960052
0.000000 0.992325 0.960220
0.000000 0.992325 0.960220
0.000000 0.992325 0.960220
0.000000 0.992325 0.960220
0.515312 0.995361 0.966949
0.823011 1.000000 0.973907
0.961089 0.998993 0.966690
0.994324 0.999039 0.963317
0.998825 0.998657 0.960510
0.000000 0.001434 0.997330
0.000000 0.001434 0.997330
0.000000 0.001434 0.997330
0.189593 0.002197 0.999619
0.579965 0.001907 1.000000
0.859419 0.001602 1.000000
0.991302 0.001419 1.000000
1.000000 0.001434 1.000000
0.996780 0.001419 1.000000
0.000000 0.001434 0.997330
0.000000 0.001434 0.997330
0.000000 0.001434 0.997330
0.187274 0.002197 0.999573
0.579065 0.001907 1.000000
0.858824 0.001602 1.000000
0.990814 0.001419 1.000000
1.000000 0.001434 1.000000
0.996780 0.001419 1.000000
0.000000 0.001434 0.997330
0.000000 0.001434 0.997330
0.000000 0.001434 0.997330
0.182803 0.002182 0.999680
0.577295 0.001923 1.000000
0.857694 0.001602 1.000000
0.989883 0.001419 1.000000
1.000000 0.001434 1.000000
0.996780 0.001419 1.000000
0.000000 0.131060 0.984146
0.000000 0.124544 0.985183
0.000000 0.111131 0.987228
0.164431 0.046799 0.999313
0.570413 0.001923 1.000000
0.853178 0.001633 1.000000
0.986145 0.001465 1.000000
1.000000 0.001434 1.000000
0.996780 0.001419 1.000000
0.000000 0.514153 1.000000
0.000000 0.512078 1.000000
0.000000 0.508095 1.000000
0.083131 0.493156 1.000000
0.559258 0.515694 1.000000
0.846723 0.459815 1.000000
0.980972 0.415778 1.000000
1.000000 0.401266 1.000000
0.999100 0.391272 1.000000
0.000000 0.796216 0.990387
0.000000 0.794614 0.991363
0.000000 0.791501 0.993347
0.000000 0.777615 1.000000
0.470054 0.747127 0.971069
0.834043 0.792554 1.000000
0.971008 0.769070 1.000000
1.000000 0.761746 1.000000
1.000000 0.756771 1.000000
0.000000 0.971954 0.976928
0.000000 0.971954 0.976928
0.000000 0.971954 0.976928
0.000000 0.971954 0.976928
0.491188 0.947280 0.966491
0.799893 0.927611 0.992157
0.963073 0.934142 1.000000
0.996185 0.928267 1.000000
0.999863 0.924300 1.000000
0.000000 0.975326 0.977615
0.000000 0.975326 0.977615
0.000000 0.975326 0.977615
0.000000 0.975326 0.977615
0.496040 0.969192 0.975204
0.810712 0.980026 0.988800
0.959838 0.980789 1.000000
0.993988 0.977172 1.000000
0.999908 0.973388 1.000000
0.000000 0.986969 0.979889
0.000000 0.986969 0.979889
0.000000 0.986969 0.979889
0.000000 0.986969 0.979889
0.498589 0.984360 0.980941
0.814359 0.995056 0.993790
0.958877 0.999710 0.999420
0.992523 1.000000 0.999939
1.000000 1.000000 1.000000
