lut/Sony/NewLook/SL3SG3toWarm_709.cube
# Copyright 2023 SONY
# Warm 709 LUT
# S-Log3/S-Gamut3 to Rec.709
# 
LUT_3D_SIZE 9
0.000000 0.000000 0.000000
0.082688 0.000000 0.000000
0.209475 0.000000 0.000000
0.425238 0.000000 0.000000
0.709082 0.000000 0.000000
0.929851 0.000000 0.000000
0.990277 0.000000 0.022729
0.941043 0.366225 0.369485
0.939799 0.670670 0.626239
0.000016 0.065120 0.000167
0.057747 0.056606 0.000000
0.197257 0.031253 0.000000
0.419374 0.000000 0.000000
0.706634 0.000000 0.000000
0.928901 0.000000 0.000000
0.984430 0.032948 0.016483
0.938985 0.382522 0.367499
0.940001 0.675276 0.626552
0.000000 0.189391 0.000000
0.019959 0.186509 0.000000
0.174387 0.172888 0.000000
0.402804 0.096618 0.000000
0.702253 0.002140 0.000000
0.927242 0.000000 0.000000
0.975003 0.112342 0.010500
0.935944 0.406639 0.364601
0.940313 0.682406 0.627040
0.000000 0.388962 0.000000
0.000000 0.389750 0.000000
0.071287 0.386161 0.000000
0.360164 0.357529 0.000000
0.660863 0.289138 0.000000
0.897489 0.248645 0.000000
0.956660 0.308546 0.002370
0.929085 0.469565 0.359214
0.941242 0.703478 0.628509
0.000000 0.649739 0.000000
0.000000 0.649978 0.000891
0.000000 0.650360 0.003216
0.213177 0.637008 0.000000
0.617156 0.591929 0.000000
0.859259 0.531013 0.000000
0.936144 0.531362 0.004282
0.918032 0.591891 0.354589
0.942306 0.754991 0.631214
0.000000 0.883368 0.084387
0.000000 0.883413 0.085860
0.000000 0.883484 0.088153
0.000000 0.883681 0.095515
0.460755 0.853855 0.001630
0.838228 0.803507 0.000000
0.921327 0.759131 0.069944
0.905262 0.760940 0.358382
0.939524 0.835413 0.633100
0.000000 0.937383 0.229581
0.000000 0.937380 0.230561
0.000000 0.937376 0.232101
0.000000 0.937362 0.236821
0.000000 0.937321 0.250620
0.733441 0.924059 0.180130
0.936596 0.906024 0.232200
0.926540 0.900266 0.419431
0.945298 0.912509 0.650957
0.000000 0.977682 0.505279
0.000000 0.977764 0.505704
0.000000 0.977893 0.506376
0.000000 0.978294 0.508459
0.000000 0.979509 0.514772
0.000000 0.983069 0.533257
0.897581 0.919822 0.431702
0.933647 0.914914 0.512764
0.958256 0.947821 0.695325
0.000000 0.999849 0.730022
0.000000 0.999849 0.730126
0.000000 0.999849 0.730290
0.000000 0.999849 0.730800
0.000000 0.999849 0.732363
0.000000 0.999851 0.737102
0.000000 0.999855 0.750986
0.961380 0.953491 0.683411
0.974018 0.972927 0.776513
0.000000 0.000113 0.051863
0.076613 0.000003 0.045640
0.207726 0.000000 0.031034
0.423782 0.000000 0.000000
0.707920 0.000000 0.000000
0.928829 0.000000 0.000000
0.995008 0.000000 0.085553
0.941630 0.365103 0.385676
0.940448 0.670943 0.630845
0.000001 0.060286 0.054431
0.051392 0.051301 0.049332
0.194594 0.026285 0.034691
0.417893 0.000000 0.000000
0.705457 0.000000 0.000000
0.927880 0.000000 0.000000
0.989184 0.029630 0.080047
0.939418 0.381213 0.383470
0.940649 0.675546 0.631156
0.000000 0.186906 0.056011
0.014534 0.183907 0.053504
0.171869 0.170960 0.041259
0.401515 0.092616 0.000000
0.701065 0.001587 0.000000
0.926206 0.000000 0.000000
0.975972 0.106958 0.067984
0.936364 0.405283 0.380457
0.940962 0.682671 0.631641
0.000000 0.388917 0.057020
0.000000 0.389717 0.059554
0.066473 0.387038 0.051052
0.359300 0.357064 0.003121
0.659760 0.287454 0.000000
0.896691 0.246238 0.000000
0.956105 0.304828 0.059860
0.929099 0.468362 0.374007
0.941888 0.703728 0.633099
0.000000 0.648337 0.079978
0.000000 0.648574 0.081615
0.000000 0.648945 0.084198
0.209678 0.635545 0.048275
0.615872 0.590543 0.000000
0.858322 0.529434 0.000000
0.935312 0.528686 0.069682
0.918437 0.591149 0.368908
0.943209 0.755500 0.636030
0.000000 0.882105 0.134471
0.000000 0.882149 0.135571
0.000000 0.882220 0.137287
0.000000 0.882422 0.142963
0.458390 0.852368 0.069412
0.836326 0.801562 0.000000
0.919257 0.755763 0.122513
0.905548 0.760335 0.371087
0.940587 0.836078 0.637964
0.000000 0.937320 0.263931
0.000000 0.937318 0.264738
0.000000 0.937314 0.266008
0.000000 0.937360 0.270157
0.000000 0.937935 0.284298
0.731592 0.923939 0.220165
0.935319 0.905915 0.259002
0.926136 0.899130 0.429551
0.945941 0.912783 0.654926
0.000000 0.980728 0.521186
0.000000 0.980804 0.521584
0.000000 0.980926 0.522213
0.000000 0.981301 0.524165
0.000000 0.982441 0.530085
0.000000 0.985733 0.547406
0.897440 0.920438 0.443046
0.934619 0.915920 0.520352
0.958885 0.948463 0.698782
0.000000 0.999849 0.733980
0.000000 0.999849 0.734081
0.000000 0.999849 0.734241
0.000000 0.999849 0.734740
0.000000 0.999849 0.736271
0.000000 0.999851 0.740911
0.000000 0.999862 0.754523
0.961890 0.954290 0.687200
0.974311 0.973226 0.778206
0.000000 0.000312 0.162829
0.062632 0.000255 0.158714
0.201417 0.000040 0.149799
0.430474 0.000000 0.107218
0.707673 0.000000 0.013567
0.927881 0.000000 0.000850
1.000000 0.000000 0.202715
0.951208 0.372493 0.415533
0.941461 0.671387 0.637934
0.000000 0.047920 0.165605
0.037898 0.039691 0.160766
0.188610 0.016182 0.152559
0.424644 0.000000 0.111607
0.705375 0.000000 0.016738
0.927009 0.000000 0.001106
0.995186 0.028212 0.197240
0.942945 0.382811 0.407172
0.941664 0.675987 0.638236
0.000000 0.182443 0.166464
0.004664 0.178845 0.164203
0.165682 0.165438 0.156435
0.402934 0.087243 0.105939
0.701282 0.000000 0.021865
0.925467 0.000000 0.002013
0.982837 0.100888 0.180216
0.936280 0.403377 0.400464
0.941978 0.683108 0.638708
0.000000 0.391224 0.161986
0.000000 0.392256 0.163550
0.055071 0.386386 0.156158
0.365092 0.363842 0.121877
0.657245 0.283804 0.013509
0.895031 0.241172 0.000000
0.955318 0.299659 0.156259
0.929435 0.466871 0.394304
0.942910 0.704154 0.640125
0.000000 0.645950 0.161915
0.000000 0.646183 0.163045
0.000000 0.646550 0.164814
0.204248 0.633698 0.143135
0.612010 0.586952 0.052793
0.855757 0.525772 0.014484
0.934457 0.524868 0.153871
0.919595 0.590655 0.389606
0.944632 0.756330 0.643307
0.000000 0.879820 0.201687
0.000000 0.879857 0.202698
0.000000 0.879917 0.204286
0.000000 0.880104 0.209148
0.454429 0.849780 0.159896
0.832008 0.797390 0.097563
0.917188 0.751540 0.182916
0.905972 0.759446 0.389908
0.942241 0.837129 0.645076
0.000000 0.939288 0.316293
0.000000 0.939318 0.317066
0.000000 0.939364 0.318285
0.000000 0.939508 0.322041
0.000000 0.940537 0.334054
0.728869 0.923799 0.272964
0.933514 0.905762 0.296878
0.926146 0.898275 0.445025
0.946937 0.913208 0.661071
0.000000 0.985127 0.544350
0.000000 0.985195 0.544709
0.000000 0.985302 0.545278
0.000000 0.985635 0.547041
0.000000 0.986553 0.552273
0.000000 0.987477 0.565302
0.897250 0.921374 0.459978
0.936098 0.917451 0.531904
0.959862 0.949461 0.704151
0.000000 0.999849 0.740074
0.000000 0.999849 0.740172
0.000000 0.999849 0.740327
0.000000 0.999849 0.740810
0.000000 0.999849 0.742291
0.000000 0.999851 0.746783
0.000000 0.999875 0.759985
0.962681 0.955528 0.693077
0.974767 0.973693 0.780851
0.000000 0.000554 0.356760
0.007582 0.000630 0.354974
0.171671 0.000633 0.352232
0.418101 0.000316 0.338098
0.716327 0.000000 0.312966
0.945800 0.000000 0.298964
1.000000 0.001374 0.370703
0.975860 0.392037 0.494157
0.947149 0.675159 0.660475
0.000000 0.002535 0.357782
0.000000 0.002366 0.356159
0.156440 0.000651 0.353588
0.411655 0.000326 0.339564
0.713688 0.000000 0.314338
0.944793 0.000000 0.300179
1.000000 0.010935 0.371535
0.968124 0.402453 0.486072
0.946808 0.679302 0.660160
0.000000 0.139148 0.367560
0.000000 0.135036 0.365332
0.127811 0.128495 0.353826
0.401057 0.053850 0.341678
0.709342 0.000000 0.316555
0.943039 0.000000 0.302211
0.999847 0.097475 0.366981
0.955980 0.417561 0.473719
0.946281 0.685718 0.659675
0.000000 0.390494 0.361978
0.000000 0.391334 0.362723
0.018636 0.386649 0.359877
0.363775 0.363775 0.347448
0.655307 0.275252 0.280811
0.890543 0.224467 0.258439
0.958301 0.289183 0.317141
0.929883 0.462143 0.447586
0.946210 0.705885 0.659934
0.000000 0.668438 0.371667
0.000000 0.668716 0.372451
0.000000 0.669155 0.373687
0.186288 0.629416 0.336146
0.616966 0.591917 0.302024
0.846874 0.513936 0.240637
0.933264 0.515606 0.299439
0.922969 0.589554 0.444619
0.948583 0.758562 0.663655
0.000000 0.886785 0.373771
0.000000 0.886995 0.374584
0.000000 0.887327 0.375866
0.000000 0.888356 0.379825
0.443629 0.843026 0.333780
0.821876 0.786934 0.284673
0.914001 0.742411 0.303211
0.911624 0.761237 0.444175
0.947117 0.840244 0.666043
0.000000 0.964835 0.453951
0.000000 0.964988 0.454551
0.000000 0.965228 0.455498
0.000000 0.965974 0.458430
0.000000 0.968223 0.467284
0.722589 0.924250 0.383649
0.928603 0.904185 0.380846
0.927766 0.896565 0.488042
0.949881 0.914466 0.679243
0.000000 0.989525 0.595396
0.000000 0.989540 0.595626
0.000000 0.989564 0.595990
0.000000 0.989640 0.597119
0.000000 0.989871 0.600562
0.000000 0.990348 0.610621
0.899180 0.926533 0.507674
0.940308 0.921811 0.564788
0.962628 0.952287 0.719327
0.000000 0.999865 0.757882
0.000000 0.999865 0.757971
0.000000 0.999866 0.758112
0.000000 0.999867 0.758550
0.000000 0.999871 0.759896
0.000000 0.999880 0.763949
0.000000 0.999884 0.775230
0.965041 0.959219 0.710546
0.976148 0.975105 0.788844
0.000000 0.000857 0.592338
0.000000 0.000857 0.590941
0.095134 0.001307 0.589449
0.389604 0.001046 0.581565
0.696523 0.000583 0.565735
0.931216 0.000126 0.548981
1.000000 0.000065 0.563148
1.000000 0.410886 0.632293
0.962457 0.685907 0.719415
0.000000 0.000857 0.592902
0.000000 0.000857 0.591559
0.072611 0.001255 0.589916
0.382602 0.001063 0.582130
0.693817 0.000602 0.566224
0.930128 0.000131 0.549395
1.000000 0.000066 0.563536
1.000000 0.429217 0.632129
0.961308 0.689185 0.718279
0.000000 0.072024 0.586704
0.000000 0.064747 0.586751
0.033302 0.047071 0.587686
0.370984 0.012659 0.583056
0.689257 0.000609 0.567081
0.928333 0.000128 0.550133
1.000000 0.089455 0.563705
1.000000 0.456412 0.631889
0.960763 0.695514 0.717742
0.000000 0.332565 0.622330
0.000000 0.333088 0.622369
0.000000 0.328046 0.620307
0.327805 0.335510 0.581155
0.675868 0.288233 0.568406
0.924064 0.243022 0.551151
1.000000 0.323669 0.563411
0.979842 0.502910 0.609095
0.959154 0.714232 0.716169
0.000000 0.652764 0.596981
0.000000 0.653040 0.597198
0.000000 0.653475 0.597540
0.163940 0.642737 0.591877
0.631296 0.606607 0.570855
0.850056 0.511654 0.491489
0.936132 0.502794 0.486047
0.934273 0.590960 0.561035
0.957138 0.762689 0.714533
0.000000 0.905839 0.608633
0.000000 0.905901 0.608835
0.000000 0.906000 0.609154
0.000000 0.906308 0.610146
0.431017 0.837786 0.548295
0.828884 0.792887 0.514021
0.922743 0.743277 0.486903
0.933009 0.773496 0.566493
0.959099 0.847726 0.719295
0.000000 0.989047 0.634148
0.000000 0.989046 0.634324
0.000000 0.989045 0.634603
0.000000 0.989043 0.635471
0.000000 0.989034 0.638122
0.724429 0.940051 0.556754
0.927281 0.904044 0.527698
0.937831 0.898710 0.588020
0.958733 0.918954 0.726412
0.000000 0.990541 0.692785
0.000000 0.990542 0.692912
0.000000 0.990543 0.693113
0.000000 0.990547 0.693738
0.000000 0.990560 0.695651
0.000000 0.990598 0.701429
0.907428 0.942600 0.615232
0.953225 0.935060 0.645840
0.969604 0.959422 0.757481
0.000000 0.999880 0.801310
0.000000 0.999881 0.801375
0.000000 0.999881 0.801478
0.000000 0.999881 0.801797
0.000000 0.999883 0.802778
0.000000 0.999888 0.805766
0.000000 0.999898 0.814354
0.970906 0.967862 0.752570
0.980030 0.979076 0.811330
0.000000 0.001149 0.799631
0.000000 0.001149 0.798478
0.020742 0.001433 0.796722
0.354337 0.001590 0.792449
0.669950 0.001243 0.781622
0.909204 0.000858 0.767284
1.000000 0.000679 0.765033
1.000000 0.405943 0.784904
0.999795 0.720042 0.832291
0.000000 0.001149 0.799972
0.000000 0.001150 0.798849
0.010930 0.001310 0.796983
0.346580 0.001604 0.792763
0.666938 0.001246 0.781922
0.908042 0.000859 0.767522
1.000000 0.002665 0.765198
1.000000 0.424436 0.784922
0.999738 0.724286 0.832219
0.000000 0.093799 0.790649
0.000000 0.088729 0.790176
0.000973 0.076837 0.789737
0.333579 0.023060 0.793255
0.662111 0.003575 0.782294
0.906226 0.000860 0.767909
1.000000 0.071862 0.765183
1.000000 0.451552 0.784947
0.999648 0.730862 0.832107
0.000000 0.333492 0.827817
0.000000 0.332356 0.826752
0.000000 0.327691 0.822910
0.272141 0.318794 0.774582
0.649108 0.286160 0.782678
0.902361 0.234611 0.767980
1.000000 0.312467 0.764934
1.000000 0.518136 0.785034
0.999382 0.750342 0.831784
0.000000 0.583127 0.823919
0.000000 0.583399 0.823890
0.000000 0.583830 0.823844
0.045532 0.568478 0.810963
0.603632 0.586793 0.780787
0.890925 0.553704 0.768673
1.000000 0.563671 0.765264
1.000000 0.649607 0.784986
0.985181 0.784085 0.817711
0.000000 0.885324 0.804321
0.000000 0.885400 0.804385
0.000000 0.885520 0.804486
0.000000 0.885894 0.804801
0.445787 0.861498 0.792493
0.854551 0.818708 0.765866
0.956577 0.771532 0.726415
0.968803 0.794518 0.748424
0.976732 0.857939 0.810023
0.000000 0.989345 0.814052
0.000000 0.989344 0.814105
0.000000 0.989342 0.814190
0.000000 0.989338 0.814454
0.000000 0.989323 0.815266
0.725359 0.957615 0.762164
0.950506 0.924381 0.741728
0.969419 0.915307 0.755699
0.977030 0.929128 0.814334
0.000000 0.990837 0.834050
0.000000 0.990838 0.834097
0.000000 0.990839 0.834171
0.000000 0.990842 0.834403
0.000000 0.990851 0.835117
0.000000 0.990878 0.837296
0.921826 0.970965 0.780649
0.977767 0.960240 0.780033
0.981645 0.970252 0.828095
0.000000 0.999920 0.877599
0.000000 0.999920 0.877628
0.000000 0.999920 0.877673
0.000000 0.999921 0.877813
0.000000 0.999921 0.878243
0.000000 0.999922 0.879561
0.000000 0.999910 0.883541
0.979780 0.983105 0.830490
0.987480 0.986712 0.857870
0.000000 0.216478 0.920335
0.000000 0.209850 0.918645
0.026102 0.198616 0.916892
0.358916 0.179549 0.932109
0.657703 0.116648 0.923496
0.891115 0.042409 0.910434
0.996647 0.191173 0.902388
1.000000 0.469443 0.903250
1.000000 0.733587 0.910627
0.000000 0.262302 0.920870
0.000000 0.256548 0.918467
0.007810 0.245970 0.910166
0.351966 0.240809 0.932083
0.655341 0.180191 0.923468
0.890546 0.108818 0.910335
0.996625 0.232070 0.902331
1.000000 0.482746 0.903250
1.000000 0.737593 0.910616
0.000000 0.315382 0.936617
0.000000 0.310935 0.934043
0.002232 0.302663 0.925120
0.339919 0.305744 0.930965
0.651500 0.254757 0.923532
0.889649 0.207210 0.910196
0.996311 0.289824 0.902257
1.000000 0.502826 0.903250
1.000000 0.743783 0.910602
0.000000 0.422593 0.979309
0.000000 0.419809 0.977747
0.000000 0.414183 0.974496
0.266068 0.403870 0.894484
0.639309 0.406069 0.923836
0.886270 0.367440 0.910198
0.995757 0.404254 0.902212
1.000000 0.554894 0.903199
1.000000 0.762204 0.910560
0.000000 0.604519 0.979014
0.000000 0.604747 0.979010
0.000000 0.601939 0.977788
0.099821 0.584932 0.955317
0.577092 0.595608 0.901735
0.875587 0.583861 0.910255
0.992210 0.588663 0.902088
1.000000 0.665491 0.902973
1.000000 0.803466 0.910507
0.000000 0.845922 0.914889
0.000000 0.846009 0.914909
0.000000 0.846148 0.914940
0.000000 0.846579 0.915038
0.380883 0.787200 0.895317
0.846142 0.818686 0.910301
0.982720 0.806473 0.901780
1.000000 0.828777 0.902656
0.997178 0.874062 0.907657
0.000000 0.982885 0.937073
0.000000 0.982882 0.937082
0.000000 0.982878 0.937097
0.000000 0.982866 0.937141
0.000000 0.982827 0.937278
0.741281 0.971096 0.919048
0.966537 0.939132 0.899062
0.994335 0.930784 0.893777
0.992535 0.937147 0.903638
0.000000 0.984622 0.939602
0.000000 0.984623 0.939603
0.000000 0.984623 0.939605
0.000000 0.984625 0.939611
0.000000 0.984630 0.939630
0.000000 0.984647 0.939688
0.925685 0.986062 0.906527
0.991906 0.975853 0.898014
0.992658 0.973666 0.906540
0.000000 0.995432 0.942257
0.000000 0.995432 0.942258
0.000000 0.995432 0.942260
0.000000 0.995431 0.942265
0.000000 0.995430 0.942282
0.000000 0.995425 0.942331
0.000000 0.995411 0.942484
0.984722 0.994885 0.911735
0.995032 0.994523 0.916295
0.140925 0.535170 0.990784
0.196110 0.534653 0.973418
0.255185 0.534927 0.949918
0.417107 0.531030 0.926094
0.687133 0.557532 0.975562
0.889826 0.529896 0.974474
0.989883 0.544148 0.966336
1.000000 0.634323 0.964079
1.000000 0.788876 0.963033
0.127271 0.545372 0.992438
0.189704 0.542980 0.980330
0.251067 0.543351 0.955727
0.409176 0.538435 0.922749
0.685283 0.568592 0.975485
0.889216 0.541494 0.974481
0.989606 0.553484 0.966316
1.000000 0.640628 0.964059
1.000000 0.791406 0.963024
0.105357 0.560896 0.995095
0.174237 0.557084 0.986580
0.244321 0.556112 0.964717
0.396793 0.549642 0.917656
0.682372 0.585355 0.975371
0.888201 0.558116 0.974479
0.989182 0.567731 0.966284
1.000000 0.650341 0.964028
1.000000 0.795351 0.963010
0.046337 0.603361 0.998427
0.111500 0.599060 0.992290
0.212355 0.593342 0.980161
0.369583 0.587666 0.936727
0.672130 0.628069 0.973786
0.885077 0.601676 0.974434
0.987931 0.608267 0.966197
1.000000 0.678696 0.963920
1.000000 0.807212 0.962967
0.000000 0.700661 0.997206
0.000000 0.697899 0.998083
0.021769 0.691631 0.994125
0.293835 0.675513 0.964758
0.603219 0.688458 0.937583
0.876019 0.701422 0.974149
0.984390 0.699932 0.965887
1.000000 0.745943 0.963650
0.999998 0.835769 0.962881
0.000000 0.883694 0.941111
0.000000 0.883772 0.941110
0.000000 0.883896 0.941107
0.000000 0.872707 0.940090
0.456795 0.806607 0.938618
0.844230 0.846458 0.966353
0.977076 0.839764 0.965439
1.000000 0.852607 0.963276
0.999997 0.888336 0.962798
0.000000 0.977925 0.957276
0.000000 0.977924 0.957276
0.000000 0.977923 0.957277
0.000000 0.977919 0.957280
0.000000 0.977906 0.957289
0.751843 0.956495 0.962272
0.966926 0.942364 0.966020
0.999340 0.939530 0.963363
1.000000 0.944498 0.962927
0.000000 0.981017 0.958039
0.000000 0.981017 0.958039
0.000000 0.981018 0.958041
0.000000 0.981020 0.958044
0.000000 0.981026 0.958056
0.000000 0.981046 0.958092
0.928890 0.989561 0.969907
0.995605 0.979339 0.962921
0.998652 0.976520 0.961910
0.000000 0.991942 0.960532
0.000000 0.991942 0.960533
0.000000 0.991942 0.960534
0.000000 0.991941 0.960537
0.000000 0.991940 0.960547
0.000000 0.991936 0.960578
0.000000 0.991925 0.960673
0.985690 0.999056 0.965860
0.998974 0.998715 0.963889
0.507908 0.778189 0.968860
0.524322 0.779074 0.969374
0.548533 0.780418 0.969827
0.613430 0.786131 0.975085
0.742627 0.807358 0.976438
0.900995 0.818288 0.998831
0.980669 0.813317 0.999030
1.000000 0.832422 0.999104
0.999893 0.875867 0.999461
0.504691 0.780218 0.968561
0.521365 0.781104 0.969207
0.545742 0.782453 0.969670
0.611093 0.788111 0.974800
0.740682 0.809034 0.976046
0.900643 0.820677 0.998831
0.980541 0.815627 0.999029
1.000000 0.833986 0.999104
0.999892 0.876719 0.999461
0.499576 0.783379 0.968091
0.516432 0.784273 0.968744
0.541313 0.785626 0.969431
0.607385 0.791195 0.974349
0.737612 0.811644 0.975429
0.900088 0.824404 0.998832
0.980342 0.819230 0.999008
1.000000 0.836432 0.999104
0.999890 0.878055 0.999462
0.483429 0.792850 0.966645
0.500882 0.793770 0.967321
0.526933 0.795149 0.968330
0.595751 0.800429 0.972938
0.728139 0.819486 0.973591
0.898370 0.835626 0.998791
0.979748 0.829323 0.998918
1.000000 0.843834 0.999105
0.999885 0.882131 0.999463
0.432986 0.816633 0.960842
0.452229 0.815741 0.960339
0.480924 0.816628 0.963538
0.558973 0.820915 0.967574
0.712334 0.838688 0.980395
0.893118 0.860910 0.998446
0.978200 0.852633 0.998917
0.999816 0.864749 0.999080
0.999870 0.893907 0.999467
0.288456 0.912765 0.959770
0.318067 0.908215 0.957660
0.358868 0.900924 0.955395
0.451562 0.880039 0.949038
0.640343 0.875399 0.970803
0.868105 0.902025 0.991727
0.974476 0.899606 0.998849
0.999088 0.903562 0.998999
0.999865 0.917724 0.999454
0.000000 0.970674 0.975668
0.000000 0.970673 0.975668
0.000000 0.970672 0.975668
0.000000 0.970669 0.975669
0.325523 0.966407 0.973965
0.794324 0.945387 0.986052
0.967006 0.951709 0.998786
0.996545 0.948233 0.998987
0.999874 0.949580 0.999466
0.000000 0.976250 0.976887
0.000000 0.976250 0.976887
0.000000 0.976250 0.976887
0.000000 0.976252 0.976889
0.000000 0.976257 0.976895
0.000000 0.976273 0.976911
0.934628 0.984505 0.998460
0.994280 0.979282 0.999096
0.999925 0.976732 0.999586
0.000000 0.986984 0.979312
0.000000 0.986984 0.979313
0.000000 0.986984 0.979313
0.000000 0.986984 0.979315
0.000000 0.986984 0.979319
0.000000 0.986983 0.979332
0.000000 0.986982 0.979374
0.984643 0.999887 0.999377
1.000000 1.000000 1.000000
