lut/Sony/NewLook/SL3SG3toVintage_709.cube
# Copyright 2023 SONY
# Vintage 709 LUT
# S-Log3/S-Gamut3 to Rec.709
# 
LUT_3D_SIZE 33
0.000000 0.000000 0.000000
0.002411 0.000027 0.000033
0.021452 0.000237 0.000252
0.043297 0.000469 0.000484
0.061474 0.000668 0.000696
0.079273 0.000862 0.000874
0.094215 0.001025 0.001032
0.108843 0.001189 0.001219
0.126485 0.001383 0.001430
0.145260 0.001589 0.001604
0.165321 0.001807 0.001807
0.187678 0.002057 0.002057
0.209376 0.002286 0.002286
0.232829 0.002545 0.002545
0.254339 0.002782 0.002782
0.272009 0.002972 0.002972
0.293924 0.003211 0.003211
0.316333 0.003454 0.003456
0.340477 0.003720 0.003721
0.371947 0.004059 0.004063
0.418260 0.004566 0.004566
0.483950 0.005285 0.005288
0.557956 0.006093 0.006102
0.636678 0.007056 0.027228
0.707636 0.018836 0.125468
0.771486 0.147921 0.210922
0.836635 0.264242 0.300696
0.901047 0.381974 0.407414
0.951527 0.507234 0.519789
0.982573 0.625836 0.628348
0.988560 0.715238 0.715662
0.991493 0.788749 0.782401
0.993918 0.849325 0.837919
0.000000 0.000000 0.000002
0.000000 0.000000 0.000006
0.017453 0.000186 0.000208
0.038707 0.000674 0.000456
0.054758 0.001389 0.000651
0.070737 0.002193 0.000832
0.086335 0.003198 0.001023
0.101460 0.004491 0.001236
0.116838 0.004956 0.001417
0.133540 0.003333 0.001527
0.152086 0.001664 0.001664
0.171866 0.001878 0.001878
0.193034 0.002106 0.002106
0.216199 0.002361 0.002361
0.239476 0.002619 0.002619
0.260601 0.002847 0.002847
0.286160 0.003124 0.003124
0.312204 0.003407 0.003414
0.340476 0.003720 0.003720
0.379100 0.004138 0.004143
0.431644 0.004715 0.004717
0.499496 0.005454 0.005461
0.571149 0.006238 0.006246
0.647442 0.007939 0.031877
0.715290 0.028065 0.135084
0.777251 0.162474 0.217254
0.841106 0.273979 0.306054
0.903916 0.389014 0.411553
0.952856 0.512324 0.522188
0.982737 0.628800 0.629390
0.988625 0.717019 0.716076
0.991536 0.789947 0.782576
0.993940 0.849919 0.838081
0.000463 0.012910 0.000469
0.000463 0.012926 0.000474
0.012526 0.013376 0.000605
0.034009 0.018102 0.001013
0.049314 0.020932 0.001268
0.062904 0.023249 0.001499
0.077728 0.025932 0.001736
0.095203 0.028274 0.002002
0.111407 0.028033 0.002160
0.127319 0.023668 0.002172
0.144929 0.015350 0.002067
0.164469 0.005458 0.001929
0.184692 0.002766 0.002047
0.207768 0.002271 0.002271
0.231490 0.002527 0.002527
0.254601 0.002784 0.002784
0.282502 0.003090 0.003090
0.311628 0.003405 0.003405
0.346098 0.003784 0.003784
0.391905 0.004283 0.004283
0.449531 0.004910 0.004916
0.514933 0.005623 0.005630
0.584735 0.006390 0.006394
0.657206 0.010336 0.045293
0.722486 0.048171 0.142746
0.782973 0.175297 0.223767
0.845489 0.283353 0.311488
0.906573 0.395867 0.415599
0.954146 0.517341 0.524534
0.982900 0.631734 0.630421
0.988689 0.718786 0.716488
0.991579 0.791138 0.782750
0.993962 0.850510 0.838243
0.001229 0.034657 0.001231
0.001172 0.032955 0.001175
0.009431 0.030938 0.001192
0.030145 0.031521 0.001428
0.047579 0.036421 0.001789
0.061914 0.040270 0.002068
0.076340 0.043891 0.002349
0.095455 0.048005 0.002697
0.113100 0.048467 0.002901
0.129936 0.045275 0.002961
0.147104 0.039550 0.002948
0.166017 0.027355 0.002719
0.185164 0.009928 0.002303
0.207582 0.003986 0.002328
0.231329 0.002523 0.002523
0.255610 0.002790 0.002790
0.285636 0.003120 0.003120
0.317991 0.003479 0.003479
0.357029 0.003900 0.003900
0.405738 0.004437 0.004437
0.466355 0.005094 0.005101
0.528246 0.005770 0.005775
0.597446 0.006532 0.006533
0.666472 0.012612 0.058033
0.729398 0.067488 0.150111
0.788522 0.187735 0.230086
0.849771 0.292511 0.316797
0.909184 0.402601 0.419575
0.955419 0.522290 0.526849
0.983061 0.634638 0.631442
0.988753 0.720540 0.716898
0.991622 0.792322 0.782923
0.993983 0.851099 0.838405
0.002024 0.056870 0.002024
0.001927 0.054215 0.001927
0.002997 0.049013 0.001754
0.025766 0.047661 0.001949
0.046079 0.048806 0.002206
0.061723 0.053192 0.002524
0.077407 0.057343 0.002834
0.099109 0.061791 0.003224
0.118387 0.062612 0.003451
0.136413 0.057888 0.003473
0.153677 0.052243 0.003462
0.173328 0.043660 0.003366
0.193045 0.028343 0.003036
0.215514 0.010140 0.002634
0.239943 0.002624 0.002624
0.264559 0.002892 0.002892
0.293481 0.003211 0.003211
0.329314 0.003600 0.003600
0.368797 0.004029 0.004029
0.424583 0.004642 0.004642
0.481102 0.005257 0.005260
0.539945 0.005901 0.005901
0.608889 0.006657 0.006660
0.675336 0.014762 0.070148
0.736050 0.086076 0.157203
0.793909 0.199809 0.236222
0.853957 0.301464 0.321988
0.911750 0.409219 0.423483
0.956674 0.527175 0.529135
0.983220 0.637514 0.632454
0.988817 0.722281 0.717304
0.991664 0.793499 0.783094
0.994005 0.851686 0.838565
0.002764 0.077668 0.002764
0.002686 0.075474 0.002686
0.002386 0.067171 0.002386
0.015317 0.063955 0.002407
0.043003 0.063592 0.002689
0.061484 0.064756 0.002929
0.077356 0.068941 0.003240
0.102366 0.074760 0.003713
0.123945 0.075883 0.003972
0.143847 0.070127 0.003984
0.162323 0.062559 0.003910
0.182327 0.055088 0.003856
0.202608 0.044362 0.003696
0.225067 0.019818 0.003073
0.248628 0.004797 0.002794
0.273070 0.002990 0.002990
0.306075 0.003347 0.003347
0.341626 0.003732 0.003732
0.386796 0.004225 0.004225
0.441227 0.004819 0.004825
0.494141 0.005402 0.005402
0.552773 0.006040 0.006043
0.619355 0.006771 0.006776
0.683753 0.017461 0.079928
0.742431 0.104544 0.164379
0.799143 0.211541 0.242186
0.858051 0.310219 0.327067
0.914272 0.415725 0.427327
0.957914 0.531997 0.531391
0.983377 0.640361 0.633456
0.988880 0.724009 0.717707
0.991707 0.794669 0.783266
0.994026 0.852269 0.838725
0.003639 0.102254 0.003639
0.003625 0.101854 0.003625
0.003164 0.088961 0.003164
0.005572 0.081903 0.002935
0.031339 0.079796 0.003135
0.057439 0.079741 0.003409
0.076537 0.080863 0.003650
0.102999 0.087315 0.004161
0.128632 0.090329 0.004528
0.151321 0.083188 0.004518
0.171466 0.073208 0.004381
0.191991 0.065103 0.004312
0.212056 0.056009 0.004201
0.235646 0.038394 0.003837
0.260774 0.015879 0.003309
0.286327 0.007724 0.003293
0.320467 0.003502 0.003502
0.362141 0.003956 0.003956
0.407025 0.004443 0.004444
0.458243 0.005002 0.005009
0.508350 0.005554 0.005554
0.567792 0.006202 0.006210
0.631643 0.011302 0.017528
0.693649 0.021386 0.089691
0.750035 0.127549 0.173555
0.805340 0.225589 0.249359
0.863050 0.320910 0.333269
0.917369 0.423713 0.432047
0.959442 0.537943 0.534174
0.983572 0.643884 0.634696
0.988958 0.726152 0.718208
0.991759 0.796124 0.783479
0.994053 0.852996 0.838925
0.004394 0.123519 0.004394
0.004400 0.123701 0.004400
0.004062 0.114267 0.004062
0.003796 0.104250 0.003701
0.012259 0.101102 0.003685
0.045414 0.100862 0.004022
0.075249 0.101944 0.004379
0.100526 0.102792 0.004674
0.128248 0.107473 0.005134
0.154835 0.100177 0.005155
0.178469 0.088310 0.004987
0.202097 0.078610 0.004895
0.224211 0.070991 0.004864
0.250822 0.059537 0.004737
0.279824 0.039776 0.004350
0.308566 0.013913 0.003744
0.345106 0.003771 0.003771
0.386527 0.004221 0.004222
0.430288 0.004702 0.004702
0.478827 0.005229 0.005231
0.529245 0.005782 0.005782
0.586201 0.006404 0.006412
0.647587 0.017757 0.032793
0.706057 0.056481 0.105940
0.759962 0.159416 0.186851
0.813478 0.244263 0.258941
0.869870 0.335389 0.341610
0.921608 0.434646 0.438509
0.961546 0.546128 0.538006
0.983842 0.648754 0.636412
0.989066 0.729126 0.718903
0.991832 0.798148 0.783775
0.994090 0.854009 0.839203
0.005053 0.142166 0.005053
0.005056 0.142250 0.005056
0.004876 0.137200 0.004876
0.004544 0.127972 0.004544
0.005122 0.123411 0.004394
0.016724 0.122697 0.004494
0.064701 0.124572 0.005065
0.096475 0.125272 0.005424
0.124738 0.125376 0.005725
0.156050 0.119622 0.005852
0.183828 0.107491 0.005716
0.212076 0.097827 0.005675
0.238252 0.091670 0.005741
0.270318 0.085519 0.005864
0.304695 0.073890 0.005811
0.337322 0.045205 0.005155
0.375811 0.015193 0.004545
0.416424 0.008762 0.004732
0.457340 0.008709 0.005135
0.504533 0.005513 0.005513
0.553175 0.006047 0.006047
0.609641 0.026409 0.009670
0.667789 0.035894 0.043191
0.721120 0.104901 0.126497
0.772204 0.190130 0.201942
0.823344 0.268005 0.270914
0.878579 0.353723 0.352085
0.927152 0.448593 0.446845
0.964264 0.556704 0.542960
0.984192 0.655084 0.638644
0.989207 0.733008 0.719813
0.991928 0.800799 0.784164
0.994139 0.855340 0.839569
0.005833 0.164160 0.005833
0.005835 0.164226 0.005835
0.005838 0.164292 0.005838
0.005394 0.151814 0.005394
0.005151 0.144990 0.005151
0.005277 0.143720 0.005113
0.022418 0.145322 0.005345
0.069257 0.148802 0.005960
0.108662 0.150869 0.006456
0.149612 0.149226 0.006831
0.188060 0.139601 0.006890
0.226397 0.131541 0.007012
0.258953 0.125885 0.007155
0.295076 0.121649 0.007397
0.332641 0.114728 0.007549
0.368446 0.097111 0.007319
0.407260 0.067264 0.006722
0.445948 0.043747 0.006290
0.485407 0.039101 0.006492
0.532506 0.034782 0.007541
0.583833 0.049408 0.010078
0.637611 0.068589 0.017164
0.690256 0.100882 0.079604
0.739807 0.168074 0.158382
0.787152 0.226121 0.220162
0.836415 0.295939 0.286675
0.889260 0.376154 0.364937
0.934352 0.466215 0.457507
0.967944 0.570477 0.549465
0.984645 0.663262 0.641531
0.989391 0.738052 0.720996
0.992053 0.804260 0.784673
0.994203 0.857083 0.840049
0.006597 0.185666 0.006597
0.006597 0.185662 0.006597
0.006597 0.185659 0.006597
0.006438 0.181206 0.006438
0.006027 0.169557 0.006027
0.005842 0.164291 0.005838
0.005846 0.164499 0.005846
0.015171 0.171170 0.006181
0.060383 0.180880 0.006995
0.125427 0.186371 0.007881
0.185897 0.182080 0.008360
0.239130 0.175666 0.008698
0.282576 0.170605 0.008986
0.324140 0.164987 0.009221
0.364561 0.159957 0.009469
0.400019 0.152042 0.009567
0.439857 0.137141 0.009506
0.481418 0.121205 0.009417
0.522838 0.111657 0.009443
0.570691 0.111816 0.014122
0.618895 0.121863 0.028129
0.667651 0.150005 0.071459
0.716138 0.184371 0.132085
0.760953 0.221572 0.187016
0.804947 0.267863 0.241695
0.852530 0.329814 0.306102
0.900439 0.403231 0.380662
0.943209 0.488070 0.470388
0.972891 0.588277 0.557945
0.985351 0.673884 0.645371
0.989629 0.744571 0.722528
0.992215 0.808759 0.785336
0.994287 0.859359 0.840676
0.007556 0.212705 0.007556
0.007557 0.212733 0.007557
0.007558 0.212761 0.007558
0.007559 0.212789 0.007559
0.007328 0.206154 0.007328
0.006976 0.196151 0.006976
0.006914 0.194643 0.006910
0.007234 0.203566 0.007234
0.011874 0.217505 0.007770
0.065190 0.233157 0.008889
0.169824 0.237249 0.010137
0.251414 0.233012 0.010848
0.304203 0.225937 0.011146
0.350232 0.217328 0.011334
0.394892 0.210754 0.011574
0.433458 0.207784 0.011879
0.475581 0.203509 0.012173
0.520664 0.196938 0.020695
0.564635 0.195156 0.035507
0.611909 0.198449 0.053665
0.656968 0.208408 0.091776
0.700937 0.229227 0.131349
0.743497 0.249329 0.171270
0.784870 0.275865 0.215425
0.827042 0.315543 0.268786
0.871644 0.369850 0.329067
0.913789 0.436216 0.399889
0.950905 0.516488 0.483571
0.978865 0.611129 0.568390
0.986424 0.687569 0.650443
0.989935 0.752973 0.724569
0.992425 0.814571 0.786195
0.994396 0.862317 0.841493
0.008841 0.248821 0.008841
0.008842 0.248864 0.008842
0.008844 0.248908 0.008844
0.008846 0.248951 0.008846
0.008847 0.248994 0.008847
0.008688 0.244449 0.008688
0.008288 0.233403 0.008288
0.008484 0.238713 0.008484
0.009214 0.259257 0.009214
0.011823 0.278546 0.009917
0.112134 0.292860 0.011486
0.230662 0.294111 0.012792
0.312968 0.288900 0.013452
0.369609 0.280033 0.013786
0.426150 0.272663 0.014091
0.474000 0.271093 0.015297
0.519326 0.270997 0.015014
0.565649 0.268965 0.038524
0.608317 0.267474 0.073576
0.651651 0.272024 0.104690
0.692406 0.280473 0.131972
0.732126 0.293327 0.165740
0.772185 0.310001 0.203767
0.812288 0.333251 0.246714
0.852263 0.368566 0.298831
0.892020 0.416456 0.356103
0.930341 0.475281 0.423136
0.959819 0.551467 0.499317
0.980887 0.634200 0.576481
0.987609 0.705266 0.656655
0.990328 0.763709 0.727270
0.992697 0.822118 0.787354
0.994536 0.866139 0.842552
0.010536 0.296528 0.010536
0.010538 0.296571 0.010538
0.010539 0.296615 0.010539
0.010541 0.296659 0.010541
0.010543 0.296702 0.010543
0.010544 0.296745 0.010544
0.010466 0.294566 0.010466
0.010122 0.284866 0.010122
0.010699 0.300854 0.010689
0.011420 0.321412 0.011420
0.021318 0.341379 0.012227
0.165591 0.359511 0.014388
0.302135 0.370485 0.016211
0.385653 0.360283 0.016731
0.456860 0.351191 0.017171
0.512395 0.346696 0.017596
0.562476 0.341540 0.023455
0.611191 0.338596 0.060286
0.651417 0.338076 0.108424
0.691752 0.340609 0.140708
0.728187 0.347620 0.169408
0.764882 0.358462 0.198076
0.803520 0.372795 0.236091
0.841672 0.392999 0.278911
0.878588 0.424870 0.330879
0.915470 0.468365 0.386331
0.945248 0.523010 0.446843
0.971287 0.593672 0.518838
0.982576 0.661579 0.585688
0.988317 0.723157 0.660402
0.990828 0.777482 0.730214
0.993047 0.831835 0.788904
0.994716 0.871042 0.843916
0.012655 0.356214 0.012655
0.012660 0.356348 0.012660
0.012665 0.356483 0.012665
0.012670 0.356617 0.012670
0.012675 0.356752 0.012675
0.012680 0.356886 0.012680
0.012686 0.357054 0.012686
0.012663 0.356395 0.012663
0.012253 0.344916 0.012253
0.013038 0.366917 0.013038
0.013936 0.392192 0.013936
0.047375 0.420279 0.015293
0.264107 0.450794 0.018633
0.389614 0.453065 0.020106
0.484122 0.436700 0.020457
0.548762 0.428098 0.020835
0.601171 0.417062 0.044884
0.651130 0.406883 0.086266
0.689361 0.405930 0.141156
0.728682 0.408544 0.169535
0.764269 0.414706 0.201080
0.800326 0.425235 0.232537
0.837419 0.438063 0.273404
0.874192 0.457455 0.316321
0.906933 0.486359 0.366192
0.935438 0.527412 0.415533
0.962141 0.578678 0.473582
0.977353 0.635821 0.535132
0.986144 0.696083 0.597970
0.989085 0.744361 0.664443
0.991390 0.793062 0.732658
0.993490 0.844157 0.790777
0.994945 0.877275 0.845657
0.014695 0.413752 0.014695
0.014695 0.413752 0.014695
0.014695 0.413752 0.014695
0.014695 0.413751 0.014695
0.014695 0.413751 0.014695
0.014695 0.413751 0.014695
0.014695 0.413750 0.014695
0.014695 0.413749 0.014695
0.014695 0.413748 0.014695
0.014441 0.406501 0.014441
0.015587 0.438539 0.015587
0.016691 0.469549 0.016683
0.165241 0.507235 0.019602
0.361388 0.533714 0.022597
0.482853 0.522713 0.023536
0.569768 0.508028 0.035296
0.627880 0.493998 0.071456
0.683200 0.477890 0.120521
0.724754 0.473096 0.172565
0.764503 0.477184 0.200218
0.800385 0.483879 0.233861
0.835448 0.495191 0.268972
0.870867 0.509882 0.311755
0.904092 0.528362 0.354169
0.932508 0.557693 0.403370
0.956043 0.593820 0.447553
0.973616 0.634463 0.496639
0.984727 0.684746 0.553810
0.987816 0.727743 0.605606
0.990031 0.770355 0.669873
0.992067 0.811856 0.735569
0.993877 0.854709 0.793489
0.995237 0.885205 0.847866
0.016768 0.471836 0.016768
0.016767 0.471817 0.016767
0.016768 0.471835 0.016768
0.016770 0.471903 0.016770
0.016772 0.471970 0.016772
0.016775 0.472037 0.016775
0.016778 0.472121 0.016778
0.016782 0.472239 0.016782
0.016787 0.472396 0.016787
0.016795 0.472602 0.016795
0.016933 0.476599 0.016933
0.018398 0.517826 0.018398
0.019490 0.548579 0.019490
0.254475 0.586542 0.023313
0.440868 0.602719 0.031969
0.566723 0.598260 0.055706
0.643643 0.582347 0.093505
0.709433 0.563781 0.155834
0.755452 0.553486 0.197499
0.799623 0.555705 0.232702
0.835191 0.564069 0.267848
0.867667 0.574910 0.305609
0.899046 0.587723 0.348012
0.928281 0.604449 0.389553
0.951901 0.630541 0.435448
0.970956 0.661240 0.476682
0.984116 0.693532 0.520230
0.987853 0.726939 0.566598
0.989095 0.762860 0.613206
0.990979 0.796471 0.674558
0.992899 0.834865 0.739322
0.994325 0.866894 0.796913
0.995526 0.893063 0.850383
0.019263 0.542044 0.019263
0.019267 0.542143 0.019267
0.019271 0.542241 0.019271
0.019274 0.542340 0.019274
0.019278 0.542439 0.019278
0.019282 0.542538 0.019282
0.019286 0.542661 0.019286
0.019291 0.542793 0.019291
0.019296 0.542937 0.019296
0.019303 0.543129 0.019303
0.019314 0.543458 0.019314
0.019743 0.555626 0.019743
0.020893 0.587956 0.020893
0.054101 0.619949 0.022367
0.319061 0.660945 0.026600
0.519401 0.678488 0.040469
0.647803 0.681084 0.095504
0.729326 0.660575 0.174578
0.780352 0.645771 0.217471
0.826252 0.642435 0.258380
0.861191 0.648858 0.294131
0.891567 0.657799 0.335182
0.920325 0.667637 0.378434
0.945123 0.680001 0.418288
0.964643 0.697941 0.459157
0.979020 0.718607 0.494729
0.987580 0.741906 0.533744
0.989435 0.769458 0.577677
0.990333 0.797099 0.619600
0.992049 0.826189 0.679727
0.993610 0.854269 0.744314
0.994892 0.882257 0.801109
0.995868 0.902357 0.853460
0.021434 0.603243 0.021434
0.021436 0.603312 0.021436
0.021439 0.603381 0.021439
0.021441 0.603450 0.021441
0.021443 0.603519 0.021443
0.021446 0.603588 0.021446
0.021449 0.603674 0.021449
0.021453 0.603795 0.021453
0.021458 0.603956 0.021458
0.021466 0.604168 0.021466
0.021481 0.604605 0.021481
0.021502 0.605192 0.021502
0.021981 0.618528 0.021981
0.022951 0.645824 0.022944
0.104122 0.686747 0.025241
0.402211 0.730467 0.035597
0.612069 0.752651 0.080825
0.729490 0.745070 0.165194
0.794512 0.728146 0.228418
0.843134 0.721622 0.269768
0.877521 0.724198 0.307201
0.906073 0.729738 0.352887
0.932316 0.736570 0.397185
0.954686 0.744820 0.438803
0.971819 0.756190 0.475796
0.983510 0.770281 0.508545
0.990147 0.787634 0.545557
0.990897 0.809331 0.586956
0.991606 0.832293 0.626363
0.993001 0.852444 0.686069
0.994397 0.875696 0.750416
0.995405 0.896287 0.805638
0.996279 0.913523 0.857213
0.023192 0.652731 0.023188
0.023194 0.652792 0.023191
0.023195 0.652853 0.023193
0.023197 0.652914 0.023195
0.023199 0.652975 0.023197
0.023201 0.653036 0.023200
0.023203 0.653112 0.023202
0.023207 0.653219 0.023206
0.023214 0.653419 0.023214
0.023225 0.653742 0.023225
0.023240 0.654170 0.023240
0.023258 0.654618 0.023256
0.023279 0.655167 0.023275
0.023972 0.674754 0.023972
0.025072 0.705580 0.025069
0.207487 0.759531 0.039513
0.524162 0.798938 0.103716
0.701496 0.810213 0.167673
0.794047 0.798073 0.229813
0.849789 0.788600 0.274173
0.885395 0.787345 0.320709
0.912718 0.789311 0.368330
0.937466 0.792981 0.411411
0.958562 0.797699 0.452224
0.974417 0.804796 0.488015
0.985701 0.815277 0.520037
0.991894 0.828297 0.556841
0.992198 0.844514 0.597266
0.992698 0.862150 0.635733
0.993960 0.878637 0.693302
0.995099 0.894761 0.756457
0.995973 0.911688 0.810996
0.996680 0.924410 0.860891
0.024665 0.694217 0.024663
0.024667 0.694268 0.024665
0.024669 0.694320 0.024667
0.024671 0.694371 0.024669
0.024673 0.694423 0.024670
0.024675 0.694474 0.024672
0.024677 0.694537 0.024674
0.024681 0.694626 0.024677
0.024685 0.694747 0.024682
0.024692 0.694926 0.024689
0.024701 0.695160 0.024699
0.024712 0.695465 0.024712
0.024727 0.695862 0.024728
0.024746 0.696373 0.024750
0.025870 0.728067 0.025866
0.028544 0.767671 0.028477
0.365578 0.824331 0.087526
0.645179 0.854946 0.187571
0.781555 0.849320 0.249354
0.846696 0.838180 0.292967
0.886684 0.833391 0.338958
0.914484 0.832459 0.382880
0.938195 0.834659 0.424757
0.959584 0.837894 0.465758
0.975085 0.842804 0.498744
0.986153 0.851071 0.531089
0.992729 0.861712 0.567337
0.993317 0.874670 0.606896
0.993641 0.887657 0.645121
0.994761 0.900507 0.701031
0.995808 0.913981 0.762967
0.996502 0.925953 0.815305
0.997125 0.936439 0.865095
0.026000 0.731854 0.026003
0.026002 0.731897 0.026005
0.026003 0.731941 0.026007
0.026005 0.731985 0.026009
0.026007 0.732030 0.026010
0.026008 0.732074 0.026012
0.026010 0.732130 0.026014
0.026013 0.732208 0.026017
0.026017 0.732310 0.026020
0.026022 0.732444 0.026025
0.026028 0.732621 0.026032
0.026036 0.732852 0.026040
0.026047 0.733154 0.026051
0.026062 0.733545 0.026065
0.026080 0.734050 0.026083
0.027590 0.776500 0.027590
0.049097 0.823753 0.055563
0.492329 0.872436 0.215667
0.750151 0.887715 0.284535
0.834326 0.875634 0.326104
0.881822 0.868267 0.363251
0.912022 0.865706 0.404260
0.936972 0.866452 0.441480
0.958501 0.868958 0.478577
0.974364 0.872692 0.508632
0.985537 0.879822 0.541384
0.993077 0.888553 0.577854
0.994231 0.898851 0.614208
0.994438 0.909284 0.653167
0.995435 0.919087 0.707276
0.996394 0.930003 0.768098
0.997037 0.940628 0.819894
0.997553 0.948024 0.868380
0.027286 0.767815 0.027276
0.027287 0.767854 0.027277
0.027289 0.767892 0.027278
0.027290 0.767931 0.027280
0.027291 0.767969 0.027281
0.027293 0.768007 0.027283
0.027294 0.768055 0.027285
0.027297 0.768122 0.027287
0.027300 0.768210 0.027291
0.027304 0.768326 0.027295
0.027309 0.768479 0.027301
0.027316 0.768680 0.027309
0.027325 0.768942 0.027319
0.027337 0.769284 0.027332
0.027352 0.769728 0.027349
0.027372 0.770301 0.027370
0.029365 0.819530 0.080579
0.114710 0.866737 0.224739
0.617284 0.907684 0.317508
0.806801 0.908277 0.361281
0.869892 0.898880 0.395445
0.905449 0.894724 0.426377
0.932867 0.894349 0.461203
0.955617 0.895774 0.488866
0.972126 0.898603 0.517833
0.983428 0.904426 0.550283
0.992136 0.911595 0.586008
0.995019 0.919535 0.620431
0.995124 0.928019 0.659463
0.996067 0.936463 0.713469
0.996949 0.945179 0.773179
0.997520 0.953749 0.824194
0.997986 0.959847 0.871248
0.028659 0.805085 0.039620
0.028664 0.805139 0.040112
0.028668 0.805193 0.040604
0.028672 0.805247 0.041095
0.028676 0.805301 0.041585
0.028680 0.805355 0.042074
0.028685 0.805422 0.042685
0.028693 0.805516 0.043539
0.028702 0.805640 0.044666
0.028715 0.805804 0.046153
0.028731 0.806019 0.048110
0.028753 0.806303 0.050681
0.028781 0.806675 0.054050
0.028819 0.807161 0.058448
0.028867 0.807794 0.064164
0.028930 0.808615 0.071551
0.029010 0.809671 0.081029
0.031273 0.856681 0.213023
0.254655 0.903256 0.315372
0.725669 0.933429 0.389546
0.851391 0.927504 0.423601
0.895772 0.921944 0.451739
0.926259 0.919613 0.475227
0.951194 0.920119 0.501265
0.969727 0.922413 0.529417
0.981435 0.926720 0.561132
0.990607 0.932714 0.596526
0.994796 0.939314 0.626531
0.995785 0.945952 0.666723
0.996644 0.952441 0.719925
0.997475 0.959245 0.778121
0.997942 0.965412 0.827125
0.998352 0.970132 0.872041
0.030270 0.842385 0.104560
0.030274 0.842412 0.105286
0.030278 0.842439 0.106010
0.030282 0.842466 0.106734
0.030287 0.842493 0.107457
0.030291 0.842520 0.108179
0.030296 0.842553 0.109080
0.030304 0.842600 0.110343
0.030313 0.842663 0.112010
0.030326 0.842745 0.114212
0.030344 0.842853 0.117115
0.030366 0.842996 0.120937
0.030396 0.843184 0.125958
0.030434 0.843431 0.132537
0.030485 0.843753 0.141127
0.030551 0.844173 0.152294
0.030636 0.844719 0.166728
0.030746 0.845422 0.185252
0.032679 0.886834 0.287557
0.430020 0.937085 0.387624
0.794990 0.952845 0.444311
0.880464 0.946398 0.471772
0.916712 0.943189 0.493362
0.944873 0.942717 0.517851
0.966115 0.943721 0.544882
0.979216 0.946660 0.576064
0.988987 0.951302 0.607095
0.994249 0.957321 0.634291
0.996379 0.962087 0.674933
0.997164 0.966515 0.728427
0.997909 0.970809 0.783010
0.998294 0.974774 0.830394
0.998614 0.977494 0.872718
0.031837 0.872052 0.217930
0.031840 0.872077 0.218278
0.031842 0.872102 0.218627
0.031845 0.872128 0.218975
0.031847 0.872153 0.219323
0.031850 0.872178 0.219670
0.031853 0.872210 0.220104
0.031857 0.872254 0.220712
0.031863 0.872313 0.221516
0.031870 0.872390 0.222578
0.031880 0.872492 0.223980
0.031894 0.872627 0.225829
0.031911 0.872804 0.228264
0.031934 0.873038 0.231463
0.031964 0.873344 0.235654
0.032003 0.873744 0.241129
0.032054 0.874265 0.248246
0.032120 0.874941 0.257448
0.032205 0.875850 0.268974
0.033896 0.913221 0.350103
0.596052 0.961431 0.452425
0.844373 0.966025 0.493711
0.903228 0.961536 0.518186
0.936784 0.960117 0.540516
0.960637 0.959575 0.565298
0.975772 0.960881 0.593199
0.986893 0.963584 0.616462
0.992752 0.967343 0.644708
0.995908 0.971237 0.682489
0.997470 0.974649 0.737482
0.998198 0.978239 0.788685
0.998546 0.981450 0.834375
0.998838 0.983600 0.874195
0.033065 0.896232 0.299447
0.033067 0.896267 0.299684
0.033070 0.896302 0.299921
0.033072 0.896336 0.300158
0.033074 0.896371 0.300394
0.033077 0.896406 0.300630
0.033080 0.896449 0.300926
0.033084 0.896510 0.301339
0.033089 0.896590 0.301887
0.033096 0.896696 0.302611
0.033105 0.896837 0.303567
0.033118 0.897022 0.304830
0.033134 0.897266 0.306495
0.033155 0.897588 0.308688
0.033184 0.898011 0.311569
0.033221 0.898566 0.315345
0.033269 0.899291 0.320277
0.033332 0.900234 0.326691
0.033413 0.901455 0.334986
0.033511 0.902896 0.345227
0.043938 0.938659 0.425675
0.717944 0.978177 0.523324
0.879526 0.977895 0.553140
0.928282 0.974963 0.575118
0.955649 0.973736 0.592510
0.972856 0.973508 0.608946
0.984809 0.974750 0.628783
