lut/Sony/NewLook/SL3SG3CtoVintage_709.cube
# Copyright 2023 SONY
# Vintage 709 LUT
# S-Log3/S-Gamut3.Cine to Rec.709
# 
LUT_3D_SIZE 33
0.000000 0.000000 0.000000
0.000000 0.000000 0.000000
0.014740 0.000168 0.000168
0.035386 0.000381 0.000381
0.052003 0.000565 0.000565
0.067262 0.000732 0.000732
0.085695 0.000931 0.000931
0.101076 0.001099 0.001099
0.117052 0.001282 0.001282
0.138552 0.001511 0.001511
0.158907 0.001740 0.001740
0.185061 0.002029 0.002029
0.209964 0.002289 0.002289
0.239200 0.002609 0.002609
0.272023 0.002976 0.002976
0.301793 0.003296 0.003296
0.330114 0.003601 0.003601
0.366537 0.003998 0.004013
0.395117 0.004318 0.004318
0.427039 0.004669 0.004669
0.453315 0.004959 0.004959
0.478218 0.005219 0.005234
0.501701 0.005478 0.005478
0.522805 0.005707 0.005722
0.539940 0.005905 0.005905
0.552132 0.006027 0.006043
0.562615 0.006149 0.006149
0.569009 0.006210 0.006226
0.575692 0.006287 0.006287
0.582254 0.006363 0.006363
0.585595 0.006394 0.006394
0.587106 0.006409 0.006424
0.587152 0.006409 0.006424
0.000000 0.000000 0.000000
0.000000 0.000000 0.000000
0.014466 0.000153 0.000153
0.034226 0.000381 0.000381
0.048585 0.000534 0.000534
0.061921 0.000671 0.000671
0.078416 0.000855 0.000855
0.095522 0.001038 0.001038
0.109071 0.001190 0.001190
0.127321 0.001389 0.001389
0.145129 0.001587 0.001587
0.168307 0.001846 0.001846
0.191836 0.002090 0.002090
0.219013 0.002396 0.002396
0.249241 0.002716 0.002731
0.277394 0.003037 0.003037
0.304646 0.003326 0.003326
0.339681 0.003708 0.003708
0.368185 0.004028 0.004028
0.398413 0.004349 0.004349
0.425254 0.004654 0.004654
0.449165 0.004913 0.004913
0.473747 0.005173 0.005173
0.498833 0.005447 0.005447
0.519112 0.005676 0.005676
0.535485 0.005844 0.005859
0.548211 0.005997 0.005997
0.556970 0.006088 0.006088
0.564324 0.006165 0.006165
0.570336 0.006226 0.006241
0.576898 0.006302 0.006302
0.582773 0.006363 0.006363
0.585824 0.006409 0.006409
0.000534 0.014893 0.000534
0.000519 0.014450 0.000519
0.012772 0.014572 0.000641
0.032090 0.018860 0.001007
0.045991 0.021317 0.001236
0.057481 0.022538 0.001404
0.070710 0.025040 0.001633
0.088914 0.026947 0.001892
0.104173 0.027695 0.002075
0.120836 0.024720 0.002136
0.136263 0.011398 0.001831
0.157397 0.004471 0.001816
0.177752 0.001938 0.001938
0.201923 0.002213 0.002213
0.230961 0.002518 0.002518
0.257588 0.002808 0.002823
0.284459 0.003113 0.003113
0.318944 0.003479 0.003479
0.345754 0.003784 0.003784
0.375555 0.004105 0.004105
0.401312 0.004379 0.004379
0.425208 0.004654 0.004654
0.450492 0.004929 0.004929
0.476112 0.005203 0.005203
0.499947 0.005463 0.005463
0.518273 0.005661 0.005661
0.534142 0.005844 0.005844
0.544747 0.005951 0.005951
0.553323 0.006043 0.006043
0.561502 0.006134 0.006134
0.568490 0.006210 0.006210
0.574517 0.006271 0.006287
0.580133 0.006332 0.006348
0.001404 0.039643 0.001404
0.001282 0.036027 0.001282
0.011597 0.033875 0.001312
0.030945 0.033753 0.001511
0.046525 0.037919 0.001831
0.059266 0.041276 0.002075
0.071550 0.044068 0.002304
0.090120 0.047990 0.002640
0.107057 0.049714 0.002884
0.124529 0.046571 0.002945
0.138796 0.041535 0.002930
0.157916 0.031434 0.002777
0.175143 0.011337 0.002243
0.196643 0.002152 0.002152
0.223835 0.002441 0.002441
0.248325 0.002716 0.002716
0.275151 0.003006 0.003006
0.308354 0.003372 0.003372
0.335943 0.003677 0.003677
0.364797 0.003983 0.003983
0.389502 0.004257 0.004257
0.414282 0.004532 0.004532
0.438758 0.004791 0.004791
0.463874 0.005066 0.005066
0.490410 0.005356 0.005356
0.509468 0.005570 0.005570
0.526390 0.005753 0.005753
0.538521 0.005890 0.005890
0.548089 0.005997 0.005997
0.556924 0.006088 0.006088
0.565377 0.006180 0.006180
0.572610 0.006256 0.006256
0.579126 0.006332 0.006332
0.002258 0.063355 0.002258
0.001999 0.056306 0.001999
0.004013 0.051850 0.001862
0.030243 0.051209 0.002121
0.047334 0.051667 0.002319
0.061204 0.055253 0.002594
0.074907 0.059007 0.002869
0.094957 0.062898 0.003220
0.114000 0.065202 0.003494
0.131807 0.060319 0.003510
0.146075 0.054948 0.003479
0.165820 0.046967 0.003403
0.183413 0.031693 0.003052
0.202167 0.007965 0.002411
0.225666 0.002472 0.002472
0.248081 0.002716 0.002716
0.271427 0.002960 0.002960
0.304417 0.003326 0.003326
0.331060 0.003616 0.003616
0.360327 0.003937 0.003937
0.384833 0.004211 0.004211
0.409339 0.004471 0.004471
0.433875 0.004746 0.004746
0.459480 0.005020 0.005020
0.485893 0.005310 0.005310
0.506325 0.005539 0.005539
0.524834 0.005737 0.005737
0.538521 0.005890 0.005890
0.549477 0.006012 0.006012
0.560296 0.006119 0.006119
0.568017 0.006210 0.006210
0.574975 0.006287 0.006287
0.582101 0.006363 0.006363
0.003037 0.085389 0.003037
0.002670 0.075029 0.002670
0.002487 0.070207 0.002487
0.023606 0.068467 0.002655
0.047532 0.068162 0.002899
0.063722 0.068482 0.003082
0.076646 0.071611 0.003326
0.100343 0.077363 0.003784
0.120546 0.079820 0.004074
0.140505 0.074449 0.004105
0.156191 0.065995 0.003967
0.175601 0.057618 0.003876
0.193988 0.047349 0.003708
0.212833 0.028061 0.003235
0.236500 0.002579 0.002579
0.258289 0.002823 0.002823
0.279759 0.003052 0.003052
0.308309 0.003372 0.003372
0.330785 0.003616 0.003616
0.360311 0.003937 0.003937
0.385061 0.004211 0.004211
0.408896 0.004471 0.004471
0.435218 0.004761 0.004761
0.462379 0.005051 0.005051
0.490578 0.005356 0.005356
0.511955 0.005600 0.005600
0.531044 0.005798 0.005798
0.544686 0.005951 0.005951
0.555367 0.006073 0.006073
0.565072 0.006180 0.006180
0.572686 0.006256 0.006256
0.580926 0.006348 0.006348
0.586740 0.006409 0.006409
0.003906 0.109743 0.003906
0.003464 0.097414 0.003464
0.003143 0.088579 0.003143
0.010895 0.085161 0.003113
0.044343 0.083604 0.003403
0.063432 0.083970 0.003616
0.078737 0.084443 0.003799
0.102480 0.090242 0.004257
0.126116 0.094697 0.004654
0.148852 0.088716 0.004685
0.167300 0.077531 0.004486
0.187747 0.068330 0.004379
0.205768 0.060380 0.004288
0.226429 0.048310 0.004089
0.249256 0.013840 0.003113
0.270283 0.002960 0.002960
0.291768 0.003189 0.003189
0.320394 0.003494 0.003510
0.342733 0.003738 0.003754
0.370398 0.004044 0.004044
0.395422 0.004318 0.004318
0.420554 0.004593 0.004593
0.448157 0.004898 0.004898
0.474693 0.005188 0.005188
0.501335 0.005478 0.005478
0.521630 0.005707 0.005707
0.539513 0.005890 0.005890
0.552682 0.006043 0.006043
0.562707 0.006149 0.006149
0.571283 0.006241 0.006241
0.577493 0.006317 0.006317
0.584390 0.006394 0.006394
0.590478 0.006455 0.006455
0.004608 0.129564 0.004608
0.004257 0.119753 0.004257
0.003937 0.110918 0.003937
0.006943 0.107713 0.003861
0.029114 0.106844 0.004059
0.065766 0.107668 0.004486
0.081483 0.108263 0.004669
0.103731 0.107897 0.004883
0.127428 0.112245 0.005295
0.152621 0.106249 0.005341
0.174945 0.094346 0.005158
0.198779 0.082933 0.005005
0.218250 0.075593 0.004959
0.240818 0.066392 0.004868
0.266270 0.044999 0.004395
0.288289 0.021714 0.003799
0.312947 0.003418 0.003418
0.345678 0.003784 0.003784
0.368841 0.004028 0.004028
0.397070 0.004334 0.004334
0.423163 0.004623 0.004623
0.448981 0.004913 0.004913
0.476967 0.005219 0.005219
0.504799 0.005524 0.005524
0.528893 0.005783 0.005783
0.546990 0.005982 0.005982
0.564279 0.006165 0.006165
0.574868 0.006287 0.006287
0.581018 0.006348 0.006348
0.589563 0.006439 0.006439
0.597192 0.006531 0.006531
0.602884 0.006592 0.006592
0.610864 0.006668 0.006683
0.005264 0.148043 0.005264
0.004883 0.137560 0.004883
0.004654 0.131106 0.004654
0.005341 0.128847 0.004593
0.014649 0.129244 0.004700
0.049485 0.130541 0.005112
0.081636 0.131991 0.005509
0.104250 0.131609 0.005722
0.127810 0.130724 0.005951
0.156085 0.125139 0.006043
0.181262 0.113924 0.005921
0.209155 0.102754 0.005814
0.232639 0.096330 0.005844
0.259068 0.089113 0.005859
0.290288 0.076768 0.005768
0.318135 0.051102 0.005158
0.344915 0.003769 0.003769
0.379019 0.004135 0.004150
0.406378 0.004440 0.004440
0.437751 0.004776 0.004791
0.465339 0.005081 0.005081
0.495277 0.005417 0.005417
0.521355 0.005692 0.005692
0.547967 0.005982 0.005997
0.567422 0.006195 0.006195
0.583383 0.006378 0.006378
0.595926 0.006516 0.006516
0.606500 0.006622 0.006622
0.617456 0.006744 0.006744
0.626657 0.006851 0.006851
0.637507 0.006973 0.006973
0.646021 0.007065 0.007065
0.650874 0.007111 0.007111
0.006104 0.171710 0.006104
0.005676 0.159670 0.005676
0.005402 0.152193 0.005402
0.005341 0.150240 0.005341
0.005325 0.149813 0.005325
0.022812 0.151995 0.005585
0.051560 0.155123 0.005997
0.083299 0.156847 0.006394
0.114427 0.158190 0.006775
0.152148 0.155673 0.007080
0.187106 0.146471 0.007126
0.224399 0.138231 0.007233
0.254917 0.132540 0.007355
0.285542 0.126253 0.007446
0.321172 0.118364 0.007553
0.351614 0.101396 0.007279
0.381994 0.054078 0.005936
0.418112 0.021088 0.005158
0.445533 0.004868 0.004868
0.477699 0.005219 0.005219
0.504952 0.005524 0.005524
0.531395 0.005814 0.005814
0.557961 0.006104 0.006104
0.584298 0.006378 0.006394
0.605737 0.006622 0.006622
0.623224 0.006806 0.006806
0.637858 0.006973 0.006973
0.648280 0.007080 0.007080
0.659220 0.007202 0.007202
0.668528 0.007309 0.007309
0.676722 0.007401 0.007401
0.683024 0.007462 0.007462
0.688197 0.007523 0.007523
0.006867 0.193133 0.006867
0.006439 0.181033 0.006439
0.006149 0.172915 0.006149
0.006073 0.170703 0.006058
0.006073 0.170901 0.006073
0.006149 0.173068 0.006149
0.006363 0.178805 0.006348
0.028321 0.185931 0.006836
0.080308 0.193835 0.007660
0.135302 0.195422 0.008301
0.191363 0.191226 0.008743
0.240848 0.183780 0.009003
0.279774 0.178943 0.009247
0.318914 0.172839 0.009445
0.358495 0.165209 0.009583
0.390524 0.156847 0.009628
0.421820 0.139956 0.009369
0.457740 0.113130 0.008804
0.483131 0.077531 0.007828
0.514717 0.063264 0.007660
0.542855 0.053407 0.007599
0.570245 0.041566 0.007477
0.597879 0.016129 0.006867
0.626764 0.006851 0.006851
0.649042 0.007095 0.007095
0.667506 0.007294 0.007294
0.681453 0.007446 0.007446
0.692714 0.007568 0.007568
0.702815 0.007675 0.007675
0.712398 0.007782 0.007782
0.720714 0.007874 0.007874
0.726177 0.007935 0.007935
0.730739 0.007980 0.007980
0.007889 0.222004 0.007889
0.007492 0.211002 0.007492
0.007233 0.203494 0.007233
0.007218 0.203128 0.007218
0.007340 0.206699 0.007340
0.007538 0.212131 0.007538
0.007843 0.220768 0.007843
0.008164 0.229923 0.008164
0.026291 0.241245 0.008759
0.104417 0.249165 0.009857
0.189456 0.249088 0.010758
0.262196 0.244434 0.011353
0.308843 0.237659 0.011612
0.348837 0.228748 0.011719
0.393378 0.218891 0.011841
0.427939 0.213489 0.012024
0.459068 0.209094 0.012192
0.499382 0.196139 0.012161
0.528191 0.180804 0.011933
0.563760 0.167697 0.011841
0.594308 0.156954 0.011780
0.622003 0.146090 0.011688
0.650477 0.131960 0.011505
0.677974 0.119905 0.011368
0.699947 0.109712 0.011246
0.717113 0.102678 0.011170
0.729992 0.093675 0.010986
0.740612 0.091401 0.011017
0.749966 0.086320 0.010941
0.755734 0.056977 0.009979
0.763577 0.070924 0.010544
0.769162 0.087648 0.011200
0.774014 0.105791 0.011887
0.009262 0.260807 0.009262
0.008927 0.251270 0.008927
0.008682 0.244511 0.008682
0.008774 0.246876 0.008774
0.008988 0.252903 0.008988
0.009247 0.260182 0.009247
0.009598 0.269978 0.009598
0.009979 0.281041 0.009979
0.010452 0.294041 0.010452
0.060090 0.305699 0.011383
0.171817 0.311284 0.012757
0.257572 0.310994 0.013657
0.322118 0.305821 0.014145
0.371420 0.293782 0.014252
0.424277 0.285817 0.014527
0.466270 0.281392 0.014816
0.503792 0.278874 0.015122
0.548196 0.269917 0.015274
0.579309 0.258335 0.015198
0.613092 0.247944 0.015183
0.643656 0.241611 0.015289
0.671534 0.234653 0.015335
0.700557 0.226780 0.015366
0.726040 0.218311 0.015335
0.746365 0.208545 0.015198
0.760891 0.201221 0.015106
0.773068 0.196170 0.015045
0.782757 0.195499 0.015122
0.791669 0.197467 0.015289
0.799741 0.199313 0.015442
0.807172 0.205188 0.015732
0.813275 0.214252 0.016113
0.817899 0.225238 0.016541
0.011048 0.310964 0.011048
0.010773 0.303029 0.010773
0.010636 0.299519 0.010636
0.010773 0.303090 0.010773
0.010986 0.309392 0.010986
0.011276 0.317540 0.011276
0.011582 0.325963 0.011582
0.011887 0.334401 0.011887
0.012268 0.345113 0.012268
0.012711 0.357900 0.012711
0.099794 0.372198 0.014130
0.240055 0.385885 0.016098
0.328710 0.394446 0.017334
0.397299 0.378576 0.017502
0.463996 0.365820 0.017761
0.511788 0.360418 0.018067
0.552514 0.350317 0.018143
0.597482 0.339452 0.018235
0.626978 0.330861 0.018250
0.662348 0.324819 0.018402
0.690822 0.318990 0.018494
0.714916 0.311315 0.018479
0.739940 0.303502 0.018479
0.764553 0.295872 0.018463
0.785046 0.289235 0.018448
0.799954 0.284306 0.018433
0.814054 0.282811 0.018524
0.824002 0.284443 0.018692
0.832685 0.287633 0.018891
0.841382 0.291875 0.019135
0.849989 0.299306 0.019486
0.857420 0.311040 0.019974
0.863645 0.324361 0.020508
0.013306 0.374548 0.013306
0.012985 0.365393 0.012985
0.012909 0.363210 0.012909
0.012955 0.364370 0.012940
0.013107 0.368750 0.013107
0.013291 0.373861 0.013291
0.013596 0.382620 0.013596
0.013962 0.393149 0.013962
0.014420 0.405753 0.014420
0.014969 0.421241 0.014969
0.037827 0.440681 0.015885
0.218326 0.463478 0.018601
0.333471 0.484733 0.020554
0.419516 0.470268 0.020951
0.499275 0.452644 0.021180
0.555947 0.443198 0.021439
0.596719 0.429053 0.021378
0.643961 0.411093 0.021241
0.672465 0.403021 0.021256
0.703395 0.397681 0.021393
0.730694 0.390814 0.021439
0.755642 0.385458 0.021515
0.781308 0.381277 0.021637
0.803250 0.374228 0.021622
0.824353 0.370153 0.021714
0.840208 0.368872 0.021836
0.854978 0.369619 0.022019
0.866728 0.373770 0.022278
0.876967 0.380911 0.022644
0.886519 0.388647 0.023011
0.894362 0.397803 0.023423
0.899962 0.409598 0.023896
0.905638 0.422507 0.024399
0.015366 0.432303 0.015366
0.015030 0.422980 0.015030
0.014862 0.418357 0.014862
0.014923 0.420050 0.014923
0.015152 0.426337 0.015152
0.015442 0.434775 0.015442
0.015808 0.444755 0.015808
0.016175 0.455268 0.016175
0.016663 0.468757 0.016663
0.017105 0.481315 0.017105
0.017823 0.501488 0.017823
0.175723 0.525643 0.020340
0.319219 0.549813 0.022690
0.422156 0.548730 0.023743
0.513787 0.534630 0.024216
0.580041 0.524269 0.024552
0.624475 0.506371 0.024384
0.674891 0.484840 0.024170
0.706645 0.473945 0.024109
0.739651 0.467109 0.024216
0.766094 0.460533 0.024277
0.790951 0.456321 0.024384
0.815396 0.452842 0.024521
0.840757 0.450996 0.024720
0.862165 0.449149 0.024887
0.878599 0.450416 0.025101
0.892134 0.452903 0.025330
0.903151 0.458778 0.025650
0.912184 0.466361 0.026017
0.921096 0.475441 0.026429
0.928847 0.484993 0.026841
0.933303 0.496590 0.027298
0.937728 0.508644 0.027771
0.017487 0.492287 0.017487
0.017151 0.482490 0.017136
0.017075 0.480644 0.017075
0.017136 0.482155 0.017136
0.017395 0.489632 0.017395
0.017807 0.501060 0.017807
0.018173 0.511574 0.018173
0.018586 0.522850 0.018570
0.019028 0.535653 0.019028
0.019455 0.547723 0.019455
0.019989 0.562448 0.019989
0.020630 0.580468 0.020630
0.246586 0.605768 0.023896
0.382803 0.618555 0.025788
0.507347 0.619364 0.027130
0.594812 0.618006 0.028000
0.650431 0.596780 0.027848
0.702480 0.574304 0.027604
0.736431 0.555337 0.027283
0.770214 0.546700 0.027344
0.798657 0.540124 0.027405
0.824277 0.537194 0.027573
0.850797 0.534859 0.027771
0.876081 0.533196 0.027985
0.897200 0.532280 0.028168
0.913573 0.534615 0.028428
0.927123 0.538323 0.028702
0.936645 0.544213 0.029007
0.944320 0.552666 0.029389
0.951400 0.561578 0.029770
0.957458 0.570886 0.030167
0.960662 0.582040 0.030594
0.963836 0.593256 0.031022
0.019898 0.559976 0.019898
0.019699 0.554208 0.019684
0.019623 0.552087 0.019623
0.019745 0.555703 0.019745
0.019989 0.562509 0.019989
0.020279 0.570581 0.020279
0.020569 0.578943 0.020569
0.020829 0.585962 0.020813
0.021088 0.593500 0.021088
0.021378 0.601587 0.021378
0.021775 0.612711 0.021775
0.022293 0.627283 0.022293
0.135409 0.649500 0.024262
0.301228 0.675746 0.026932
0.456092 0.686320 0.028931
0.588968 0.700175 0.030823
0.664637 0.690761 0.031296
0.723934 0.662287 0.030915
0.763531 0.645045 0.030732
0.801160 0.633844 0.030732
0.830701 0.627909 0.030839
0.857313 0.624338 0.030991
0.883238 0.621454 0.031159
0.906554 0.620386 0.031373
0.927626 0.618433 0.031525
0.942046 0.620020 0.031739
0.954665 0.625238 0.032044
0.962905 0.630152 0.032303
0.969207 0.637049 0.032624
0.973800 0.644968 0.032944
0.977172 0.653758 0.033295
0.978668 0.663233 0.033631
0.979889 0.672038 0.033967
0.021866 0.615213 0.021866
0.021714 0.610895 0.021698
0.021668 0.609827 0.021668
0.021775 0.612894 0.021775
0.021897 0.616358 0.021897
0.022110 0.622141 0.022110
0.022324 0.628367 0.022324
0.022507 0.633524 0.022507
0.022705 0.638956 0.022705
0.022919 0.644907 0.022919
0.023194 0.652644 0.023194
0.023621 0.664637 0.023621
0.024277 0.683085 0.024277
0.198444 0.710811 0.027085
0.376867 0.733410 0.029755
0.548302 0.752087 0.032227
0.661341 0.759518 0.033677
0.732387 0.737453 0.033646
0.780667 0.721614 0.033600
0.820356 0.709224 0.033585
0.850828 0.704692 0.033753
0.875807 0.701198 0.033890
0.900160 0.699489 0.034089
0.923552 0.698207 0.034287
0.942992 0.697536 0.034470
0.956527 0.699886 0.034699
0.967437 0.703487 0.034928
0.973602 0.706996 0.035126
0.977539 0.710826 0.035294
0.981460 0.715175 0.035493
0.985061 0.719554 0.035691
0.985580 0.726421 0.035935
0.986160 0.733028 0.036164
0.023575 0.663447 0.023575
0.023377 0.657877 0.023377
0.023285 0.655192 0.023285
0.023362 0.657511 0.023362
0.023514 0.661814 0.023514
0.023682 0.666621 0.023682
0.023896 0.672297 0.023880
0.024094 0.677928 0.024094
0.024247 0.682353 0.024247
0.024445 0.687785 0.024445
0.024689 0.694820 0.024689
0.025025 0.704311 0.025025
0.025696 0.723293 0.025696
0.113970 0.752560 0.027665
0.319234 0.776349 0.030655
0.500801 0.794888 0.033234
0.637324 0.808957 0.035157
0.731899 0.799374 0.035828
0.790768 0.789273 0.036088
0.833143 0.779248 0.036179
0.863142 0.772656 0.036271
0.886625 0.768811 0.036378
0.910765 0.767147 0.036576
0.932097 0.765820 0.036759
0.950820 0.764096 0.036896
0.962753 0.763989 0.037018
0.972702 0.764050 0.037125
0.978759 0.765591 0.037232
0.982589 0.768643 0.037385
0.986068 0.772000 0.037537
0.987625 0.776074 0.037705
0.987793 0.780606 0.037858
0.988006 0.785107 0.038025
0.024918 0.701289 0.024918
0.024720 0.695857 0.024720
0.024674 0.694347 0.024674
0.024765 0.696757 0.024750
0.024903 0.700648 0.024887
0.025086 0.705913 0.025086
0.025299 0.712016 0.025299
0.025544 0.718669 0.025528
0.025773 0.725460 0.025773
0.025956 0.730358 0.025956
0.026154 0.736126 0.026154
0.026474 0.745068 0.026474
0.027039 0.760845 0.027039
0.038941 0.785626 0.028031
0.258076 0.812299 0.031281
0.463981 0.833234 0.034180
0.631632 0.851331 0.036591
0.732754 0.845365 0.037446
0.799161 0.838071 0.037888
0.841077 0.828809 0.038010
0.871229 0.821912 0.038086
0.894484 0.817044 0.038163
0.916915 0.814633 0.038315
0.937484 0.811673 0.038422
0.954620 0.808896 0.038498
0.966339 0.808789 0.038621
0.976013 0.809018 0.038743
0.981628 0.809766 0.038819
0.985519 0.811536 0.038926
0.988403 0.814038 0.039048
0.989090 0.817212 0.039155
0.989227 0.821042 0.039292
0.989410 0.824491 0.039414
0.026108 0.734646 0.026108
0.025940 0.729885 0.025940
0.025895 0.728801 0.025895
0.026001 0.731701 0.026001
0.026215 0.737942 0.026215
0.026444 0.744335 0.026444
0.026673 0.750454 0.026658
0.026902 0.757122 0.026902
0.027130 0.763317 0.027115
0.027298 0.768078 0.027283
0.027481 0.773419 0.027481
0.027726 0.780255 0.027726
0.028199 0.793530 0.028199
0.028931 0.814237 0.028931
0.160891 0.838743 0.031189
0.411124 0.859800 0.034562
0.607691 0.878767 0.037308
0.727703 0.877943 0.038544
0.800870 0.871763 0.039094
0.843626 0.863249 0.039246
0.872724 0.855970 0.039292
0.896925 0.850813 0.039368
0.917952 0.847456 0.039475
0.938567 0.844892 0.039597
0.955352 0.841886 0.039673
0.967346 0.840696 0.039765
0.976791 0.841337 0.039887
0.982696 0.842130 0.039963
0.986130 0.843503 0.040055
0.989273 0.845441 0.040162
0.990188 0.847990 0.040253
0.990280 0.850553 0.040345
0.990433 0.853529 0.040452
0.027176 0.764843 0.027176
0.027130 0.763592 0.027130
0.027161 0.764523 0.027161
0.027329 0.769192 0.027329
0.027543 0.775082 0.027543
0.027695 0.779599 0.027695
0.027924 0.785824 0.027924
0.028138 0.791836 0.028138
0.028366 0.798321 0.028366
0.028565 0.803876 0.028565
0.028687 0.807187 0.028687
0.028901 0.813275 0.028901
0.029282 0.823957 0.029282
0.029801 0.838865 0.029801
0.041016 0.856992 0.030564
0.310399 0.878782 0.034165
0.561425 0.897948 0.037491
0.710018 0.902052 0.039200
0.792248 0.897704 0.039918
0.841672 0.890166 0.040177
0.870573 0.883070 0.040223
0.894331 0.877791 0.040299
0.916655 0.873960 0.040391
0.937011 0.871733 0.040528
0.953872 0.868910 0.040604
0.965698 0.868177 0.040711
0.975967 0.868177 0.040818
0.981674 0.869703 0.040925
0.985245 0.871046 0.041016
0.988846 0.872328 0.041092
0.991104 0.873838 0.041169
0.991180 0.876188 0.041260
0.991333 0.878782 0.041352
0.028275 0.795911 0.028275
0.028275 0.795682 0.028275
0.028275 0.795880 0.028275
0.028458 0.800946 0.028458
0.028733 0.808606 0.028733
0.028901 0.813458 0.028901
0.029114 0.818494 0.029084
0.029282 0.823896 0.029267
0.029480 0.829648 0.029480
0.029603 0.833280 0.029603
0.029770 0.837949 0.029770
0.029954 0.842847 0.029954
0.030182 0.849485 0.030182
0.030518 0.858686 0.030503
0.030961 0.871519 0.030961
0.180972 0.893187 0.033310
0.486397 0.912551 0.037217
0.679728 0.922255 0.039597
0.780438 0.920180 0.040574
0.836683 0.914656 0.040986
0.866133 0.907591 0.041047
0.890455 0.903136 0.041138
0.914641 0.899107 0.041260
0.934798 0.896544 0.041383
0.952163 0.894774 0.041504
0.964233 0.892714 0.041550
0.975006 0.893187 0.041688
0.981231 0.894255 0.041794
0.985016 0.895476 0.041871
0.988190 0.896315 0.041932
0.990448 0.898299 0.042023
0.990906 0.900282 0.042100
0.990799 0.902464 0.042176
0.029389 0.827054 0.029389
0.029526 0.830884 0.029526
0.029480 0.829633 0.029480
0.029663 0.835035 0.029663
0.029801 0.838575 0.029801
0.029938 0.842573 0.029938
0.030137 0.847944 0.030121
0.030320 0.853162 0.030320
0.030457 0.857130 0.030457
0.030564 0.860334 0.030564
0.030655 0.862638 0.030655
0.030732 0.864897 0.030732
0.030930 0.870649 0.030930
0.031174 0.877119 0.031159
0.031540 0.887663 0.031540
0.056977 0.905165 0.032425
0.405600 0.925490 0.036820
0.643931 0.939376 0.039811
0.760983 0.938857 0.041031
0.828290 0.934890 0.041596
0.861082 0.928420 0.041718
0.886000 0.923613 0.041810
0.910384 0.920012 0.041947
0.931960 0.917952 0.042100
0.949630 0.915694 0.042207
0.962600 0.914534 0.042298
0.973159 0.913970 0.042390
0.979980 0.914855 0.042496
0.984207 0.915969 0.042588
0.987274 0.916808 0.042649
0.989212 0.917891 0.042710
0.989349 0.919356 0.042756
0.989273 0.920958 0.042817
0.030289 0.852613 0.030289
0.030289 0.852491 0.030289
0.030442 0.856703 0.030442
0.030594 0.860883 0.030594
0.030655 0.862867 0.030655
0.030747 0.865324 0.030747
0.030869 0.868711 0.030869
0.030945 0.870939 0.030945
0.031067 0.873549 0.031037
0.031128 0.876112 0.031128
0.031251 0.879347 0.031251
0.031327 0.881422 0.031311
0.031449 0.884855 0.031434
0.031632 0.890303 0.031632
0.031952 0.899184 0.031952
0.032456 0.913420 0.032456
0.311788 0.932464 0.036072
0.608606 0.949111 0.039780
0.736156 0.949157 0.041138
0.816800 0.947005 0.041901
0.854963 0.941222 0.042100
0.881102 0.937163 0.042237
0.905684 0.933883 0.042390
0.928054 0.931395 0.042527
0.946273 0.929931 0.042680
0.959533 0.927825 0.042741
0.971084 0.927337 0.042847
0.978286 0.927916 0.042939
0.982574 0.928740 0.043015
0.985916 0.929473 0.043076
0.987991 0.929839 0.043107
0.988342 0.930770 0.043153
0.988373 0.931853 0.043183
0.031189 0.877852 0.031189
0.031098 0.874983 0.031083
0.031128 0.876204 0.031128
0.031174 0.877363 0.031174
0.031296 0.880903 0.031296
0.031357 0.882582 0.031357
0.031434 0.884520 0.031434
0.031510 0.886687 0.031510
0.031586 0.888716 0.031571
0.031663 0.891157 0.031663
0.031739 0.893126 0.031739
0.031830 0.895933 0.031830
0.031937 0.898665 0.031937
0.032090 0.902937 0.032090
0.032303 0.909148 0.032303
0.032731 0.921294 0.032731
0.208392 0.939620 0.035233
0.582330 0.957244 0.039795
0.720867 0.959976 0.041352
0.811292 0.958114 0.042237
0.851469 0.952422 0.042466
0.878492 0.947753 0.042588
0.904479 0.944671 0.042756
0.926986 0.942794 0.042924
0.945296 0.941360 0.043061
0.958602 0.939544 0.043137
0.970687 0.939712 0.043275
