lut/Sony/NewLook/SL3SG3toCool_709.cube
# Copyright 2023 SONY
# Cool 709 LUT
# S-Log3/S-Gamut3 to Rec.709
# 
LUT_3D_SIZE 33
0.000000 0.000000 0.000000
0.003209 0.000000 0.000000
0.024812 0.000000 0.000000
0.046403 0.000000 0.000000
0.066182 0.000000 0.000000
0.085220 0.000000 0.000000
0.106859 0.000000 0.000000
0.136587 0.000000 0.000000
0.173974 0.000000 0.000000
0.220818 0.000000 0.000000
0.281441 0.000000 0.000000
0.357130 0.000000 0.000000
0.434315 0.000000 0.000000
0.505178 0.000000 0.000000
0.574173 0.000000 0.000000
0.643794 0.000000 0.000000
0.715103 0.000000 0.000000
0.785539 0.000000 0.000000
0.847800 0.000000 0.000000
0.894922 0.000000 0.000000
0.934147 0.000000 0.000000
0.966054 0.000000 0.000000
0.986462 0.000000 0.000000
0.996502 0.000000 0.013495
0.999744 0.000000 0.055221
0.999834 0.051488 0.157650
0.999902 0.210175 0.267332
0.999940 0.338533 0.362792
0.999946 0.430773 0.444892
0.999931 0.514951 0.521418
0.999965 0.593237 0.593530
1.000000 0.665601 0.661872
1.000000 0.734799 0.727690
0.000000 0.001216 0.000022
0.000007 0.000056 0.000007
0.020701 0.000000 0.000000
0.042422 0.000130 0.000000
0.062388 0.000305 0.000000
0.081950 0.000330 0.000000
0.103696 0.000189 0.000000
0.133912 0.000000 0.000000
0.171671 0.000000 0.000000
0.219119 0.000000 0.000000
0.280822 0.000000 0.000000
0.357828 0.000000 0.000000
0.437946 0.000000 0.000000
0.510440 0.000000 0.000000
0.580742 0.000000 0.000000
0.651733 0.000000 0.000000
0.721377 0.000000 0.000000
0.787338 0.000000 0.000000
0.842698 0.000000 0.000000
0.890207 0.000000 0.000000
0.931331 0.000000 0.000000
0.964028 0.000000 0.000000
0.985036 0.000000 0.000000
0.996127 0.000000 0.013659
0.999745 0.003984 0.056629
0.999836 0.065162 0.160168
0.999903 0.223349 0.268646
0.999940 0.345706 0.363150
0.999946 0.435385 0.445059
0.999931 0.518187 0.521511
0.999965 0.595519 0.593591
1.000000 0.667235 0.661916
1.000000 0.735930 0.727719
0.000000 0.020030 0.000049
0.000000 0.018555 0.000017
0.016353 0.016300 0.000000
0.038281 0.013919 0.000000
0.058435 0.011300 0.000000
0.078429 0.008563 0.000000
0.100200 0.006035 0.000000
0.130828 0.003018 0.000000
0.169408 0.000854 0.000000
0.218453 0.000010 0.000000
0.282776 0.000000 0.000000
0.364012 0.000000 0.000000
0.445992 0.000000 0.000000
0.519497 0.000000 0.000000
0.588194 0.000000 0.000000
0.656802 0.000000 0.000000
0.722623 0.000000 0.000000
0.782751 0.000000 0.000000
0.837412 0.000000 0.000000
0.886926 0.000000 0.000000
0.928970 0.000000 0.000000
0.961982 0.000000 0.000000
0.984339 0.000000 0.000000
0.996117 0.000000 0.013850
0.999747 0.013921 0.059719
0.999837 0.084713 0.162617
0.999903 0.234889 0.269571
0.999940 0.352210 0.363395
0.999946 0.439923 0.445224
0.999931 0.521390 0.521604
0.999965 0.597785 0.593653
1.000000 0.668858 0.661960
1.000000 0.737056 0.727748
0.000000 0.040186 0.000080
0.000000 0.039100 0.000030
0.012426 0.036593 0.000000
0.034033 0.034009 0.000000
0.054478 0.031395 0.000000
0.074740 0.028456 0.000000
0.097033 0.025208 0.000000
0.128482 0.020449 0.000000
0.168324 0.013794 0.000000
0.219520 0.006072 0.000000
0.287485 0.000659 0.000000
0.370552 0.000000 0.000000
0.453791 0.000000 0.000000
0.524955 0.000000 0.000000
0.590885 0.000000 0.000000
0.655453 0.000000 0.000000
0.717991 0.000000 0.000000
0.777384 0.000000 0.000000
0.833544 0.000000 0.000000
0.883985 0.000000 0.000000
0.926467 0.000000 0.000000
0.959947 0.000000 0.000000
0.983639 0.000000 0.000000
0.996106 0.000000 0.014039
0.999750 0.023469 0.062698
0.999839 0.103677 0.165001
0.999903 0.246165 0.270480
0.999940 0.358600 0.363638
0.999946 0.444401 0.445388
0.999931 0.524560 0.521696
0.999965 0.600032 0.593715
1.000000 0.670473 0.662003
1.000000 0.738178 0.727777
0.000000 0.060339 0.000113
0.000000 0.059727 0.000046
0.008649 0.057311 0.000000
0.029409 0.054927 0.000000
0.050355 0.052520 0.000000
0.070267 0.049824 0.000000
0.093548 0.046808 0.000000
0.126284 0.042414 0.000000
0.167867 0.035653 0.000000
0.221077 0.025025 0.000000
0.290779 0.010368 0.000000
0.374146 0.000582 0.000000
0.455199 0.000000 0.000000
0.523384 0.000000 0.000000
0.587152 0.000000 0.000000
0.650864 0.000000 0.000000
0.713367 0.000000 0.000000
0.773574 0.000000 0.000000
0.830337 0.000000 0.000000
0.881134 0.000000 0.000000
0.924033 0.000000 0.000000
0.957953 0.000000 0.000000
0.982378 0.000000 0.000000
0.996026 0.000000 0.014031
0.999752 0.032657 0.065573
0.999840 0.122086 0.167323
0.999903 0.257187 0.271372
0.999940 0.364880 0.363880
0.999946 0.448820 0.445551
0.999931 0.527699 0.521789
0.999965 0.602263 0.593776
1.000000 0.672078 0.662047
1.000000 0.739294 0.727806
0.000000 0.081817 0.000146
0.000000 0.081778 0.000063
0.005101 0.079750 0.000000
0.023904 0.077725 0.000000
0.045613 0.075815 0.000000
0.065554 0.073633 0.000000
0.089352 0.070987 0.000000
0.122718 0.067004 0.000000
0.164919 0.060846 0.000000
0.218141 0.050512 0.000000
0.287101 0.033433 0.000000
0.369943 0.011047 0.000000
0.450897 0.000000 0.000000
0.519209 0.000000 0.000000
0.582990 0.000000 0.000000
0.647117 0.000000 0.000000
0.709846 0.000000 0.000000
0.770452 0.000000 0.000000
0.827215 0.000000 0.000000
0.878327 0.000000 0.000000
0.921778 0.000000 0.000000
0.956416 0.000000 0.000000
0.981176 0.000000 0.000000
0.995840 0.000000 0.013971
0.999754 0.042344 0.068231
0.999842 0.139972 0.169588
0.999903 0.267966 0.272248
0.999940 0.371053 0.364119
0.999946 0.453181 0.445714
0.999931 0.530807 0.521881
0.999965 0.604477 0.593838
1.000000 0.673674 0.662090
1.000000 0.740406 0.727835
0.000000 0.108586 0.000193
0.000000 0.108977 0.000179
0.002081 0.108001 0.000000
0.017987 0.106821 0.000000
0.039738 0.105570 0.000000
0.060200 0.103895 0.000000
0.084272 0.101568 0.000000
0.117803 0.098233 0.000000
0.160160 0.092661 0.000000
0.213064 0.082799 0.000000
0.281062 0.066053 0.000000
0.363282 0.040250 0.000000
0.445467 0.013471 0.000000
0.514525 0.001212 0.000000
0.579225 0.000294 0.000000
0.643495 0.000000 0.000000
0.706394 0.000000 0.000000
0.766897 0.000000 0.000000
0.823871 0.000000 0.000000
0.875221 0.000000 0.000000
0.919195 0.000000 0.000000
0.954657 0.000000 0.000000
0.980761 0.000000 0.000000
0.995606 0.000000 0.014139
0.999756 0.055095 0.071062
0.999844 0.161526 0.172286
0.999903 0.281128 0.273324
0.999940 0.378633 0.364416
0.999946 0.458559 0.445915
0.999931 0.534653 0.521995
0.999965 0.607224 0.593914
1.000000 0.675658 0.662144
1.000000 0.741790 0.727871
0.000000 0.140316 0.000284
0.000000 0.140751 0.000325
0.000000 0.140835 0.000180
0.010647 0.140476 0.000000
0.032408 0.140139 0.000000
0.053104 0.139168 0.000000
0.078419 0.137018 0.000000
0.111365 0.134179 0.000000
0.153646 0.129641 0.000000
0.206525 0.122039 0.000000
0.274219 0.108401 0.000000
0.356824 0.085741 0.000000
0.440216 0.056993 0.000000
0.510324 0.031155 0.000000
0.574922 0.010031 0.000000
0.639335 0.005128 0.000000
0.702312 0.002020 0.000000
0.762820 0.001315 0.000000
0.819448 0.000097 0.000000
0.871301 0.000000 0.000000
0.916124 0.000000 0.000000
0.952128 0.000000 0.000000
0.980327 0.000015 0.000000
0.995553 0.019697 0.016367
0.999759 0.073286 0.073397
0.999846 0.190373 0.175858
0.999903 0.298868 0.274783
0.999940 0.389007 0.364828
0.999946 0.465961 0.446196
0.999931 0.539969 0.522155
0.999965 0.611034 0.594022
1.000000 0.678417 0.662220
1.000000 0.743719 0.727922
0.000000 0.180616 0.000452
0.000000 0.181051 0.000502
0.000000 0.181779 0.000328
0.003752 0.182271 0.000104
0.022459 0.182538 0.000083
0.043403 0.182204 0.000137
0.069478 0.179545 0.000000
0.103069 0.176593 0.000000
0.145380 0.172887 0.000000
0.198418 0.167228 0.000000
0.266614 0.157729 0.000000
0.349771 0.141674 0.000000
0.434699 0.120063 0.000000
0.505496 0.096690 0.000000
0.570152 0.069909 0.000000
0.634552 0.041599 0.000000
0.697297 0.025020 0.000000
0.757780 0.016443 0.000000
0.814593 0.008583 0.000000
0.866704 0.000689 0.000000
0.912303 0.000390 0.000000
0.950179 0.001811 0.000000
0.978953 0.001723 0.000000
0.995546 0.047446 0.019489
0.999763 0.114744 0.079172
0.999849 0.225949 0.180948
0.999903 0.321206 0.276636
0.999940 0.402243 0.365326
0.999946 0.475526 0.446564
0.999931 0.546878 0.522366
0.999965 0.616008 0.594163
1.000000 0.682032 0.662320
1.000000 0.746252 0.727989
0.000000 0.233955 0.000848
0.000000 0.234399 0.000919
0.000000 0.234842 0.000989
0.000151 0.235892 0.000848
0.008038 0.236546 0.000592
0.029149 0.237060 0.000592
0.053989 0.234693 0.000379
0.090222 0.230693 0.000072
0.134956 0.227287 0.000008
0.188271 0.223059 0.000000
0.257038 0.216377 0.000000
0.340939 0.205098 0.000000
0.427868 0.190038 0.000000
0.499867 0.174019 0.000000
0.564859 0.153413 0.000000
0.629169 0.127269 0.000000
0.692040 0.099007 0.000000
0.752610 0.070664 0.000000
0.809883 0.042718 0.000000
0.862303 0.021588 0.000000
0.909053 0.021902 0.000000
0.947880 0.018147 0.000000
0.979270 0.041026 0.000000
0.996353 0.087131 0.021960
0.999767 0.168696 0.086775
0.999850 0.261468 0.184303
0.999903 0.348928 0.278899
0.999940 0.418967 0.365916
0.999946 0.487736 0.447006
0.999931 0.555804 0.522644
0.999965 0.622472 0.594350
1.000000 0.686751 0.662453
1.000000 0.749572 0.728078
0.000000 0.298497 0.002364
0.000000 0.298893 0.002500
0.000000 0.299288 0.002635
0.000000 0.299847 0.002516
0.000222 0.300721 0.002185
0.010148 0.301394 0.001820
0.035131 0.300380 0.001434
0.070659 0.294860 0.000746
0.119546 0.290728 0.000233
0.176507 0.286842 0.000000
0.245184 0.281192 0.000000
0.330687 0.271891 0.000000
0.419966 0.259717 0.000000
0.493315 0.247228 0.000000
0.559250 0.231509 0.000000
0.624048 0.211736 0.000000
0.686900 0.189107 0.000000
0.747486 0.164182 0.000000
0.804650 0.134584 0.000000
0.857872 0.103420 0.000000
0.905984 0.086587 0.000000
0.947778 0.088753 0.000000
0.980095 0.107004 0.000000
0.996502 0.157362 0.026661
0.999772 0.232776 0.094082
0.999850 0.303424 0.187979
0.999903 0.375658 0.280360
0.999940 0.439749 0.366831
0.999946 0.503177 0.447530
0.999931 0.567270 0.523034
0.999965 0.630823 0.594596
1.000000 0.692883 0.662628
1.000000 0.753905 0.728195
0.000000 0.370526 0.005181
0.000000 0.370841 0.005392
0.000000 0.371156 0.005603
0.000000 0.371471 0.005813
0.000000 0.372026 0.005524
0.000000 0.372946 0.005093
0.010656 0.372484 0.004239
0.046026 0.366567 0.002537
0.096031 0.360503 0.001337
0.158576 0.354337 0.000289
0.230808 0.348181 0.000000
0.317899 0.340240 0.000000
0.411132 0.329725 0.000000
0.486471 0.319264 0.000000
0.553089 0.305259 0.000000
0.618594 0.287937 0.000000
0.681682 0.268482 0.000000
0.742594 0.247601 0.000000
0.800520 0.225464 0.000000
0.854858 0.200779 0.000000
0.904828 0.182247 0.000000
0.948024 0.181352 0.000000
0.981673 0.202573 0.000000
0.997701 0.244421 0.032913
0.999779 0.293669 0.101056
0.999855 0.352501 0.192903
0.999902 0.407086 0.281992
0.999940 0.463621 0.367861
0.999946 0.522335 0.448244
0.999931 0.581868 0.523579
0.999965 0.641534 0.594931
1.000000 0.700807 0.662858
1.000000 0.759535 0.728350
0.000000 0.450809 0.010146
0.000000 0.451078 0.010451
0.000000 0.451347 0.010756
0.000000 0.451616 0.011061
0.000000 0.451885 0.011366
0.000000 0.452014 0.011080
0.000000 0.451818 0.009916
0.011426 0.448571 0.007799
0.062504 0.436187 0.003807
0.130729 0.427880 0.001452
0.209591 0.420179 0.000086
0.301340 0.411948 0.000000
0.399580 0.402593 0.000000
0.478398 0.393128 0.000000
0.545745 0.379483 0.000000
0.611878 0.362418 0.000000
0.675767 0.344480 0.000000
0.737829 0.326332 0.000000
0.797517 0.308275 0.000000
0.854473 0.291641 0.000000
0.906882 0.281909 0.000000
0.951053 0.284137 0.000000
0.983866 0.299074 0.000000
0.998095 0.322238 0.037836
0.999781 0.358540 0.108658
0.999856 0.398690 0.196674
0.999902 0.444254 0.283897
0.999940 0.492514 0.369165
0.999946 0.544755 0.449120
0.999931 0.599964 0.524244
0.999965 0.655147 0.595387
1.000000 0.710953 0.663161
1.000000 0.766811 0.728555
0.000000 0.528179 0.017118
0.000000 0.528364 0.017432
0.000000 0.528549 0.017746
0.000000 0.528733 0.018061
0.000000 0.528918 0.018375
0.000000 0.529102 0.018690
0.000000 0.528961 0.018684
0.000000 0.526293 0.016200
0.013889 0.517182 0.011964
0.089505 0.503723 0.006133
0.175480 0.494237 0.002162
0.274932 0.485260 0.000000
0.379130 0.475455 0.000000
0.465199 0.466048 0.000000
0.535564 0.453590 0.000000
0.604005 0.438000 0.000000
0.669707 0.421782 0.000000
0.733497 0.405883 0.000000
0.795536 0.391103 0.000000
0.855117 0.379193 0.000000
0.908556 0.372563 0.000000
0.951894 0.372342 0.000000
0.984354 0.380667 0.000000
0.998813 0.396495 0.043629
0.999780 0.417550 0.113647
0.999856 0.448704 0.200360
0.999902 0.485088 0.286312
0.999940 0.527222 0.371033
0.999946 0.571976 0.450252
0.999931 0.621011 0.525030
0.999965 0.672098 0.595971
1.000000 0.723829 0.663557
1.000000 0.776143 0.728825
0.000000 0.592198 0.024556
0.000000 0.592297 0.025035
0.000000 0.592396 0.025513
0.000000 0.592495 0.025992
0.000000 0.592594 0.026471
0.000000 0.592693 0.026949
0.000000 0.592816 0.027548
0.000000 0.592838 0.028190
0.000000 0.587347 0.023854
0.026596 0.571360 0.016101
0.124497 0.558524 0.007591
0.227518 0.548921 0.001220
0.341313 0.539710 0.000000
0.439658 0.530292 0.000000
0.517988 0.519454 0.000000
0.589895 0.506849 0.000000
0.660094 0.495026 0.000000
0.728430 0.484062 0.000000
0.793369 0.472865 0.000000
0.854174 0.462132 0.000000
0.907843 0.454216 0.000000
0.950941 0.451044 0.000000
0.983787 0.453083 0.000000
0.998722 0.461875 0.048782
0.999779 0.478032 0.119539
0.999856 0.501479 0.204806
0.999902 0.531714 0.289531
0.999940 0.565618 0.373172
0.999946 0.604783 0.451939
0.999931 0.646549 0.526048
0.999965 0.692063 0.596700
1.000000 0.739908 0.664085
1.000000 0.788006 0.729180
0.000000 0.652483 0.032705
0.000000 0.652546 0.033204
0.000000 0.652608 0.033704
0.000000 0.652671 0.034203
0.000000 0.652733 0.034703
0.000000 0.652796 0.035203
0.000000 0.652874 0.035828
0.000000 0.652983 0.036705
0.000000 0.653128 0.037867
0.000000 0.643142 0.031301
0.043795 0.621200 0.019596
0.163023 0.609106 0.007346
0.283068 0.600195 0.000692
0.402529 0.592923 0.000000
0.495679 0.586015 0.000000
0.574751 0.576577 0.000000
0.649404 0.566779 0.000000
0.720299 0.556434 0.000000
0.786931 0.545581 0.000000
0.849260 0.535427 0.000000
0.904175 0.527363 0.000000
0.948078 0.523117 0.000000
0.982076 0.523169 0.002496
0.998474 0.528493 0.055213
0.999778 0.540146 0.126695
0.999855 0.558415 0.210372
0.999902 0.581540 0.293362
0.999940 0.609535 0.375928
0.999946 0.640890 0.453835
0.999931 0.677180 0.527426
0.999964 0.716324 0.597646
1.000000 0.758380 0.664711
1.000000 0.802831 0.729638
0.000000 0.710590 0.043052
0.000000 0.710628 0.043552
0.000000 0.710663 0.044025
0.000000 0.710695 0.044461
0.000000 0.710727 0.044897
0.000000 0.710759 0.045334
0.000000 0.710799 0.045880
0.000000 0.710855 0.046645
0.000000 0.710929 0.047660
0.000000 0.711027 0.049005
0.000000 0.694038 0.039116
0.068265 0.671787 0.024926
0.213168 0.665393 0.009351
0.357800 0.660313 0.000000
0.467864 0.655173 0.000000
0.556330 0.647456 0.000000
0.635640 0.638256 0.000000
0.709687 0.628234 0.000000
0.778875 0.617921 0.000000
0.843042 0.608105 0.000000
0.899619 0.599925 0.000000
0.944567 0.594910 0.000000
0.979379 0.593454 0.011070
0.997678 0.596232 0.065929
0.999762 0.603992 0.135925
0.999855 0.617578 0.217272
0.999901 0.635529 0.298179
0.999939 0.656446 0.379417
0.999946 0.682133 0.456258
0.999931 0.711439 0.529154
0.999964 0.745383 0.598881
1.000000 0.780750 0.665522
1.000000 0.818024 0.730299
0.000000 0.765031 0.054715
0.000000 0.765042 0.055155
0.000000 0.765053 0.055594
0.000000 0.765065 0.056034
0.000000 0.765076 0.056473
0.000000 0.765087 0.056913
0.000000 0.765101 0.057463
0.000000 0.765123 0.058230
0.000000 0.765154 0.059243
0.000000 0.765195 0.060585
0.000000 0.765244 0.062412
0.000000 0.743540 0.049574
0.108654 0.732452 0.035330
0.285421 0.729305 0.010345
0.430008 0.725232 0.000000
0.531035 0.717902 0.000000
0.616921 0.708788 0.000000
0.695833 0.699242 0.000000
0.768449 0.689410 0.000000
0.835261 0.680202 0.000000
0.894020 0.672036 0.000000
0.940274 0.666281 0.000474
0.976000 0.663492 0.022186
0.996204 0.664201 0.079577
0.999701 0.668941 0.147796
0.999854 0.678160 0.225491
0.999901 0.691261 0.304187
0.999939 0.707358 0.383843
0.999946 0.726652 0.459370
0.999931 0.750655 0.531376
0.999964 0.777161 0.600392
1.000000 0.807554 0.666589
1.000000 0.836127 0.731171
0.000000 0.818107 0.070608
0.000000 0.818104 0.071082
0.000000 0.818100 0.071555
0.000000 0.818096 0.072028
0.000000 0.818092 0.072501
0.000000 0.818089 0.072975
0.000000 0.818084 0.073567
0.000000 0.818077 0.074398
0.000000 0.818069 0.075499
0.000000 0.818057 0.076957
0.000000 0.818044 0.078926
0.000000 0.818028 0.081537
0.000000 0.802325 0.069930
0.167204 0.796163 0.052202
0.365453 0.792715 0.018137
0.494512 0.786955 0.003085
0.591218 0.777944 0.000663
0.677325 0.768895 0.000000
0.755078 0.759362 0.000000
0.825464 0.750217 0.000000
0.887155 0.741903 0.000000
0.935209 0.735657 0.003218
0.972086 0.731986 0.039478
0.994426 0.731101 0.096592
0.999609 0.733782 0.162151
0.999853 0.739767 0.235783
0.999900 0.748737 0.311796
0.999939 0.760347 0.389238
0.999946 0.774849 0.463356
0.999931 0.792085 0.534219
0.999964 0.813319 0.602330
1.000000 0.834085 0.668166
1.000000 0.857868 0.732309
0.000000 0.874508 0.097135
0.000000 0.874505 0.097753
0.000000 0.874501 0.098371
0.000000 0.874498 0.098988
0.000000 0.874495 0.099606
0.000000 0.874491 0.100224
0.000000 0.874487 0.100997
0.000000 0.874481 0.102082
0.000000 0.874441 0.103531
0.000000 0.874354 0.105463
0.000000 0.874239 0.108024
0.000000 0.874172 0.111910
0.000000 0.874116 0.117239
0.001234 0.862140 0.106694
0.240952 0.857677 0.082963
0.435765 0.853571 0.043746
0.555138 0.845375 0.020859
0.652127 0.836197 0.006524
0.737235 0.827045 0.004270
0.812620 0.817832 0.000000
0.878391 0.809173 0.012305
0.929076 0.802751 0.013849
0.967431 0.798487 0.063571
0.992059 0.796545 0.118556
0.999506 0.797301 0.179974
0.999852 0.800850 0.248510
0.999899 0.806269 0.321081
0.999938 0.813754 0.395993
0.999947 0.823774 0.468110
0.999931 0.835661 0.537787
0.999963 0.848097 0.605294
1.000000 0.863451 0.670187
1.000000 0.879083 0.733792
0.000000 0.932073 0.136699
0.000000 0.932069 0.137211
0.000000 0.932066 0.137719
0.000000 0.932062 0.138226
0.000000 0.932059 0.138730
0.000000 0.932056 0.139231
0.000000 0.932052 0.139856
0.000000 0.932047 0.140725
0.000000 0.932042 0.141901
0.000000 0.932044 0.143600
0.000000 0.932047 0.145816
0.000000 0.932054 0.148692
0.000000 0.932067 0.152402
0.000000 0.932090 0.157149
0.009474 0.920076 0.145010
0.326648 0.916220 0.116256
0.500536 0.909847 0.082008
0.616350 0.900438 0.055127
0.712660 0.891060 0.033497
0.795068 0.881790 0.029887
0.866799 0.872961 0.036986
0.921221 0.865889 0.053970
0.961781 0.861143 0.094225
0.989038 0.858536 0.145072
0.999348 0.857628 0.200042
0.999851 0.858475 0.263931
0.999898 0.860638 0.332990
0.999938 0.863742 0.404445
0.999947 0.868481 0.474398
0.999932 0.875413 0.542525
0.999963 0.883363 0.608768
1.000000 0.891288 0.672925
1.000000 0.902529 0.735691
0.000000 0.982655 0.177449
0.000000 0.982652 0.177871
0.000000 0.982650 0.178292
0.000000 0.982648 0.178779
0.000000 0.982646 0.179267
0.000000 0.982644 0.179754
0.000000 0.982642 0.180361
0.000000 0.982639 0.181208
0.000000 0.982635 0.182322
0.000000 0.982631 0.183786
0.000000 0.982625 0.185702
0.000000 0.982619 0.188203
0.000000 0.982613 0.191450
0.000000 0.982609 0.195642
0.000000 0.982609 0.201013
0.041728 0.971267 0.186963
0.403208 0.966106 0.158252
0.563046 0.956319 0.130805
0.678609 0.946238 0.105850
0.771930 0.936513 0.093554
0.850689 0.927267 0.090433
0.911737 0.919493 0.103403
0.955497 0.913854 0.133465
0.985860 0.910137 0.176064
0.999245 0.908349 0.223939
0.999849 0.907425 0.282521
0.999897 0.907067 0.347483
0.999937 0.907484 0.415227
0.999947 0.908810 0.482473
0.999932 0.911180 0.548383
0.999962 0.915058 0.613183
1.000000 0.919399 0.676207
1.000000 0.924421 0.738236
0.000000 0.998087 0.223690
0.000000 0.998087 0.224104
0.000000 0.998088 0.224517
0.000000 0.998088 0.224929
0.000000 0.998089 0.225340
0.000000 0.998089 0.225750
0.000000 0.998089 0.226262
0.000000 0.998090 0.226977
0.000000 0.998091 0.227919
0.000000 0.998093 0.229160
0.000000 0.998094 0.230789
0.000000 0.998097 0.232924
0.000000 0.998100 0.235710
0.000000 0.998105 0.239329
0.000000 0.998111 0.244005
0.000000 0.998120 0.250001
0.110837 0.994480 0.233947
0.472771 0.992673 0.207273
0.626406 0.989599 0.183867
0.739729 0.981763 0.164470
0.829423 0.971898 0.155965
0.898504 0.963396 0.158637
0.947788 0.956880 0.180004
0.981666 0.952338 0.209082
0.999102 0.949336 0.251919
0.999846 0.947530 0.304851
0.999895 0.945689 0.365186
0.999936 0.944216 0.428346
0.999947 0.943325 0.492210
0.999932 0.942960 0.555809
0.999961 0.943189 0.618704
1.000000 0.944196 0.680333
1.000000 0.946400 0.741371
0.000000 0.999682 0.274397
0.000000 0.999682 0.274705
0.000000 0.999682 0.275013
0.000000 0.999682 0.275321
0.000000 0.999682 0.275628
0.000000 0.999682 0.275934
0.000000 0.999682 0.276317
0.000000 0.999682 0.276852
0.000000 0.999682 0.277558
0.000000 0.999682 0.278489
0.000000 0.999682 0.279715
0.000000 0.999683 0.281325
0.000000 0.999683 0.283435
0.000000 0.999683 0.286190
0.000000 0.999684 0.289770
0.000000 0.999684 0.294397
0.000000 0.999685 0.300334
0.214455 0.999347 0.281132
0.538085 0.999385 0.254836
0.690161 0.998854 0.233565
0.799910 0.996042 0.218637
0.881068 0.994014 0.215979
0.937103 0.991110 0.224543
0.975912 0.986042 0.247064
0.998801 0.981975 0.283937
0.999842 0.979052 0.331526
0.999892 0.976618 0.386695
0.999935 0.974121 0.444503
0.999948 0.971831 0.504365
0.999932 0.969687 0.564970
0.999959 0.967605 0.625547
1.000000 0.965720 0.685497
1.000000 0.965177 0.745028
0.000000 0.999787 0.324097
0.000000 0.999787 0.324322
0.000000 0.999787 0.324547
0.000000 0.999787 0.324772
0.000000 0.999787 0.324996
0.000000 0.999787 0.325220
0.000000 0.999787 0.325500
0.000000 0.999787 0.325892
0.000000 0.999787 0.326410
0.000000 0.999787 0.327094
0.000000 0.999787 0.327996
0.000000 0.999787 0.329183
0.000000 0.999787 0.330742
0.000000 0.999788 0.332786
0.000000 0.999788 0.335455
0.000000 0.999788 0.338924
0.000000 0.999788 0.343410
0.000000 0.999788 0.349167
0.315509 0.999788 0.326489
0.604078 0.999789 0.299527
0.752750 0.999760 0.279921
0.856893 0.999602 0.268190
0.923103 0.999519 0.271901
0.967129 0.998818 0.290796
0.996413 0.997542 0.321306
0.999803 0.997508 0.362810
0.999888 0.997418 0.411485
0.999933 0.997190 0.464308
0.999949 0.993776 0.519442
0.999933 0.990419 0.576453
0.999957 0.987466 0.634212
1.000000 0.983654 0.691977
1.000000 0.980609 0.749675
0.000000 0.999860 0.371752
0.000000 0.999860 0.371912
0.000000 0.999860 0.372073
0.000000 0.999860 0.372233
0.000000 0.999860 0.372394
0.000000 0.999860 0.372554
0.000000 0.999860 0.372754
0.000000 0.999860 0.373034
0.000000 0.999860 0.373404
0.000000 0.999860 0.373894
0.000000 0.999860 0.374540
0.000000 0.999860 0.375393
0.000000 0.999860 0.376515
0.000000 0.999860 0.377989
0.000000 0.999860 0.379922
0.000000 0.999860 0.382446
0.000000 0.999860 0.385727
0.000000 0.999860 0.389971
0.000000 0.999861 0.395426
0.399971 0.999861 0.369553
0.670033 0.999861 0.342764
0.813058 0.999862 0.328580
0.903341 0.999863 0.326184
0.955703 0.999850 0.339302
0.989074 0.999829 0.364447
0.999510 0.999818 0.399387
0.999883 0.999821 0.440469
0.999931 0.999713 0.487330
0.999949 0.999772 0.537983
0.999934 0.999718 0.590758
0.999955 0.998806 0.645108
1.000000 0.996791 0.700219
1.000000 0.992628 0.755612
0.000000 0.999913 0.419680
0.000000 0.999913 0.419825
0.000000 0.999913 0.419971
0.000000 0.999913 0.420117
0.000000 0.999913 0.420262
0.000000 0.999913 0.420408
0.000000 0.999913 0.420590
0.000000 0.999913 0.420844
0.000000 0.999913 0.421181
0.000000 0.999913 0.421627
0.000000 0.999913 0.422215
0.000000 0.999913 0.422993
0.000000 0.999913 0.424018
0.000000 0.999913 0.425367
0.000000 0.999913 0.427141
0.000000 0.999913 0.429465
0.000000 0.999913 0.432502
0.000000 0.999913 0.436451
0.000000 0.999913 0.441558
0.000000 0.999914 0.448132
0.473282 0.999914 0.420795
0.733773 0.999914 0.396752
0.866798 0.999914 0.387885
0.939339 0.999915 0.393768
0.979617 0.999915 0.412376
0.998068 0.999916 0.439542
0.999870 0.999917 0.474463
