lut/Sony/NewLook/SL3SG3CtoVintage_709.cube
# Copyright 2023 SONY
# Vintage 709 LUT
# S-Log3/S-Gamut3.Cine to Rec.709
# 
LUT_3D_SIZE 5
0.000000 0.000000 0.000000
0.117052 0.001282 0.001282
0.330114 0.003601 0.003601
0.539940 0.005905 0.005905
0.587152 0.006409 0.006424
0.005264 0.148043 0.005264
0.127810 0.130724 0.005951
0.344915 0.003769 0.003769
0.567422 0.006195 0.006195
0.650874 0.007111 0.007111
0.017487 0.492287 0.017487
0.019028 0.535653 0.019028
0.650431 0.596780 0.027848
0.897200 0.532280 0.028168
0.963836 0.593256 0.031022
0.029389 0.827054 0.029389
0.030457 0.857130 0.030457
0.405600 0.925490 0.036820
0.949630 0.915694 0.042207
0.989273 0.920958 0.042817
0.031785 0.894438 0.031785
0.032425 0.912428 0.032425
0.353536 0.961563 0.037537
0.950134 0.958160 0.043702
0.986145 0.955718 0.044007
0.000427 0.000427 0.091112
0.116716 0.001785 0.110567
0.327504 0.003983 0.089357
0.535729 0.005859 0.005859
0.587167 0.006409 0.006424
0.005463 0.135683 0.146166
0.115801 0.120668 0.126009
0.337499 0.003922 0.052873
0.553231 0.006043 0.006043
0.629694 0.006882 0.006882
0.018463 0.513573 0.064424
0.020264 0.555245 0.137392
0.669917 0.614771 0.264424
0.923491 0.560525 0.308827
0.978759 0.622126 0.385534
0.029816 0.838987 0.029816
0.030747 0.865446 0.030747
0.398566 0.929961 0.142367
0.954650 0.920195 0.275456
0.993271 0.926390 0.326299
0.032029 0.901473 0.032029
0.032700 0.920455 0.032700
0.305531 0.963455 0.142458
0.950576 0.962386 0.254246
0.988876 0.959930 0.265217
0.001190 0.001190 0.252064
0.097917 0.002350 0.273808
0.315312 0.004639 0.259586
0.528466 0.006775 0.221378
0.589792 0.007416 0.213474
0.002838 0.044221 0.280995
0.059983 0.036027 0.260349
0.274815 0.004044 0.227420
0.518151 0.006622 0.211444
0.590265 0.007507 0.232731
0.020142 0.500023 0.538506
0.021408 0.532540 0.567025
0.687907 0.674891 0.664195
0.940429 0.584756 0.593774
0.985962 0.647211 0.659953
0.034424 0.892714 0.626612
0.035096 0.908644 0.651148
0.396811 0.952911 0.681575
0.971603 0.962875 0.683513
0.997436 0.966049 0.705180
0.036667 0.944625 0.714565
0.037049 0.954025 0.725811
0.329564 0.985031 0.734752
0.965911 0.994858 0.684672
0.997513 0.991730 0.671839
0.002304 0.002319 0.489982
0.080552 0.003235 0.505684
0.278294 0.005249 0.477333
0.512337 0.007660 0.445991
0.588464 0.008469 0.441810
0.003159 0.029313 0.468025
0.037553 0.027741 0.460792
0.252033 0.004898 0.460883
0.517235 0.007736 0.452598
0.596933 0.008698 0.473991
0.016800 0.380224 0.736233
0.017517 0.398138 0.756588
0.523857 0.471183 0.827482
0.879133 0.546319 0.830045
0.942184 0.593393 0.865263
0.034089 0.849744 0.886870
0.034821 0.868513 0.902235
0.394263 0.925475 0.939055
0.971038 0.969696 0.968704
0.998856 0.971817 0.971771
0.037049 0.928512 0.923705
0.037507 0.940688 0.930220
0.094453 0.963027 0.939132
0.956329 0.999374 0.972732
0.999847 0.999847 0.970794
0.002655 0.002655 0.563333
0.073457 0.003433 0.565866
0.268345 0.005539 0.561090
0.503426 0.008072 0.556313
0.584131 0.008942 0.555108
0.004639 0.051392 0.622019
0.065126 0.050889 0.624353
0.284840 0.005936 0.606928
0.561776 0.008743 0.563256
0.636515 0.009552 0.562600
0.013275 0.273930 0.787015
0.044297 0.298268 0.803555
0.491157 0.381888 0.868574
0.851774 0.452323 0.867765
0.923522 0.521843 0.892119
0.034012 0.839307 0.952010
0.034806 0.860777 0.959350
0.388510 0.910491 0.982589
0.965331 0.959777 0.998215
0.998825 0.967483 0.998840
0.037385 0.933471 0.959319
0.037751 0.943084 0.965194
0.097108 0.962341 0.976059
0.944686 0.999374 0.999390
0.999985 0.999985 1.000000
