lut/Mathieu-Le-Lay/MLL_Landscape_SLogLUT.cube
TITLE "Generated by Resolve"
LUT_3D_SIZE 9
0 0 0
0 0 0
0 0 0
0 0 0
0.0270085 0.00488289 0.00421149
0.107637 0.012726 0.010132
0.19321 0.0154421 0.0109865
0.295521 0.0143587 0.00782788
0.422797 0.00939956 0.000503548
0 0 0
0.0195315 0.0195163 0.0117189
0.0576944 0.0382696 0.0196841
0.139452 0.0438239 0.0133516
0.257588 0.0413214 0
0.378973 0.0411994 0
0.524498 0.0407721 0
0.705074 0.0390021 0
0.911955 0.0389563 0
0.0243229 0.0883955 0.0185702
0.0645914 0.109438 0.0150607
0.131029 0.128862 0.00399786
0.302922 0.12784 0
0.548867 0.115572 0
0.759335 0.120897 0
0.942473 0.141848 0
1 0.171725 0
1 0.209628 0
0 0.270619 0
0 0.310903 0
0.100633 0.350698 0
0.370275 0.355108 0
0.688884 0.346624 0
0.885283 0.366598 0
1 0.401862 0
1 0.43917 0
1 0.477256 0
0 0.588846 0
0 0.621851 0
0.0513924 0.649409 0
0.332738 0.645075 0
0.651301 0.631525 0
0.859678 0.6448 0
0.987106 0.676448 0
1 0.705699 0
1 0.729458 0
0 0.827207 0
0 0.856229 0
0.107195 0.886488 0
0.363165 0.88513 0
0.667384 0.862943 0
0.870192 0.858167 0
0.97966 0.871077 0
1 0.8813 0
1 0.887114 0
0 1 0
0.0584726 1 0
0.192081 1 0
0.410513 1 0
0.699748 0.998825 0
0.88809 0.967117 0
0.966339 0.959701 0.0873274
1 0.957061 0.210773
1 0.956634 0.334005
0 1 0
0.159487 1 0.00944533
0.335973 1 0.106004
0.5523 1 0.196597
0.777188 1 0.280385
0.910704 0.99971 0.381689
0.963546 0.991241 0.502144
0.991775 0.988754 0.628687
1 0.989731 0.75996
0.271916 1 0.255207
0.455268 1 0.36141
0.602609 1 0.472496
0.75201 1 0.579065
0.889342 1 0.686259
0.964736 1 0.809094
0.9944 1 0.945647
1 1 1
1 1 1
0 0 0
0 0 0
0 0 0
0 0 0
0.0518196 0.00816358 0.0132753
0.130465 0.0135653 0.0259403
0.218219 0.0146792 0.034699
0.325368 0.0119783 0.0408789
0.459571 0.00521859 0.0448463
0 0 0
0.0263523 0.0263066 0.0256199
0.0652476 0.0428931 0.0411994
0.152361 0.0464332 0.0421454
0.27953 0.0414893 0.0345006
0.409186 0.0395361 0.0301823
0.562341 0.0378576 0.0262608
0.748837 0.0354314 0.022034
0.957275 0.0361028 0.0225223
0.0242771 0.0946517 0.0527047
0.0672465 0.115038 0.0609903
0.136614 0.134279 0.0650034
0.31693 0.132021 0.0419928
0.576043 0.117403 0.00555428
0.79324 0.122133 0
0.970718 0.144778 0.00715648
1 0.176471 0.0396887
1 0.215793 0.0822461
0 0.282216 0
0 0.321096 0
0.107851 0.359655 0
0.379034 0.36321 0
0.700236 0.353094 0
0.901259 0.37052 0
1 0.404837 0.0106355
1 0.442161 0.0575723
1 0.47985 0.102434
0 0.599008 0
0 0.627558 0
0.0641642 0.654169 0
0.338277 0.652247 0
0.658732 0.638193 0
0.87396 0.648661 0
1 0.678294 0
1 0.705318 0.0205997
1 0.726864 0.0508431
0 0.834745 0
0 0.863264 0
0.113848 0.892775 0
0.359716 0.892195 0
0.663035 0.867826 0
0.871794 0.858976 0
0.982193 0.869368 0
1 0.877653 0.0113375
1 0.883421 0.104295
0 1 0.029099
0.0605936 1 0.0468147
0.190768 1 0.0611124
0.398306 1 0.0447395
0.692409 0.995377 0.0603037
0.883268 0.962524 0.123934
0.961685 0.955215 0.225315
1 0.953689 0.333883
1 0.954513 0.442435
0 1 0.105791
0.179461 1 0.168902
0.355077 1 0.2542
0.560403 1 0.332906
0.777844 1 0.401297
0.910384 0.995697 0.485405
0.963058 0.988388 0.591562
0.990127 0.987442 0.705165
1 0.990082 0.823941
0.301839 1 0.383734
0.481605 1 0.474632
0.62594 1 0.570596
0.768109 1 0.664134
0.899214 1 0.758587
0.971283 1 0.868498
0.999908 1 0.991379
1 1 1
1 1 1
0 0 0
0 0 0
0 0 0
0 0 0
0.0742046 0.0101015 0.0311589
0.152621 0.0131228 0.0554055
0.243046 0.0122377 0.0781415
0.355245 0.00735485 0.10132
0.496422 0 0.12604
0.00677501 0.00988785 0.0134279
0.0322881 0.0322118 0.045716
0.0725414 0.0469673 0.0699474
0.165728 0.048249 0.0813611
0.302342 0.0406653 0.0853285
0.440726 0.0366827 0.0959182
0.601022 0.0337224 0.110796
0.792279 0.030869 0.127886
1 0.0329442 0.149706
0.0231479 0.100664 0.0972152
0.0691234 0.120592 0.116838
0.14229 0.139727 0.135576
0.331884 0.135973 0.130251
0.603204 0.119356 0.11165
0.824674 0.124331 0.117006
0.995789 0.149401 0.143938
1 0.183902 0.180346
1 0.224002 0.221973
0 0.293996 0.0657969
0 0.331792 0.0800641
0.1149 0.369116 0.10164
0.388281 0.371893 0.0972763
0.710246 0.360784 0.0897841
0.914931 0.376074 0.112581
1 0.41088 0.154498
1 0.448508 0.198077
1 0.485756 0.240208
0 0.608713 0
0 0.63415 0.0153201
0.0764172 0.660182 0.0615702
0.345602 0.660258 0.0741131
0.66688 0.645747 0.0688792
0.886625 0.653956 0.0862593
1 0.681849 0.123171
1 0.707225 0.156222
1 0.726894 0.182406
0 0.842542 0.0459449
0 0.870848 0.0767376
0.121584 0.899718 0.110475
0.359762 0.899107 0.113512
0.661265 0.872435 0.0890974
0.87364 0.860212 0.0796826
0.984573 0.868391 0.091722
1 0.875334 0.156283
1 0.881376 0.241062
0 1 0.162325
0.0642405 1 0.173327
0.19176 1 0.184024
0.398627 1 0.179309
0.690425 0.992187 0.200305
0.880461 0.958846 0.256611
0.958206 0.951934 0.345571
1 0.951446 0.440833
1 0.953429 0.536431
0.00181582 1 0.239719
0.203403 1 0.297383
0.377401 1 0.372137
0.573495 1 0.441154
0.782467 1 0.500465
0.911742 0.992554 0.574746
0.963485 0.986481 0.668849
0.989364 0.987015 0.770932
1 0.991302 0.87834
0.333867 1 0.486442
0.50985 1 0.564324
0.651194 1 0.648341
0.787396 1 0.73196
0.911681 1 0.818051
0.979141 1 0.918196
1 1 0.998779
1 1 1
1 1 1
0 0 0
0 0 0
0 0 0
0.0188296 0.00460822 0.0182498
0.0942702 0.0100404 0.0694285
0.173022 0.010193 0.114992
0.266163 0.00650034 0.162661
0.383108 0 0.215793
0.530968 0 0.276524
0.0113527 0.0175326 0.0400244
0.0361181 0.0360418 0.0894636
0.0774548 0.0483711 0.133639
0.176684 0.0463722 0.168658
0.322103 0.0348363 0.201144
0.467765 0.0276341 0.245823
0.633463 0.0220035 0.299825
0.826688 0.017731 0.357794
1 0.0206149 0.416754
0.0176242 0.103105 0.195087
0.0659342 0.121706 0.239689
0.142397 0.139574 0.288487
0.340932 0.132967 0.316732
0.622324 0.11368 0.330739
0.844511 0.118746 0.361776
1 0.145998 0.4038
1 0.183017 0.443793
1 0.222889 0.481559
0 0.297673 0.281865
0 0.334371 0.314519
0.113375 0.370474 0.348318
0.389517 0.372656 0.34963
0.71194 0.361196 0.338338
0.919326 0.375311 0.35288
1 0.410895 0.388907
1 0.448768 0.427024
1 0.485557 0.46392
0 0.606317 0.260975
0 0.632258 0.277684
0.0805219 0.659831 0.302815
0.347265 0.662028 0.304784
0.669169 0.647562 0.290929
0.89192 0.654322 0.298924
1 0.680797 0.32694
1 0.704463 0.352193
1 0.722545 0.371817
0 0.841291 0.311589
0 0.871336 0.310353
0.1234 0.900542 0.323033
0.356527 0.900038 0.313512
0.656504 0.871794 0.279332
0.871168 0.857237 0.260822
0.98027 0.863569 0.274632
1 0.870726 0.330297
1 0.87776 0.397772
0 1 0.398566
0.0613718 1 0.376791
0.187945 1 0.367315
0.401007 1 0.360571
0.689052 0.985611 0.367178
0.87686 0.95349 0.404974
0.953857 0.947784 0.474449
0.997467 0.948791 0.551339
1 0.952285 0.630243
0.0182498 1 0.455055
0.224552 1 0.471458
0.398581 1 0.516289
0.58732 1 0.562615
0.788388 1 0.604212
0.913664 0.989303 0.662745
0.964263 0.984878 0.741985
0.989151 0.987106 0.830579
1 0.993225 0.924987
0.362982 1 0.625483
0.536843 1 0.669337
0.676295 1 0.730785
0.808103 1 0.798199
0.92578 1 0.871733
0.987976 1 0.959655
1 1 1
1 1 1
1 1 1
0 0 0
0 0 0
0 0 0
0.0377813 0.00766003 0.0485847
0.113497 0.00927749 0.112428
0.193881 0.0071107 0.174273
0.290745 0.00106813 0.241611
0.413321 0 0.318502
0.568856 0 0.407813
0.0142824 0.0233921 0.0766308
0.0389868 0.0388952 0.143648
0.0817273 0.0488746 0.209705
0.187518 0.0434119 0.27068
0.342245 0.0277562 0.334325
0.49514 0.0172427 0.415839
0.66511 0.00924697 0.510277
0.858808 0.00427253 0.607492
1 0.00880446 0.697765
0.0107424 0.104768 0.309087
0.0607309 0.121233 0.391913
0.139895 0.136797 0.484031
0.346838 0.126604 0.556191
0.636378 0.104494 0.609522
0.856809 0.109667 0.668238
1 0.138994 0.723873
1 0.177859 0.764691
1 0.216739 0.800488
0 0.29955 0.530632
0 0.332891 0.606088
0.107027 0.3664 0.666346
0.384665 0.367422 0.678233
0.706706 0.355032 0.666957
0.916213 0.368246 0.680018
1 0.404074 0.714824
1 0.441672 0.75111
1 0.477531 0.785534
0 0.600671 0.585214
0 0.624933 0.605432
0.0773327 0.652949 0.631144
0.34136 0.65597 0.633326
0.662867 0.640818 0.618128
0.887175 0.645701 0.62269
1 0.670222 0.64651
1 0.691936 0.667659
1 0.708293 0.683619
0 0.835325 0.633844
0 0.864347 0.633722
0.116182 0.892317 0.643381
0.344198 0.89073 0.630777
0.642145 0.860563 0.59321
0.858015 0.843641 0.570443
0.964813 0.848829 0.581582
1 0.85742 0.612161
1 0.866667 0.648264
0 1 0.713222
0.049424 1 0.688716
0.17406 1 0.674174
0.397055 1 0.657816
0.680674 0.970184 0.637034
0.866346 0.940673 0.643702
0.943328 0.937453 0.679606
0.986831 0.9411 0.724208
1 0.947265 0.772381
0.0307469 1 0.74847
0.239033 1 0.733043
0.412757 1 0.741863
0.596185 1 0.754162
0.790478 1 0.76466
0.912398 0.982528 0.793774
0.962753 0.981018 0.843778
0.987884 0.986175 0.903655
0.99968 0.995377 0.969406
0.387442 1 0.813382
0.559518 1 0.822553
0.698253 1 0.850706
0.827436 1 0.887694
0.939773 1 0.933181
0.997299 1 0.993057
1 1 1
1 1 1
1 1 1
0 0 0
0 0 0
0 0 0
0.054902 0.0099031 0.0779126
0.133165 0.00898756 0.146044
0.216648 0.00526436 0.21593
0.318608 0 0.294041
0.448173 0 0.384222
0.612146 0 0.489143
0.0169528 0.0288396 0.10956
0.0426795 0.0425574 0.185397
0.087892 0.0510719 0.264179
0.201617 0.0430152 0.340246
0.367224 0.0242924 0.422187
0.52813 0.0119326 0.524544
0.702815 0.0034638 0.639948
0.897063 0 0.754665
1 0.00802625 0.854719
0.00665293 0.109606 0.386343
0.0594644 0.124865 0.496834
0.142596 0.139178 0.61912
0.359045 0.126833 0.717937
0.656382 0.103685 0.791684
0.874449 0.110246 0.861601
1 0.142123 0.920241
1 0.18172 0.960311
1 0.219944 0.996857
0 0.309026 0.684825
0 0.339406 0.792401
0.109804 0.370611 0.871641
0.38819 0.370596 0.890684
0.709041 0.356664 0.884306
0.920287 0.369314 0.901579
1 0.404791 0.939605
1 0.441596 0.977966
1 0.476127 1
0 0.605051 0.771756
0 0.626505 0.814008
0.0814069 0.653971 0.854551
0.342306 0.656687 0.866209
0.662547 0.640101 0.857038
0.887205 0.642588 0.864683
1 0.664637 0.890196
1 0.684123 0.912566
1 0.698528 0.929519
0 0.838285 0.832975
0 0.864393 0.855894
0.114504 0.889662 0.878553
0.337148 0.885924 0.873838
0.63241 0.853315 0.841611
0.848524 0.833738 0.822049
0.952865 0.838361 0.826749
1 0.848066 0.837095
1 0.859068 0.849088
0 1 0.920699
0.0429084 1 0.918349
0.17232 1 0.915465
0.399252 1 0.891173
0.676814 0.958206 0.852735
0.859068 0.930938 0.837049
0.935332 0.929656 0.847807
0.978378 0.9355 0.866484
1 0.944015 0.888624
0.0513008 1 0.944121
0.258106 1 0.925277
0.42974 1 0.917052
0.607584 1 0.907622
0.794873 0.994202 0.895247
0.912917 0.977462 0.900298
0.962798 0.978653 0.924483
0.988052 0.986679 0.957229
1 0.998917 0.994812
0.415106 1 0.941772
0.584039 1 0.936889
0.721477 1 0.943038
0.848234 1 0.955062
0.955169 1 0.974823
1 1 1
1 1 1
1 1 1
1 1 1
0 0 0
0 0 0
0.0104067 0.00468452 0.0242008
0.0712749 0.0115816 0.10811
0.153185 0.00848402 0.18024
0.240604 0.00329595 0.257725
0.348302 0 0.345998
0.485725 0 0.44892
0.658335 0 0.568002
0.0193332 0.0339971 0.142306
0.0466468 0.046479 0.224231
0.0950332 0.0539559 0.312154
0.217716 0.0436408 0.39881
0.395193 0.0224613 0.493385
0.564523 0.0089723 0.609445
0.743542 0.00122072 0.736294
0.937209 0.000579843 0.857832
1 0.0130465 0.957504
0.00358587 0.116075 0.451057
0.0605478 0.131151 0.577157
0.149172 0.145403 0.714336
0.376318 0.132387 0.822965
0.680903 0.109743 0.899657
0.896239 0.11873 0.967193
1 0.153506 1
1 0.192813 1
1 0.230991 1
0 0.323125 0.787381
0 0.352163 0.899947
0.120958 0.382376 0.978439
0.399832 0.381949 0.995117
0.719814 0.366842 0.989853
0.932952 0.379461 1
1 0.414572 1
1 0.450523 1
1 0.483635 1
0 0.616068 0.869581
0 0.636637 0.916915
0.0941329 0.664073 0.962417
0.352514 0.66659 0.977829
0.671489 0.648692 0.970825
0.896162 0.648875 0.97911
1 0.668498 1
1 0.685924 1
1 0.698528 1
0 0.848798 0.932128
0 0.873075 0.961425
0.121813 0.896071 0.988678
0.339773 0.89041 0.987488
0.63267 0.85565 0.957946
0.848814 0.833844 0.938888
0.950515 0.838087 0.937072
1 0.848127 0.938079
1 0.859861 0.939483
0 1 1
0.0454871 1 1
0.187091 1 1
0.41268 1 0.993866
0.682582 0.955032 0.949264
0.859892 0.929122 0.925078
0.934188 0.928756 0.925475
0.975708 0.935683 0.932998
1 0.94548 0.94342
0.0815442 1 1
0.28629 1 1
0.4542 1 0.992752
0.625711 1 0.975952
0.80502 0.991119 0.955291
0.917922 0.976699 0.950454
0.966094 0.979644 0.962631
0.990509 0.989502 0.981826
1 1 1
0.448447 1 0.994141
0.613596 1 0.985031
0.748882 1 0.982895
0.872374 1 0.984253
0.97258 1 0.992264
1 1 1
1 1 1
1 1 1
1 1 1
0 0 0
0 0 0
0.0227512 0.00935378 0.0573434
0.0872511 0.0127565 0.140871
0.173648 0.00758373 0.218128
0.265614 0.000900282 0.304143
0.379599 0 0.403525
0.525475 0 0.520302
0.706203 0 0.653468
0.0213321 0.038819 0.178088
0.0504616 0.050248 0.26714
0.102358 0.0567178 0.365118
0.234775 0.0440833 0.463249
0.424674 0.0204166 0.570932
0.601892 0.00621042 0.69987
0.784115 0 0.836637
0.975158 0.00273136 0.961654
1 0.0198825 1
0.000122072 0.122835 0.522118
0.0616922 0.137758 0.66363
0.156283 0.152163 0.81323
0.394064 0.138949 0.927962
0.704311 0.117266 1
0.916045 0.128939 1
1 0.166064 1
1 0.204349 1
1 0.243061 1
0 0.337545 0.8907
0 0.365438 1
0.13373 0.394919 1
0.412268 0.394049 1
0.73196 0.378515 1
0.9467 0.391089 1
1 0.425772 1
1 0.460792 1
1 0.492378 1
0 0.627375 0.960479
0 0.648066 1
0.107973 0.675563 1
0.364218 0.677913 1
0.681926 0.658778 1
0.906371 0.656748 1
1 0.674159 1
1 0.689754 1
1 0.702312 1
0 0.859937 1
0 0.882795 1
0.130404 0.903807 1
0.344442 0.896574 1
0.635325 0.860075 1
0.851728 0.836774 1
0.950759 0.840848 1
1 0.851225 0.997665
1 0.863508 0.99115
0 1 1
0.0495003 1 1
0.207233 1 1
0.429892 0.999893 1
0.691997 0.954559 1
0.863676 0.930098 0.974426
0.935699 0.93051 0.967407
0.975418 0.938262 0.967742
1 0.94905 0.971145
0.114244 1 1
0.316518 1 1
0.481025 1 1
0.646418 1 1
0.817746 0.990127 0.986068
0.925093 0.977829 0.975479
0.971008 0.982208 0.980911
0.994095 0.993469 0.993042
1 1 1
0.483177 1 1
0.644953 1 1
0.77818 1 1
0.898192 1 0.996826
0.990478 1 0.999329
1 1 1
1 1 1
1 1 1
1 1 1
0 0 0
0 0 0
0.033814 0.0130312 0.0910506
0.103075 0.0134737 0.17641
0.194614 0.00627146 0.259785
0.291737 0 0.355352
0.412436 0 0.466758
0.566659 0 0.597787
0.755154 0 0.745022
0.0229801 0.0433356 0.21709
0.0541238 0.0538643 0.314351
0.10985 0.0593271 0.423362
0.252766 0.0443275 0.534157
0.455253 0.018265 0.654948
0.639628 0.00378424 0.795697
0.823789 0 0.940017
1 0.00643931 1
1 0.0283818 1
0 0.129824 0.599466
0.0629892 0.144656 0.755978
0.163958 0.159442 0.916762
0.411917 0.146365 1
0.726177 0.126024 1
0.933455 0.140337 1
1 0.178592 1
1 0.216251 1
1 0.255406 1
0 0.352087 0.993637
0 0.378805 1
0.147555 0.407614 1
0.424598 0.406058 1
0.744488 0.390646 1
0.960418 0.402991 1
1 0.437064 1
1 0.470939 1
1 0.500801 1
0 0.638697 1
0 0.659831 1
0.121798 0.687266 1
0.375845 0.689158 1
0.692088 0.668589 1
0.915923 0.66424 1
1 0.679484 1
1 0.693339 1
1 0.707607 1
0 0.870893 1
0 0.892149 1
0.138537 0.91107 1
0.348928 0.902281 1
0.637842 0.864149 1
0.854643 0.83978 1
0.950912 0.843885 1
1 0.854734 1
1 0.867536 1
0 1 1
0.057557 1 1
0.229587 1 1
0.448203 0.997635 1
0.702022 0.954299 1
0.867918 0.93138 1
0.937545 0.932631 1
0.975509 0.941253 0.996841
0.999268 0.953063 0.993423
0.147692 1 1
0.346944 1 1
0.508003 1 1
0.667781 1 1
0.831205 0.989471 1
0.93283 0.979385 0.995041
0.97641 0.98526 0.993912
0.998199 0.997925 0.999451
1 1 1
0.518044 1 1
0.676707 1 1
0.808042 1 1
0.924788 1 1
1 1 1
1 1 1
1 1 1
1 1 1
1 1 1
