lut/Mathieu-Le-Lay/MLL_Wildlife_SLogLUT.cube
TITLE "Generated by Resolve"
LUT_3D_SIZE 9
0 0 0
0.218067 0 0.0400854
0.29276 0 0.0538186
0.364797 0 0.0670634
0.403418 0 0.0741588
0.401038 0 0.0737316
0.374929 0 0.068925
0.333455 0 0.0612955
0.281804 0 0.0518044
0 0 0
0 0 0
0.124681 0 0.0229191
0.192157 0 0.0353246
0.209766 0 0.0385595
0.198413 0 0.0364691
0.167254 0 0.0307469
0.115282 0 0.0211948
0.110124 0 0.0202487
0 0 0
0 0 0
0 0 0
0 0 0
0 0 0
0.0652323 0.00410468 0
0.417639 0.0414588 0
0.869657 0.0759747 0
1 0.233722 0
0 0 0
0 0 0
0 0.0576333 0
0 0.151186 0
0.329168 0.208026 0
0.70869 0.249454 0
1 0.277165 0
1 0.339529 0
1 0.562676 0
0 0.30695 0
0 0.44213 0
0 0.532158 0
0 0.546471 0
0 0.596765 0
0.730632 0.601434 0
1 0.612345 0
1 0.622599 0
1 0.605737 0
0 0.8047 0
0 0.898344 0
0 0.935836 0
0 0.926009 0
0 0.934874 0
0.752941 0.921996 0
1 0.904692 0
1 0.908125 0
1 0.952239 0.60058
0 1 0
0 1 0
0 1 0
0.342382 1 0
0.777752 1 0.165469
0.977478 1 0.840024
1 1 0.99266
1 1 0.992508
1 1 0.992355
0 1 0
0.521416 1 0.432959
0.995422 1 0.992981
0.996704 1 0.992737
0.997909 1 0.992508
0.998947 1 0.992309
0.999802 1 0.992142
1 1 0.992004
1 1 0.991852
0.992844 1 0.992844
0.99382 1 0.992676
0.994842 1 0.992493
0.996078 1 0.992248
0.997238 1 0.99202
0.998245 1 0.991821
0.999084 1 0.991653
0.999878 1 0.991516
1 1 0.991363
0 0 0.326818
0.210483 0 0.246174
0.314 0 0.182986
0.389197 0 0.12929
0.411734 0 0.0757
0.411734 0 0.0757
0.380407 0 0.0699321
0.332982 0 0.0612192
0.276738 0 0.0508736
0 0.0304265 0.117174
0 0 0
0.166812 0 0.0306706
0.210163 0 0.0386358
0.218906 0 0.040238
0.201892 0 0.0371099
0.16524 0 0.0303807
0.112932 0 0.0207675
0.149783 0 0
0 0 0
0 0 0
0 0 0
0.0626841 0 0.0115206
0.0419928 0 0.00772107
0.171557 0.0109712 0
0.528481 0.0149538 0
1 0.0204929 0
1 0.349325 0
0 0 0
0 0 0
0 0.096025 0
0.135348 0.167697 0
0.441611 0.205524 0
0.817563 0.227466 0
1 0.241672 0
1 0.37644 0
1 0.580957 0
0 0.35201 0
0 0.489952 0
0 0.570504 0
0 0.587366 0
0.448066 0.583597 0
0.869932 0.587427 0
1 0.598291 0
1 0.607935 0
1 0.595499 0
0 0.837797 0
0 0.92491 0
0 0.959075 0
0 0.943694 0
0.471366 0.926253 0
0.876387 0.908293 0
1 0.898787 0
1 0.917144 0.268498
1 0.975067 0.844175
0 1 0
0 1 0
0 1 0
0.443183 1 0
0.831662 1 0.483024
0.999603 1 0.993912
1 1 0.993744
1 1 0.993576
1 1 0.993423
0 1 0
0.708217 1 0.707713
0.995361 1 0.994079
0.996628 1 0.99382
0.997833 1 0.993576
0.998871 1 0.993362
0.99971 1 0.993194
1 1 0.993042
1 1 0.992889
0.992782 1 0.993927
0.993759 1 0.993744
0.994781 1 0.993545
0.996002 1 0.993286
0.997177 1 0.993042
0.998184 1 0.992844
0.999008 1 0.992676
0.999817 1 0.992523
1 1 0.99237
0 0.0893568 0.604273
0 0 0.482597
0.269886 0 0.380423
0.375402 0 0.292103
0.392676 0 0.229206
0.400122 0 0.190768
0.37438 0 0.16492
0.321538 0 0.146456
0.260121 0 0.13312
0 0.072221 0.278172
0 0 0.214832
0.165698 0 0.166842
0.212238 0 0.127993
0.219806 0 0.0948348
0.199039 0 0.0745708
0.155505 0 0.0684215
0.106844 0 0.051957
0.290745 0 0.00190738
0 0.0311742 0.120073
0 0.0203555 0.0784161
0 0 0
0.0809339 0 0.0148775
0.0437018 0 0.0080415
0.256962 0.00794995 0.00694286
0.630808 0.00637827 0.00448615
1 0 0
1 0.425101 0
0 0 0
0 0.00347906 0.0133974
0.00357061 0.124773 0.00262455
0.183749 0.182757 0
0.506661 0.204028 0
0.881926 0.212177 0
1 0.220264 0
1 0.392721 0
1 0.588602 0
0 0.381781 0
0 0.521675 0
0 0.578836 0
0.176394 0.583963 0
0.577707 0.575952 0
0.926467 0.579492 0
1 0.589868 0
1 0.598016 0
1 0.597162 0
0 0.854322 0
0 0.937499 0
0 0.95639 0
0.18175 0.939376 0
0.574289 0.9187 0
0.899748 0.89926 0
1 0.898466 0.139055
1 0.930419 0.562768
1 0.999619 0.995193
0 1 0
0 1 0
0 1 0
0.52166 1 0.297765
0.889708 1 0.737453
0.999512 1 0.995102
1 1 0.994919
1 1 0.994751
1 0.999954 0.994583
0 1 0.43003
0.881559 1 0.90425
0.995285 1 0.99527
0.996551 1 0.994995
0.997757 1 0.994736
0.998779 1 0.994507
0.999634 1 0.994339
1 1 0.994171
1 1 0.994003
0.992721 1 0.995102
0.993683 1 0.994904
0.994705 1 0.994705
0.995926 1 0.99443
0.997086 1 0.994171
0.998108 1 0.993957
0.998932 1 0.99379
0.999725 1 0.993622
1 1 0.993454
0 0 0.664988
0 0 0.6654
0 0 0.630426
0.24033 0 0.49485
0.330312 0 0.391806
0.366278 0 0.31754
0.356374 0 0.26099
0.302083 0 0.216403
0.238895 0 0.181216
0 0.114916 0.469398
0 0 0.366705
0.0902876 0 0.283207
0.193423 0 0.216175
0.206073 0 0.170367
0.183154 0 0.139498
0.134539 0 0.110994
0.105165 0 0.0510414
0.430579 0 0.102251
0 0.0521401 0.200824
0 0.0397955 0.153246
0 0 0.114046
0.0717632 0 0.0720226
0.0518196 0 0.0173037
0.336522 0.00889601 0.129778
0.727214 0 0.209995
1 0 0.26598
1 0.478706 0.277852
0 0.0175937 0.0677653
0 0.0601663 0.0610513
0 0.147753 0.149828
0.193713 0.192599 0.19585
0.530297 0.202792 0.207141
0.90367 0.205417 0.210529
1 0.212573 0.218097
1 0.39443 0.216953
1 0.587625 0.202609
0 0.394141 0.189517
0 0.533486 0.193545
0 0.581949 0.190875
0.170062 0.579843 0.173495
0.572564 0.570428 0.163714
0.922087 0.572656 0.166522
1 0.581704 0.175814
1 0.589441 0.186313
1 0.618433 0.258839
0 0.850568 0.222751
0 0.933959 0.201923
0 0.949615 0.197223
0.173068 0.931517 0.176333
0.568109 0.907118 0.174594
0.889235 0.888747 0.272648
1 0.898863 0.489097
1 0.94789 0.799115
1 0.999512 0.996689
0 1 0.170886
0 1 0.157061
0 1 0.380209
0.60798 1 0.609277
0.948409 0.999924 0.916609
0.999405 1 0.996582
1 1 0.996384
1 1 0.996201
1 0.999832 0.996017
0.41915 1 0.731517
0.994125 1 0.996994
0.995193 1 0.996765
0.996445 1 0.99646
0.997635 1 0.996185
0.998672 1 0.995941
0.999527 1 0.995758
1 1 0.995575
1 1 0.995392
0.99263 1 0.996567
0.993591 1 0.996368
0.994614 1 0.996139
0.995834 1 0.99585
0.996979 1 0.995575
0.998001 1 0.995346
0.998825 1 0.995163
0.999619 1 0.99498
1 1 0.994812
0 0 0.665263
0 0 0.66569
0 0 0.665858
0 0 0.661555
0.197894 0 0.52253
0.315221 0 0.415229
0.323919 0 0.329244
0.274159 0 0.259159
0.214603 0 0.202014
0 0.141268 0.620615
0 0 0.482094
0 0 0.367178
0.157977 0 0.273671
0.188281 0 0.205264
0.167071 0 0.155779
0.114122 0 0.111101
0.125978 0 0.0499123
0.570352 0 0.247929
0 0.0646525 0.248966
0 0.0466163 0.179538
0 0 0.12697
0.0579995 0 0.0665446
0.121248 0 0.121736
0.41471 0.00442512 0.30135
0.820935 0 0.464225
1 0.169558 0.594247
1 0.54255 0.671077
0 0.0150759 0.0580606
0 0.0919966 0.183963
0 0.166888 0.348547
0.200229 0.198978 0.474495
0.549523 0.199832 0.552712
0.919326 0.199084 0.59884
1 0.206592 0.625727
1 0.425299 0.638987
1 0.606867 0.648615
0 0.428931 0.485496
0 0.551659 0.556695
0 0.583398 0.589014
0.165454 0.576242 0.582284
0.5682 0.566064 0.572198
0.917556 0.567117 0.573312
1 0.574701 0.580911
1 0.585367 0.591409
1 0.628458 0.633585
0 0.864057 0.602655
0 0.941741 0.606104
0 0.943633 0.605722
0.16556 0.924315 0.580179
0.568872 0.895994 0.572702
0.883085 0.882612 0.625986
1 0.906386 0.755734
1 0.971817 0.940322
1 0.999405 0.998093
0 1 0.588708
0 1 0.600015
0.17528 1 0.707851
0.705928 1 0.83061
0.998245 1 0.99826
0.999298 1 0.997986
1 1 0.997772
1 0.999954 0.997574
1 0.999741 0.997375
0.643244 1 0.904372
0.994049 1 0.998444
0.995102 1 0.998184
0.996353 1 0.997848
0.997543 1 0.997559
0.998581 1 0.997299
0.99942 1 0.997086
1 1 0.996887
1 1 0.996704
0.992554 1 0.997971
0.993515 1 0.997757
0.994522 1 0.997513
0.995743 1 0.997192
0.996887 1 0.996902
0.997909 1 0.996658
0.998734 1 0.996445
0.999527 1 0.996262
1 1 0.996078
0 0 0.665461
0 0 0.665858
0 0 0.665858
0 0 0.665858
0 0 0.594583
0.275181 0 0.463844
0.289616 0 0.356802
0.246769 0 0.269154
0.193194 0 0.197925
0 0.146014 0.664561
0 0.0614176 0.540032
0 0 0.404074
0.127138 0 0.29398
0.173709 0 0.211353
0.150622 0 0.150637
0.0974136 0 0.0916762
0.24712 0 0.164401
0.71368 0 0.417182
0 0.0681468 0.26247
0 0.0420996 0.179889
0 0 0.11632
0.0393683 0 0.0605631
0.183368 0.00463874 0.25301
0.493599 0 0.493584
0.912474 0 0.719097
1 0.336278 0.891447
1 0.613092 0.992554
0 0.0230564 0.0888075
0 0.120485 0.33608
0 0.184802 0.566552
0.207111 0.205722 0.753475
0.56849 0.199939 0.87071
0.934432 0.197894 0.935088
1 0.294301 0.96495
1 0.483665 0.978302
1 0.626215 0.971435
0 0.498375 0.775082
0 0.565332 0.880018
0 0.588144 0.92604
0.166705 0.577386 0.925734
0.568551 0.566384 0.917159
0.917037 0.566094 0.918029
1 0.572091 0.92459
1 0.589944 0.920302
1 0.6495 0.91252
0 0.904189 0.934722
0 0.94229 0.943236
0 0.942657 0.943771
0.167208 0.920073 0.921614
0.579629 0.889418 0.890944
0.884031 0.883619 0.88481
1 0.921981 0.922591
1 0.999496 0.999496
1 0.999313 0.999313
0 1 0.900084
0 1 0.892195
0.296315 1 0.924941
0.811002 1 0.953628
0.998154 1 0.999481
0.999207 1 0.999207
1 1 0.998993
1 0.999863 0.998779
1 0.999649 0.998566
0.852018 1 0.982101
0.993973 1 0.999619
0.995026 1 0.999359
0.996277 1 0.999054
0.997452 1 0.998749
0.998489 1 0.998489
0.999329 1 0.998276
1 1 0.998077
1 0.999939 0.997879
0.992493 1 0.99913
0.993439 1 0.998901
0.994446 1 0.998657
0.995666 1 0.998367
0.996796 1 0.998077
0.997818 1 0.997833
0.998657 1 0.99762
0.999435 1 0.997421
1 1 0.997238
0 0 0.665614
0 0 0.665858
0 0 0.665858
0 0 0.665858
0 0 0.63064
0.256016 0 0.481956
0.259739 0 0.359472
0.223575 0 0.259983
0.175845 0 0.180468
0 0.140124 0.664591
0 0.0737926 0.566201
0 0 0.414115
0.112108 0 0.291997
0.16321 0 0.200702
0.133028 0 0.13431
0.088014 0 0.0878004
0.369833 0 0.309957
0.859495 0 0.621759
0 0.066453 0.25594
0 0.0383459 0.166308
0 0 0.0959029
0.0191653 0 0.106279
0.243214 0.00749218 0.416663
0.571862 0 0.718608
0.997803 0 0.994995
1 0.459724 1
1 0.651621 1
0 0.0587625 0.220371
0 0.146365 0.520134
0 0.201007 0.810849
0.213901 0.21239 1
0.586099 0.202075 1
0.931334 0.237751 1
1 0.404746 1
1 0.553872 1
1 0.649226 1
0 0.530282 1
0 0.578317 1
0 0.594339 1
0.171176 0.581827 1
0.572137 0.569986 1
0.919463 0.568307 1
1 0.573938 1
1 0.602731 1
1 0.680522 1
0 0.936461 1
0 0.945464 1
0 0.94435 1
0.181415 0.917327 1
0.600137 0.887449 1
0.891829 0.891463 1
1 0.944228 1
1 0.999451 1
1 0.999237 1
0 1 1
0 1 1
0.43386 1 1
0.914427 1 1
0.998077 1 1
0.99913 1 1
1 1 0.999985
1 0.999786 0.999771
1 0.999573 0.999557
0.992935 1 1
0.993912 1 1
0.994965 1 1
0.996216 1 1
0.997375 1 0.999741
0.998413 1 0.999481
0.999268 1 0.999252
1 1 0.999054
1 0.999863 0.99884
0.992432 1 1
0.993378 1 0.999893
0.994385 1 0.999634
0.995605 1 0.999329
0.996735 1 0.999039
0.997757 1 0.998779
0.998581 1 0.998581
0.999374 1 0.998383
1 1 0.998184
0 0 0.665736
0 0 0.665858
0 0 0.665858
0 0 0.665858
0 0 0.642435
0.220264 0 0.479179
0.236484 0 0.345357
0.205081 0 0.238544
0.159686 0 0.157595
0 0.136446 0.664622
0 0.0752422 0.569574
0 0 0.405203
0.114641 0 0.275212
0.154055 0 0.180163
0.113146 0 0.117952
0.102419 0 0.125811
0.492546 0 0.490211
1 0 0.864363
0 0.0613718 0.236332
0 0.0378271 0.145663
0 0 0.0947433
0.0636149 0.000503548 0.259022
0.301656 0.00595102 0.617685
0.647913 0 0.979767
0.990356 0.312657 1
1 0.573388 1
1 0.678843 1
0 0.0920272 0.383047
0 0.169497 0.742412
0 0.214832 1
0.564431 0.125994 1
0.753979 0.204028 1
0.900633 0.374289 1
1 0.50901 1
1 0.632303 1
1 0.676265 1
0 0.535088 1
0 0.575204 1
0.420478 0.58912 1
0.469474 0.575891 1
0.62945 0.569177 1
0.922011 0.570809 1
1 0.579355 1
1 0.621592 1
1 0.719341 1
0 0.941146 1
0 0.948959 1
0 0.946303 1
0.206027 0.914046 1
0.628031 0.888045 1
0.904509 0.904219 1
0.998215 0.970626 1
1 0.999374 1
1 0.999161 1
0 1 1
0 1 1
0.582132 1 1
0.996796 1 1
0.998001 1 1
0.999054 1 1
0.999924 0.999924 1
1 0.99971 1
1 0.999496 1
0.992874 1 1
0.993866 1 1
0.994904 1 1
0.996139 1 1
0.997314 1 1
0.998352 1 1
0.999191 1 1
1 1 0.999969
1 0.999802 0.999771
0.992386 1 1
0.993332 1 1
0.994339 1 1
0.995544 1 1
0.996674 1 0.999969
0.997681 1 0.99971
0.99852 1 0.999496
0.999298 1 0.999283
1 1 0.999084
0 0 0.665827
0 0 0.665858
0 0 0.665858
0 0 0.665858
0 0 0.633173
0.19791 0 0.459098
0.22031 0 0.318242
0.190158 0 0.209735
0.144152 0 0.143786
0 0.134905 0.664622
0 0.0679332 0.553491
0 0 0.380926
0.124834 0 0.247684
0.142718 0 0.156664
0.0900587 0 0.120745
0.207233 0 0.285801
0.616922 0 0.708125
1 0.267445 1
0 0.0540475 0.208164
0 0.033402 0.128649
0 0 0.124239
0.101274 0.0102998 0.43949
0.35877 0 0.857328
0.708034 0.119036 1
0.984253 0.456611 1
1 0.677378 1
1 0.709194 1
0 0.121736 0.58117
0 0.190097 1
0.599649 0.0972763 1
0.757458 0.209079 1
0.86421 0.336568 1
0.985931 0.458228 1
1 0.579828 1
1 0.709117 1
1 0.706035 1
0.280674 0.516457 1
0.699123 0.547326 1
0.816129 0.558846 1
0.834485 0.543801 1
0.918532 0.53518 1
1 0.54522 1
1 0.622721 1
1 0.647059 1
1 0.765652 1
0 0.93518 1
0 0.946868 1
0.28513 0.94406 1
0.24152 0.910979 1
0.663615 0.891783 1
0.922179 0.921981 1
1 0.999115 1
1 0.999298 1
1 0.999084 1
0 1 1
0 1 1
0.734371 1 1
0.996735 1 1
0.99794 1 1
0.998993 1 1
0.999847 0.999847 1
1 0.999634 1
1 0.99942 1
0.992828 1 1
0.993805 1 1
0.994842 1 1
0.996078 1 1
0.997253 1 1
0.998276 1 1
0.99913 1 1
0.999924 0.999939 1
1 0.999725 1
0.99234 1 1
0.993271 1 1
0.994278 1 1
0.995483 1 1
0.996597 1 1
0.99762 1 1
0.998444 1 1
0.999237 1 1
0.999985 1 0.999954
