lut/Mathieu-Le-Lay/MLL_Outdoor_SLogLUT.cube
TITLE "Generated by Resolve"
LUT_3D_SIZE 5
0 0 0
0 0 0
0 0 0
0 0 0
0.19556 0 0
0 0 0
0 0 0
0.428733 0.0860151 0
1 0.0900435 0
1 0.0617533 0
0 0.764446 0
0 0.801083 0
0.76466 0.772107 0
1 0.751461 0
1 0.776562 0
0 1 0
0.553582 1 0.284627
1 1 1
1 1 1
1 1 1
1 1 1
1 1 1
1 1 1
1 1 1
1 1 1
0 0 0
0 0 0
0 0 0
0.0122377 0 0
0.245472 0 0
0 0 0
0.00856031 0.0151675 0.0203555
0.543679 0.0944076 0.111955
1 0.0729076 0.0998245
1 0.0440833 0.0747845
0 0.791791 0.0631723
0 0.800488 0
0.751659 0.75967 0
1 0.734539 0
1 0.858885 0.514076
0 1 0.00140383
0.997513 1 0.998123
1 1 1
1 1 1
1 1 1
1 1 1
1 1 1
1 1 1
1 1 1
1 1 1
0 0 0
0 0 0
0 0 0
0.055787 0 0
0.332067 0 0.135897
0 0 0.0137942
0.0524147 0.0640421 0.302541
0.635996 0.0878004 0.643259
1 0.0516976 0.810346
1 0.0228275 0.863355
0 0.803723 0.809491
0 0.794202 0.801328
0.735164 0.743664 0.752026
1 0.721401 0.729732
1 0.998764 0.998825
0 1 0.827359
1 1 1
1 1 1
1 1 1
1 1 1
1 1 1
1 1 1
1 1 1
1 1 1
1 1 1
0 0 0
0 0 0
0 0 0
0.103288 0 0.100191
0.668101 0 0.482765
0 0 0.155734
0.0781567 0.0946822 0.716106
0.7122 0.0794995 1
1 0.0395209 1
1 0.00914015 1
0 0.816327 1
0 0.794339 1
0.728008 0.73666 1
1 0.755062 1
1 1 1
0.206165 1 1
1 1 1
1 1 1
1 1 1
1 1 1
1 1 1
1 1 1
1 1 1
1 1 1
1 1 1
0 0 0
0 0 0
0 0 0.0935073
0.155245 0 0.237278
0.987289 0 0.966995
0 0.0202487 0.362158
0.0902419 0.111635 1
0.769512 0.0700542 1
1 0.031342 1
1 0 1
0 0.827085 1
0 0.793881 1
0.722972 0.73167 1
1 0.850095 1
1 1 1
0.990555 1 1
1 1 1
1 1 1
1 1 1
1 1 1
1 1 1
1 1 1
1 1 1
1 1 1
1 1 1
