lut/Mathieu-Le-Lay/MLL_Outdoor_SLogLUT.cube
TITLE "Generated by Resolve"
LUT_3D_SIZE 65
0 0 0
0 0 0
0 0 0
0 0 0
0 0 0
0 0 0
0 0 0
0 0 0
0 0 0
0 0 0
0 0 0
0 0 0
0 0 0
0 0 0
0 0 0
0 0 0
0 0 0
0 0 0
0 0 0
0 0 0
0 0 0
0 0 0
0 0 0
0 0 0
0 0 0
0 0 0
0 0 0
0 0 0
0 0 0
0 0 0
0 0 0
0 0 0
0 0 0
0 0 0
0 0 0
0 0 0
0 0 0
0 0 0
0 0 0
0 0 0
0 0 0
0 0 0
0 0 0
0 0 0
0 0 0
0 0 0
0 0 0
0 0 0
0 0 0
0 0 0
0 0 0
0.0114748 0 0
0.0253147 0 0
0.0392004 0 0
0.0531319 0 0
0.0670939 0 0
0.081117 0 0
0.0951858 0 0
0.1093 0 0
0.123491 0 0
0.137743 0 0
0.152056 0 0
0.166461 0 0
0.180957 0 0
0.19556 0 0
0 0 0
0 0 0
0 0 0
0 0 0
0 0 0
0 0 0
0 0 0
0 0 0
0 0 0
0 0 0
0 0 0
0 0 0
0 0 0
0 0 0
0 0 0
0 0 0
0 0 0
0 0 0
0 0 0
0 0 0
0 0 0
0 0 0
0 0 0
0 0 0
0 0 0
0 0 0
0 0 0
0 0 0
0 0 0
0 0 0
0 0 0
0 0 0
0 0 0
0 0 0
0 0 0
0 0 0
0 0 0
0 0 0
0 0 0
0 0 0
0 0 0
0 0 0
0 0 0
0 0 0
0 0 0
0 0 0
0 0 0
0 0 0
0 0 0
0.0111543 0 0
0.0251164 0 0
0.0391089 0 0
0.0531472 0 0
0.0672313 0 0
0.0813611 0 0
0.095552 0 0
0.109804 0 0
0.124132 0 0
0.138521 0 0
0.153002 0 0
0.167575 0 0
0.182239 0 0
0.197024 0 0
0.211948 0 0
0.227024 0 0
0 0 0
0 0 0
0 0 0
0 0 0
0 0 0
0 0 0
0 0 0
0 0 0
0 0 0
0 0 0
0 0 0
0 0 0
0 0 0
0 0 0
0 0 0
0 0 0
0 0 0
0 0 0
0 0 0
0 0 0
0 0 0
0 0 0
0 0 0
0 0 0
0 0 0
0 0 0
0 0 0
0 0 0
0 0 0
0 0 0
0 0 0
0 0 0
0 0 0
0 0 0
0 0 0
0 0 0
0 0 0
0 0 0
0 0 0
0 0 0
0 0 0
0 0 0
0 0 0
0 0 0
0 0 0
0 0 0
0 0 0
0.0108797 0 0
0.0249485 0 0
0.0390478 0 0
0.0532082 0 0
0.0674144 0 0
0.0816815 0 0
0.0960098 0 0
0.110399 0 0
0.124865 0 0
0.139422 0 0
0.15407 0 0
0.168826 0 0
0.183703 0 0
0.198734 0 0
0.213901 0 0
0.229282 0 0
0.244892 0 0
0.260792 0 0
0 0 0
0 0 0
0 0 0
0 0 0
0 0 0
0 0 0
0 0 0
0 0 0
0 0 0
0 0 0
0 0 0
0 0 0
0 0 0
0 0 0
0 0 0
0 0 0
0 0 0
0 0 0
0 0 0
0 0 0
0 0 0
0 0 0
0 0 0
0 0 0
0 0 0
0 0 0
0 0 0
0 0 0
0 0 0
0 0 0
0 0 0
0 0 0
0 0 0
0 0 0
0 0 0
0 0 0
0 0 0
0 0 0
0 0 0
0 0 0
0 0 0
0 0 0
0 0 0
0 0 0
0 0 0
0.0105745 0 0
0.0247654 0 0
0.0390021 0 0
0.0532845 0 0
0.067628 0 0
0.0820325 0 0
0.0965133 0 0
0.11107 0 0
0.125704 0 0
0.140444 0 0
0.155291 0 0
0.17026 0 0
0.185367 0 0
0.200656 0 0
0.216159 0 0
0.231907 0 0
0.247974 0 0
0.2645 0 0
0.281727 0 0
0.300481 0 0
0 0 0
0 0 0
0 0 0
0 0 0
0 0 0
0 0 0
0 0 0
0 0 0
0 0 0
0 0 0
0 0 0
0 0 0
0 0 0
0 0 0
0 0 0
0 0 0
0 0 0
0 0 0
0 0 0
0 0 0
0 0 0
0 0 0
0 0 0
0 0 0
0 0 0
0 0 0
0 0 0
0 0 0
0 0 0
0 0 0
0 0 0
0 0 0
0 0 0
0 0 0
0 0 0
0 0 0
0 0 0
0 0 0
0 0 0
0 0 0
0 0 0
0 0 0
0 0 0
0.0102846 0 0
0.0245975 0 0
0.0389715 0 0
0.0534066 0 0
0.0678874 0 0
0.0824445 0 0
0.0970932 0 0
0.111818 0 0
0.126635 0 0
0.141588 0 0
0.156649 0 0
0.171878 0 0
0.187289 0 0
0.202914 0 0
0.218814 0 0
0.23508 0 0
0.25185 0 0
0.269505 0 0
0.297322 0 0
0.374563 0 0
0.446021 0 0
0.516945 0 0
0 0 0
0 0 0
0 0 0
0 0 0
0 0 0
0 0 0
0 0 0
0 0 0
0 0 0
0 0 0
0 0 0
0 0 0
0 0 0
0 0 0
0 0 0
0 0 0
0 0 0
0 0 0
0 0 0
0 0 0
0 0 0
0 0 0
0 0 0
0 0 0
0 0 0
0 0 0
0 0 0
0 0 0
0 0 0
0 0 0
0 0 0
0 0 0
0 0 0
0 0 0
0 0 0
0 0 0
0 0 0
0 0 0
0 0 0
0 0 0
0 0 0
0.0099794 0 0
0.024445 0 0
0.0389563 0 0
0.0535439 0 0
0.0681926 0 0
0.0829175 0 0
0.0977493 0 0
0.112673 0 0
0.127718 0 0
0.142901 0 0
0.158236 0 0
0.17377 0 0
0.189532 0 0
0.2056 0 0
0.22208 0 0
0.239155 0 0
0.257389 0 0
0.306447 0 0
0.376562 0 0
0.444358 0 0
0.5122 0 0
0.580972 0 0
0.651057 0 0
0.722698 0 0
0 0 0
0 0 0
0 0 0
0 0 0
0 0 0
0 0 0
0 0 0
0 0 0
0 0 0
0 0 0
0 0 0
0 0 0
0 0 0
0 0 0
0 0 0
0 0 0
0 0 0
0 0 0
0 0 0
0 0 0
0 0 0
0 0 0
0 0 0
0 0 0
0 0 0
0 0 0
0 0 0
0 0 0
0 0 0
0 0 0
0 0 0
0 0 0
0 0 0
0 0 0
0 0 0
0 0 0
0 0 0
0 0 0
0 0 0
0.00965896 0 0
0.0242771 0 0
0.0389715 0 0
0.0537118 0 0
0.0685588 0 0
0.0834821 0 0
0.0985122 0 0
0.113664 0 0
0.128954 0 0
0.144427 0 0
0.160098 0 0
0.176013 0 0
0.192264 0 0
0.208988 0 0
0.226429 0 0
0.245624 0 0
0.310323 0 0
0.375647 0 0
0.440024 0 0
0.504936 0 0
0.570916 0 0
0.638346 0 0
0.707332 0 0
0.777981 0 0
0.850355 0 0
0.924193 0 0
0 0 0
0 0 0
0 0 0
0 0 0
0 0 0
0 0 0
0 0 0
0 0 0
0 0 0
0 0 0
0 0 0
0 0 0
0 0 0
0 0 0
0 0 0
0 0 0
0 0 0
0 0 0
0 0 0
0 0 0
0 0 0
0 0 0
0 0 0
0 0 0
0 0 0
0 0 0
0 0 0
0 0 0
0 0 0
0 0 0
0 0 0
0 0 0
0 0 0
0 0 0
0 0 0
0 0 0
0 0 0
0.00933852 0 0
0.0241398 0 0
0.0390021 0 0
0.0539406 0 0
0.068986 0 0
0.084123 0 0
0.0993973 0 0
0.114824 0 0
0.130419 0 0
0.146242 0 0
0.162341 0 0
0.17879 0 0
0.195789 0 0
0.213703 0 0
0.245594 0 0
0.310567 0 0
0.371878 0 0
0.433082 0 0
0.495079 0 0
0.558328 0 0
0.623056 0 0
0.689403 0 0
0.757397 0 0
0.8271 0 0
0.898482 0 0
0.971496 0 0
1 0 0
1 0 0
0 0 0
0 0 0
0 0 0
0 0 0
0 0 0
0 0 0
0 0 0
0 0 0
0 0 0
0 0 0
0 0 0
0 0 0
0 0 0
0 0 0
0 0 0
0 0 0
0 0 0
0 0 0
0 0 0
0 0 0
0 0 0
0 0 0
0 0 0
0 0 0
0 0 0
0 0 0
0 0 0
0 0 0
0 0 0
0 0 0
0 0 0
0 0 0
0 0 0
0 0 0
0 0 0
0.00906386 0 0
0.0240024 0 0
0.0390631 0 0
0.0542306 0 0
0.0695048 0 0
0.0849012 0 0
0.100465 0 0
0.116213 0 0
0.132189 0 0
0.14847 0 0
0.165164 0 0
0.182483 0 0
0.201068 0 0
0.248463 0 0
0.307591 0 0
0.365347 0 0
0.423468 0 0
0.482612 0 0
0.543099 0 0
0.605127 0 0
0.668772 0 0
0.734096 0 0
0.801114 0 0
0.869764 0 0
0.940017 0 0
1 0 0
1 0 0
1 0 0
1 0 0
1 0 0
0 0 0
0 0 0
0 0 0
0 0 0
0 0 0
0 0 0
0 0 0
0 0 0
0 0 0
0 0 0
0 0 0
0 0 0
0 0 0
0 0 0
0 0 0
0 0 0
0 0 0
0 0 0
0 0 0
0 0 0
0 0 0
0 0 0
0 0 0
0 0 0
0 0 0
0 0 0
0 0 0
0 0 0
0 0 0
0 0 0
0 0 0
0 0 0
0 0 0
0.00875868 0 0
0.0239414 0 0
0.0392309 0 0
0.0545815 0 0
0.0701305 0 0
0.0858473 0 0
0.101762 0 0
0.117922 0 0
0.134401 0 0
0.151369 0 0
0.1691 0 0
0.188861 0 0
0.246876 0 0
0.30164 0 0
0.356023 0 0
0.411154 0 0
0.46746 0 0
0.52517 0 0
0.584466 0 0
0.645411 0 0
0.707988 0 0
0.772244 0 0
0.838163 0 0
0.905638 0 0
0.974609 0 0
1 0 0
1 0 0
1 0 0
1 0 0
1 0 0
1 0 0
1 0 0
0 0 0
0 0 0
0 0 0
0 0 0
0 0 0
0 0 0
0 0 0
0 0 0
0 0 0
0 0 0
0 0 0
0 0 0
0 0 0
0 0 0
0 0 0
0 0 0
0 0 0
0 0 0
0 0 0
0 0 0
0 0 0
0 0 0
0 0 0
0 0 0
0 0 0
0 0 0
0 0 0
0 0 0
0 0 0
0 0 0
0 0 0
0.0083772 0 0
0.0238651 0 0
0.0394293 0 0
0.0551308 0 0
0.070985 0 0
0.0870222 0 0
0.10338 0 0
0.120119 0 0
0.137392 0 0
0.155642 0 0
0.188708 0 0
0.241749 0 0
0.292699 0 0
0.343908 0 0
0.396063 0 0
0.449516 0 0
0.504448 0 0
0.560983 0 0
0.61915 0 0
0.678981 0 0
0.740459 0 0
0.803571 0 0
0.868223 0 0
0.934371 0 0
1 0 0
1 0 0
1 0 0
1 0 0
1 0 0
1 0 0
1 0 0
1 0 0
1 0 0
1 0 0
0 0 0
0 0 0
0 0 0
0 0 0
0 0 0
0 0 0
0 0 0
0 0 0
0 0 0
0 0 0
0 0 0
0 0 0
0 0 0
0 0 0
0 0 0
0 0 0
0 0 0
0 0 0
0 0 0
0 0 0
0 0 0
0 0 0
0 0 0
0 0 0
0 0 0
0 0 0
0 0 0
0 0 0
0 0 0
0.0077821 0 0
0.023682 0 0
0.0396582 0 0
0.0557565 0 0
0.0720378 0 0
0.0886091 0 0
0.105592 0 0
0.123186 0 0
0.142214 0 0
0.185336 0 0
0.233371 0 0
0.280797 0 0
0.328878 0 0
0.378088 0 0
0.428672 0 0
0.480797 0 0
0.534524 0 0
0.589899 0 0
0.646967 0 0
0.705577 0 0
0.76585 0 0
0.827634 0 0
0.890898 0 0
0.955505 0 0
1 0 0
1 0 0
1 0 0
1 0 0
1 0 0
1 0 0
1 0 0
1 0 0
1 0 0
1 0 0
1 0 0
1 0 0
0 0 0
0 0 0
0 0 0
0 0 0
0 0 0
0 0 0
0 0 0
0 0 0
0 0 0
0 0 0
0 0 0
0 0 0
0 0 0
0 0 0
0 0 0
0 0 0
0 0 0
0 0 0
0 0 0
0 0 0
0 0 0
0 0 0
0 0 0
0 0 0
0 0 0
0 0 0
0 0 0
0.00689708 0 0
0.0232853 0 0
0.0397955 0 0
0.0564736 0 0
0.0734112 0 0
0.0907454 0 0
0.108858 0 0
0.130098 0 0
0.177829 0 0
0.221744 0 0
0.265827 0 0
0.310826 0 0
0.357092 0 0
0.404807 0.00228885 0
0.454078 0.00421149 0
0.504936 0.00547799 0
0.557458 0.00611887 0
0.611627 0.00614939 0
0.66743 0.00561532 0
0.724804 0.00454719 0
0.783703 0.00294499 0
0.844053 0.000885023 0
0.90576 0 0
0.968673 0 0
1 0 0
1 0 0
1 0 0
1 0 0
1 0 0
1 0 0
1 0 0
1 0 0
1 0 0
1 0 0
1 0 0
1 0 0
1 0 0
1 0 0
0 0 0
0 0 0
0 0 0
0 0 0
0 0 0
0 0 0
0 0 0
0 0 0
0 0 0
0 0 0
0 0 0
0 0 0
0 0 0
0 0 0
0 0 0
0 0 0
0 0 0
0 0 0
0 0 0
0 0 0
0 0 0
0 0 0
0 0 0
0 0 0
0 0 0
0.00581369 0 0
0.0227207 0 0
0.0398566 0 0
0.0572976 0 0
0.0752117 0 0
0.0941024 0 0
0.125612 0 0
0.166751 0 0
0.206943 0 0
0.247761 0.00416571 0
0.289601 0.00909438 0
0.332891 0.0132296 0
0.377661 0.0166476 0
0.424018 0.019379 0
0.472007 0.0214847 0
0.52163 0.0229496 0
0.572885 0.0238499 0
0.625772 0.0241703 0
0.680232 0.0239719 0
0.736187 0.0232547 0
0.793606 0.0220798 0
0.852338 0.0204623 0
0.912306 0.0184329 0
0.973404 0.0160525 0
1 0.0133364 0
1 0.0103304 0
1 0.00708019 0
1 0.0037232 0
1 0.000137331 0
1 0 0
