lut/Mathieu-Le-Lay/MLL_Outdoor_SLogLUT.cube
TITLE "Generated by Resolve"
LUT_3D_SIZE 9
0 0 0
0 0 0
0 0 0
0 0 0
0 0 0
0 0 0
0 0 0
0.081117 0 0
0.19556 0 0
0 0 0
0 0 0
0 0 0
0 0 0
0 0 0
0.0849012 0 0
0.248463 0 0
0.734096 0 0
1 0 0
0 0 0
0 0 0
0 0 0
0.135103 0.040116 0
0.428733 0.0860151 0
0.81677 0.0982223 0
1 0.0900435 0
1 0.0753643 0
1 0.0617533 0
0 0.189853 0
0 0.307286 0
0.0479591 0.374914 0
0.383612 0.400198 0
0.755489 0.408316 0
1 0.410056 0
1 0.407599 0
1 0.401358 0
1 0.394049 0
0 0.764446 0
0 0.804196 0
0 0.801083 0
0.366644 0.784573 0
0.76466 0.772107 0
1 0.761975 0
1 0.751461 0
1 0.741741 0
1 0.776562 0
0 1 0
0 1 0
0 1 0
0.321035 1 0
0.731899 1 0
1 1 0
1 1 0.990662
1 1 1
1 1 1
0 1 0
0 1 0
0.553582 1 0.284627
1 1 1
1 1 1
1 1 1
1 1 1
1 1 1
1 1 1
1 1 1
1 1 1
1 1 1
1 1 1
1 1 1
1 1 1
1 1 1
1 1 1
1 1 1
1 1 1
1 1 1
1 1 1
1 1 1
1 1 1
1 1 1
1 1 1
1 1 1
1 1 1
0 0 0
0 0 0
0 0 0
0 0 0
0 0 0
0 0 0
0 0 0
0.103624 0 0
0.220233 0 0
0 0 0
0 0 0
0 0 0
0 0 0
0 0 0
0.111025 0 0
0.379461 0 0
0.87068 0 0
1 0 0
0 0 0
0 0 0
0 0 0
0.183169 0.0611887 0
0.489891 0.0933089 0
0.883635 0.0962692 0
1 0.0838026 0
1 0.0681468 0
1 0.0550546 0
0 0.233371 0
0 0.33875 0
0.0400092 0.392767 0
0.390112 0.407507 0
0.765484 0.409567 0
1 0.408469 0
1 0.403754 0
1 0.395911 0
1 0.388495 0
0 0.782254 0
0 0.8121 0
0 0.803693 0
0.361425 0.784222 0
0.761288 0.768917 0
1 0.757107 0
1 0.745815 0
1 0.740612 0
1 0.810529 0.0300755
0 1 0
0 1 0
0 1 0
0.314809 1 0
0.741527 1 0
1 1 0.366247
1 1 1
1 1 1
1 1 1
0 1 0
0 1 0
0.821469 1 0.770245
1 1 1
1 1 1
1 1 1
1 1 1
1 1 1
1 1 1
1 1 1
1 1 1
1 1 1
1 1 1
1 1 1
1 1 1
1 1 1
1 1 1
1 1 1
1 1 1
1 1 1
1 1 1
1 1 1
1 1 1
1 1 1
1 1 1
1 1 1
1 1 1
0 0 0
0 0 0
0 0 0
0 0 0
0 0 0
0 0 0
0.0122377 0 0
0.125933 0 0
0.245472 0 0
0 0 0
0 0 0
0 0 0
0 0 0
0.0107271 0 0
0.13875 0 0
0.498283 0 0.0805066
1 0 0.13521
1 0 0.16025
0 0 0
0 0 0
0.00856031 0.0151675 0.0203555
0.224689 0.075639 0.0869917
0.543679 0.0944076 0.111955
0.939116 0.0889143 0.11191
1 0.0729076 0.0998245
1 0.0565347 0.085893
1 0.0440833 0.0747845
0 0.270756 0.0969253
0 0.362951 0.109957
0.0273289 0.403174 0.0865797
0.389853 0.408194 0.0486152
0.768093 0.404822 0.0187839
1 0.401099 0
1 0.393988 0
1 0.384924 0
1 0.377569 0
0 0.791791 0.0631723
0 0.813092 0.0392309
0 0.800488 0
0.350072 0.777798 0
0.751659 0.75967 0
1 0.746502 0
1 0.734539 0
1 0.743496 0
1 0.858885 0.514076
0 1 0
0 1 0
0 1 0
0.304387 1 0
0.759609 1 0.135286
0.997726 0.997421 0.795529
1 1 1
1 1 1
1 1 1
0 1 0.00140383
0.0415198 1 0.370596
0.997513 1 0.998123
1 1 1
1 1 1
1 1 1
1 1 1
1 1 1
1 1 1
1 1 1
1 1 1
1 1 1
1 1 1
1 1 1
1 1 1
1 1 1
1 1 1
1 1 1
1 1 1
1 1 1
1 1 1
1 1 1
1 1 1
1 1 1
1 1 1
1 1 1
1 1 1
0 0 0
0 0 0
0 0 0
0 0 0
0 0 0
0 0 0
0.0334173 0 0
0.148867 0 0
0.272831 0 0.0407416
0 0 0
0 0 0
0 0 0
0 0 0
0.0346838 0 0
0.194858 0 0.0854047
0.612604 0 0.249149
1 0 0.376516
1 0 0.469505
0 0 0
0 0 0.0144045
0.033463 0.0426337 0.145861
0.261311 0.0848249 0.276616
0.591455 0.0912947 0.371939
0.985885 0.0790112 0.434028
1 0.0606241 0.467872
1 0.0440375 0.484047
1 0.031754 0.491402
0 0.303243 0.312108
0 0.381857 0.394018
0.0132143 0.409476 0.424689
0.387243 0.406409 0.423941
0.768307 0.398901 0.417746
1 0.392813 0.412451
1 0.383627 0.403891
1 0.373983 0.394598
1 0.366735 0.387381
0 0.797208 0.453208
0 0.811536 0.44947
0 0.795956 0.419745
0.338537 0.770474 0.382681
0.741833 0.750164 0.356802
1 0.73608 0.341344
1 0.723827 0.329473
1 0.760174 0.457343
1 0.926894 0.850767
0 1 0.436912
0 1 0.417182
0 1 0.3776
0.315282 1 0.35967
0.79559 1 0.568292
1 1 0.998383
1 1 1
1 1 1
1 1 1
0 1 0.468009
0.364599 1 0.746899
1 1 1
1 1 1
1 1 1
1 1 1
1 1 1
1 1 1
1 1 1
1 1 1
1 1 1
1 1 1
1 1 1
1 1 1
1 1 1
1 1 1
1 1 1
1 1 1
1 1 1
1 1 1
1 1 1
1 1 1
1 1 1
1 1 1
1 1 1
1 1 1
1 1 1
0 0 0
0 0 0
0 0 0
0 0 0
0 0 0
0 0 0
0.055787 0 0
0.173434 0 0.0353552
0.332067 0 0.135897
0 0 0
0 0 0
0 0 0
0 0 0
0.0607309 0 0.062211
0.301167 0 0.225925
0.725841 0 0.444266
1 0 0.63061
1 0 0.770275
0 0 0.0137942
0 0 0.0935988
0.0524147 0.0640421 0.302541
0.295659 0.0913252 0.491997
0.635996 0.0878004 0.643259
1 0.071046 0.748028
1 0.0516976 0.810346
1 0.0357061 0.844205
1 0.0228275 0.863355
0 0.333532 0.548699
0 0.399405 0.682506
0.00187686 0.416052 0.750607
0.386557 0.406287 0.774792
0.770184 0.395727 0.784131
1 0.387259 0.7906
1 0.37644 0.792096
1 0.366766 0.788479
1 0.359472 0.782605
0 0.803723 0.809491
0 0.812894 0.819059
0 0.794202 0.801328
0.330709 0.765713 0.773724
0.735164 0.743664 0.752026
1 0.728756 0.737301
1 0.721401 0.729732
1 0.795651 0.800916
1 0.998764 0.998825
0 1 0.828122
0 1 0.810956
0 1 0.772534
0.358236 1 0.752972
0.853117 1 0.860304
1 1 1
1 1 1
1 1 1
1 1 1
0 1 0.827359
0.737896 1 0.952682
1 1 1
1 1 1
1 1 1
1 1 1
1 1 1
1 1 1
1 1 1
1 1 1
1 1 1
1 1 1
1 1 1
1 1 1
1 1 1
1 1 1
1 1 1
1 1 1
1 1 1
1 1 1
1 1 1
1 1 1
1 1 1
1 1 1
1 1 1
1 1 1
1 1 1
0 0 0
0 0 0
0 0 0
0 0 0
0 0 0
0 0 0
0.0791028 0 0.0317693
0.199725 0 0.107424
0.505776 0 0.294133
0 0 0
0 0 0
0 0 0
0 0 0.0580758
0.0896315 0 0.136843
0.399344 0 0.396628
0.836713 0 0.670024
1 0 0.904921
1 0 1
0 0 0.0847334
0 0.0179294 0.20528
0.0672007 0.0812848 0.491188
0.327337 0.0954147 0.733791
0.676585 0.0839857 0.927382
1 0.0645151 1
1 0.0451057 1
1 0.0302281 1
1 0.0157931 1
0 0.361105 0.807477
0 0.415106 0.977951
0 0.422492 1
0.387289 0.407462 1
0.773724 0.394461 1
1 0.383825 1
1 0.372 1
1 0.362524 1
1 0.355062 1
0 0.810498 1
0 0.815976 1
0 0.794293 1
0.325994 0.763149 1
0.731212 0.739803 1
1 0.724239 1
1 0.731548 1
1 0.850752 1
1 1 1
0 1 1
0 1 1
0 1 1
0.434699 1 1
0.929915 0.996384 0.996124
1 1 1
1 1 1
1 1 1
1 1 1
0 1 1
0.993606 1 1
1 1 1
1 1 1
1 1 1
1 1 1
1 1 1
1 1 1
1 1 1
1 1 1
1 1 1
1 1 1
1 1 1
1 1 1
1 1 1
1 1 1
1 1 1
1 1 1
1 1 1
1 1 1
1 1 1
1 1 1
1 1 1
1 1 1
1 1 1
1 1 1
1 1 1
0 0 0
0 0 0
0 0 0
0 0 0
0 0 0
0 0 0.0298924
0.103288 0 0.100191
0.228504 0 0.180407
0.668101 0 0.482765
0 0 0
0 0 0
0 0 0.0583963
0 0 0.12752
0.141863 0 0.245243
0.494362 0 0.602945
0.943557 0 0.929702
1 0 1
1 0 1
0 0 0.155734
0 0.0478981 0.382437
0.0781567 0.0946822 0.716106
0.355673 0.0969711 1
0.7122 0.0794995 1
1 0.0585031 1
1 0.0395209 1
1 0.0252232 1
1 0.00914015 1
0 0.385199 1
0 0.42829 1
0 0.427802 1
0.388083 0.408576 1
0.777295 0.393317 1
1 0.380758 1
1 0.368521 1
1 0.359228 1
1 0.351476 1
0 0.816327 1
0 0.819059 1
0 0.794339 1
0.322454 0.760952 1
0.728008 0.73666 1
1 0.720699 1
1 0.755062 1
1 0.923491 1
1 1 1
0 1 1
0 1 1
0 1 1
0.54406 1 1
1 1 1
1 1 1
1 1 1
1 1 1
1 1 1
0.206165 1 1
1 1 1
1 1 1
1 1 1
1 1 1
1 1 1
1 1 1
1 1 1
1 1 1
1 1 1
1 1 1
1 1 1
1 1 1
1 1 1
1 1 1
1 1 1
1 1 1
1 1 1
1 1 1
1 1 1
1 1 1
1 1 1
1 1 1
1 1 1
1 1 1
1 1 1
1 1 1
0 0 0
0 0 0
0 0 0
0 0 0
0 0 0.0291905
0.00956741 0 0.0959487
0.128542 0 0.168475
0.287343 0 0.281788
0.828305 0 0.706706
0 0 0
0 0 0.0598001
0 0 0.125078
0.00895705 0 0.197284
0.225589 0 0.440604
0.586954 0 0.845548
1 0 1
1 0 1
1 0 1
0 0 0.228397
0 0.0718395 0.591134
0.0856031 0.104692 0.97644
0.380529 0.0966354 1
0.743053 0.0747692 1
1 0.0531014 1
1 0.0349279 1
1 0.0202029 1
1 0.00297551 1
0 0.406027 1
0 0.439292 1
0 0.432151 1
0.388937 0.409689 1
0.780697 0.392142 1
1 0.378058 1
1 0.365835 1
1 0.356573 1
1 0.348638 1
0 0.821851 1
0 0.821897 1
0 0.794217 1
0.319753 0.75906 1
0.725307 0.733974 1
1 0.722744 1
1 0.794064 1
1 0.998322 1
1 1 1
0 1 1
0 1 1
0 1 1
0.685893 1 1
1 1 1
1 1 1
1 1 1
1 1 1
1 1 1
0.668971 1 1
1 1 1
1 1 1
1 1 1
1 1 1
1 1 1
1 1 1
1 1 1
1 1 1
1 1 1
1 1 1
1 1 1
1 1 1
1 1 1
1 1 1
1 1 1
1 1 1
1 1 1
1 1 1
1 1 1
1 1 1
1 1 1
1 1 1
1 1 1
1 1 1
1 1 1
1 1 1
0 0 0
0 0 0
0 0 0
0 0 0.0301976
0 0 0.0935073
0.0332494 0 0.16173
0.155245 0 0.237278
0.438972 0 0.496498
0.987289 0 0.966995
0 0 0.059556
0 0 0.124575
0 0 0.191653
0.038468 0 0.268772
0.302159 0 0.665888
0.676661 0 1
1 0 1
1 0 1
1 0 1
0 0.0202487 0.362158
0 0.0914778 0.835462
0.0902419 0.111635 1
0.402106 0.0949111 1
0.769512 0.0700542 1
1 0.0483558 1
1 0.031342 1
1 0.0151217 1
1 0 1
0 0.423774 1
0 0.448417 1
0 0.435767 1
0.389654 0.410605 1
0.783764 0.390845 1
1 0.375769 1
1 0.363775 1
1 0.354345 1
1 0.360861 1
0 0.827085 1
0 0.824353 1
0 0.793881 1
0.317647 0.757397 1
0.722972 0.73167 1
1 0.734554 1
1 0.850095 1
1 1 1
1 1 1
0 1 1
0 1 1
0.0835431 1 1
0.854704 0.999557 1
1 1 1
1 1 1
1 1 1
1 1 1
1 1 1
0.990555 1 1
1 1 1
1 1 1
1 1 1
1 1 1
1 1 1
1 1 1
1 1 1
1 1 1
1 1 1
1 1 1
1 1 1
1 1 1
1 1 1
1 1 1
1 1 1
1 1 1
1 1 1
1 1 1
1 1 1
1 1 1
1 1 1
1 1 1
1 1 1
1 1 1
1 1 1
1 1 1
