lut/Mathieu-Le-Lay/MLL_Wildlife_SLogLUT.cube
TITLE "Generated by Resolve"
LUT_3D_SIZE 5
0 0 0
0.29276 0 0.0538186
0.403418 0 0.0741588
0.374929 0 0.068925
0.281804 0 0.0518044
0 0 0
0 0 0
0 0 0
0.417639 0.0414588 0
1 0.233722 0
0 0.30695 0
0 0.532158 0
0 0.596765 0
1 0.612345 0
1 0.605737 0
0 1 0
0 1 0
0.777752 1 0.165469
1 1 0.99266
1 1 0.992355
0.992844 1 0.992844
0.994842 1 0.992493
0.997238 1 0.99202
0.999084 1 0.991653
1 1 0.991363
0 0.0893568 0.604273
0.269886 0 0.380423
0.392676 0 0.229206
0.37438 0 0.16492
0.260121 0 0.13312
0 0.0311742 0.120073
0 0 0
0.0437018 0 0.0080415
0.630808 0.00637827 0.00448615
1 0.425101 0
0 0.381781 0
0 0.578836 0
0.577707 0.575952 0
1 0.589868 0
1 0.597162 0
0 1 0
0 1 0
0.889708 1 0.737453
1 1 0.994919
1 0.999954 0.994583
0.992721 1 0.995102
0.994705 1 0.994705
0.997086 1 0.994171
0.998932 1 0.99379
1 1 0.993454
0 0 0.665263
0 0 0.665858
0.197894 0 0.52253
0.323919 0 0.329244
0.214603 0 0.202014
0 0.0646525 0.248966
0 0 0.12697
0.121248 0 0.121736
0.820935 0 0.464225
1 0.54255 0.671077
0 0.428931 0.485496
0 0.583398 0.589014
0.5682 0.566064 0.572198
1 0.574701 0.580911
1 0.628458 0.633585
0 1 0.588708
0.17528 1 0.707851
0.998245 1 0.99826
1 1 0.997772
1 0.999741 0.997375
0.992554 1 0.997971
0.994522 1 0.997513
0.996887 1 0.996902
0.998734 1 0.996445
1 1 0.996078
0 0 0.665614
0 0 0.665858
0 0 0.63064
0.259739 0 0.359472
0.175845 0 0.180468
0 0.066453 0.25594
0 0 0.0959029
0.243214 0.00749218 0.416663
0.997803 0 0.994995
1 0.651621 1
0 0.530282 1
0 0.594339 1
0.572137 0.569986 1
1 0.573938 1
1 0.680522 1
0 1 1
0.43386 1 1
0.998077 1 1
1 1 0.999985
1 0.999573 0.999557
0.992432 1 1
0.994385 1 0.999634
0.996735 1 0.999039
0.998581 1 0.998581
1 1 0.998184
0 0 0.665827
0 0 0.665858
0 0 0.633173
0.22031 0 0.318242
0.144152 0 0.143786
0 0.0540475 0.208164
0 0 0.124239
0.35877 0 0.857328
0.984253 0.456611 1
1 0.709194 1
0.280674 0.516457 1
0.816129 0.558846 1
0.918532 0.53518 1
1 0.622721 1
1 0.765652 1
0 1 1
0.734371 1 1
0.99794 1 1
0.999847 0.999847 1
1 0.99942 1
0.99234 1 1
0.994278 1 1
0.996597 1 1
0.998444 1 1
0.999985 1 0.999954
