lut/Mathieu-Le-Lay/MLL_Landscape_SLogLUT.cube
TITLE "Generated by Resolve"
LUT_3D_SIZE 65
0 0 0
0 0 0
0 0 0
0 0 0
0 0 0
0 0 0
0 0 0
0 0 0
0 0 0
0 0 0
0 0 0
0 0 0
0 0 0
0 0 0
0 0 0
0 0 0
0 0 0
0 0 0
0 0 0
0 0 0
0 0 0
0 0 0
0 0 0
0 0 0
0 0 0
0 0 0
0 0 0
0 0 0
0 0 0
0 0 0
0.00340276 0.00108339 0.0010071
0.0158846 0.00320439 0.00280766
0.0270085 0.00488289 0.00421149
0.0375219 0.00630198 0.00537118
0.0477913 0.00755322 0.00636301
0.0578775 0.00865187 0.00723278
0.0678721 0.0096437 0.00798047
0.0778058 0.010544 0.00863661
0.0877089 0.0113527 0.00921645
0.0976425 0.0120851 0.00972
0.107637 0.012726 0.010132
0.117723 0.0133059 0.0104829
0.127962 0.0137942 0.0107576
0.138415 0.0142214 0.0109407
0.148974 0.0145876 0.0110628
0.159716 0.0148928 0.0111391
0.170657 0.0151217 0.0111543
0.181811 0.0153201 0.0110933
0.19321 0.0154421 0.0109865
0.204883 0.0155032 0.0108034
0.216815 0.0155184 0.0105745
0.229053 0.0154726 0.0102693
0.241856 0.0153658 0.0099031
0.254734 0.015198 0.00947585
0.267964 0.0149844 0.00898756
0.281559 0.0146944 0.00843824
0.295521 0.0143587 0.00782788
0.30988 0.013962 0.00715648
0.324666 0.013489 0.00640879
0.339864 0.0129702 0.00560006
0.355505 0.0123903 0.00471504
0.371603 0.0117342 0.00376898
0.388174 0.0110323 0.00274662
0.405234 0.0102541 0.00166323
0.422797 0.00939956 0.000503548
0 0 0
0 0 0
0 0 0
0 0 0
0 0 0
0 0 0
0 0 0
0 0 0
0 0 0
0 0 0
0 0 0
0 0 0
0 0 0
0 0 0
0 0 0
0 0 0
0 0 0
0 0 0
0 0 0
0 0 0
0 0 0
0 0 0
0 0 0
0 0 0
0 0 0
0 0 0
0 0 0
0.00784314 0.00213626 0.00184634
0.018967 0.00430304 0.00355535
0.0294652 0.00604257 0.00488289
0.039704 0.00750744 0.00596628
0.0497902 0.00877394 0.00686656
0.0597086 0.0099031 0.00762951
0.0695048 0.0109102 0.00828565
0.0792706 0.0118105 0.00885023
0.0890516 0.0126345 0.00932326
0.0988174 0.0133974 0.00973526
0.108644 0.0140841 0.0100862
0.118532 0.0147097 0.0103609
0.128527 0.0152743 0.0105898
0.138659 0.0157778 0.0107424
0.148974 0.0162051 0.0108339
0.159503 0.0165866 0.0108492
0.170336 0.0168612 0.0107881
0.181308 0.0171206 0.0106813
0.192508 0.017319 0.0105135
0.203998 0.0174563 0.0102846
0.215763 0.0175326 0.00999466
0.227817 0.0175631 0.0096437
0.240192 0.0175326 0.00921645
0.252888 0.0174411 0.00874342
0.265949 0.0173037 0.00819409
0.279652 0.0170901 0.00756847
0.293446 0.0168307 0.00689708
0.307652 0.0165103 0.00614939
0.322255 0.0161288 0.00534066
0.337301 0.0157015 0.00447089
0.352789 0.015198 0.00350958
0.368719 0.0146334 0.00250248
0.385107 0.014023 0.00140383
0.402014 0.0133364 0.000244144
0.419394 0.0125887 0
0.437263 0.01178 0
0.45568 0.0109102 0
0.474617 0.00996414 0
0 0 0
0 0 0
0 0 0
0 0 0
0 0 0
0 0 0
0 0 0
0 0 0
0 0 0
0 0 0
0 0 0
0 0 0
0 0 0
0 0 0
0 0 0
0 0 0
0 0 0
0 0 0
0 0 0
0 0 0
0 0 0
0 0 0
0 0 0
0 0 0
0.0106508 0.00335698 0.00274662
0.0205844 0.00564584 0.00445563
0.030396 0.00749218 0.00576791
0.0402075 0.00903334 0.00680552
0.0500649 0.0103456 0.00761425
0.0599222 0.0114748 0.00827039
0.0697795 0.0124971 0.00880446
0.0796216 0.0133974 0.00923171
0.0894026 0.0142061 0.00958267
0.0991379 0.0149538 0.00987259
0.108934 0.0156405 0.0101015
0.118776 0.0162814 0.0102693
0.12871 0.0168612 0.0103914
0.13872 0.0174105 0.0104677
0.148882 0.0178988 0.0104982
0.159182 0.0183413 0.0104677
0.16968 0.0187228 0.0103761
0.180423 0.0190585 0.0102235
0.19144 0.0193332 0.0100099
0.202792 0.0195163 0.00970474
0.21442 0.0196689 0.00933852
0.226307 0.0197604 0.00892653
0.238483 0.0198062 0.0084535
0.251026 0.0198062 0.00790417
0.263905 0.0197452 0.00729381
0.27715 0.0196231 0.00662242
0.290776 0.01944 0.00588998
0.304784 0.0192111 0.00508125
0.319524 0.0189212 0.00418097
0.334401 0.0185702 0.00321965
0.349706 0.0181582 0.0021973
0.365469 0.0177005 0.00111391
0.381689 0.0171664 0
0.398398 0.0165866 0
0.415579 0.0159457 0
0.43328 0.0152285 0
0.451499 0.0144656 0
0.470298 0.0136416 0
0.489662 0.0127565 0
0.509651 0.0117952 0
0.530266 0.0107881 0
0 0 0
0 0 0
0 0 0
0 0 0
0 0 0
0 0 0
0 0 0
0 0 0
0 0 0
0 0 0
0 0 0
0 0 0
0 0 0
0 0 0
0 0 0
0 0 0
0 0 0
0 0 0
0 0 0
0 0 0
0.00335698 0.00164797 0.00140383
0.0122835 0.00477607 0.00375372
0.0208591 0.00724804 0.00552377
0.0296025 0.00927749 0.00691234
0.0386816 0.0109865 0.00796521
0.0480812 0.0124056 0.00877394
0.0577554 0.0135958 0.00935378
0.0676127 0.0146181 0.00975052
0.0775769 0.0155032 0.0100404
0.0875868 0.0162814 0.0102235
0.0976425 0.0169985 0.0103456
0.107729 0.0176394 0.0103914
0.117754 0.0182345 0.0104067
0.127764 0.0187839 0.0103761
0.137865 0.0193179 0.0102998
0.148058 0.0198062 0.010193
0.158358 0.020264 0.0100557
0.168795 0.020676 0.00987259
0.179416 0.0210727 0.0096437
0.190219 0.0214084 0.00936904
0.201266 0.0217136 0.00903334
0.212619 0.0219577 0.00862135
0.224292 0.0221408 0.00816358
0.236362 0.0222477 0.00759899
0.248798 0.0223087 0.00697337
0.261494 0.0223239 0.00628672
0.274556 0.0222934 0.00555428
0.287984 0.0222019 0.00474556
0.301823 0.0220645 0.00386053
0.31606 0.0218662 0.00291447
0.330755 0.0216068 0.00189212
0.345876 0.0213016 0.000793469
0.361761 0.0209201 0
0.377829 0.0204929 0
0.394339 0.0200198 0
0.411337 0.0194705 0
0.428855 0.0188754 0
0.446876 0.0182193 0
0.465492 0.0175021 0
0.484688 0.0167391 0
0.504494 0.0158999 0
0.524895 0.0150149 0
0.545937 0.0140841 0
0.56759 0.0130922 0
0.589853 0.0120546 0
0 0 0
0 0 0
0 0 0
0 0 0
0 0 0
0 0 0
0 0 0
0 0 0
0 0 0
0 0 0
0 0 0
0 0 0
0 0 0
0 0 0
0 0 0
0 0 0
0 0 0
0.0055848 0.00317388 0.00251774
0.0128481 0.00640879 0.00486763
0.0202182 0.00906386 0.00671397
0.0278935 0.0113069 0.00816358
0.0359045 0.0132296 0.00932326
0.0442969 0.0148775 0.0102235
0.0531777 0.0162661 0.0108797
0.062562 0.0174105 0.0112764
0.0723888 0.0183719 0.01149
0.082536 0.0191501 0.0115358
0.0928817 0.019791 0.0114595
0.103365 0.0203555 0.0112917
0.113893 0.0208743 0.0110628
0.124453 0.0213474 0.0108034
0.135058 0.0217746 0.0104982
0.145571 0.0222019 0.010193
0.156115 0.0225986 0.00985733
0.166751 0.0229953 0.00949111
0.177478 0.0233616 0.00910964
0.188373 0.0237125 0.00868238
0.19942 0.024033 0.00822461
0.210666 0.0243381 0.00773632
0.222171 0.0245975 0.007187
0.233921 0.0248264 0.0065919
0.246021 0.0249943 0.00593576
0.258488 0.0251164 0.00520333
0.271412 0.0251621 0.00436408
0.284779 0.0251316 0.00344854
0.298436 0.0250858 0.00248722
0.31249 0.024979 0.00144961
0.32697 0.0248264 0.000350958
0.341894 0.0246128 0
0.357275 0.0243534 0
0.373098 0.024033 0
0.38941 0.0236515 0
0.406577 0.023209 0
0.42388 0.0227207 0
0.441718 0.0221866 0
0.460136 0.0215915 0
0.479149 0.0209506 0
0.498741 0.0202487 0
0.517723 0.0194553 0
0.538491 0.0186465 0
0.559884 0.0178073 0
0.581598 0.0169833 0
0.603983 0.016083 0
0.62707 0.0151369 0
0.650736 0.0141604 0
0 0 0
0 0 0
0 0 0
0 0 0
0 0 0
0 0 0
0 0 0
0 0 0
0 0 0
0 0 0
0 0 0
0 0 0
0 0 0
0.000381476 0.000381476 0.000381476
0.00688182 0.00479133 0.00361639
0.0127413 0.00816358 0.0059968
0.0187533 0.0110628 0.00794995
0.0251774 0.0135805 0.00955215
0.032105 0.0157473 0.0108339
0.0395666 0.0176089 0.0118105
0.0475471 0.0192111 0.0125429
0.0559701 0.0205997 0.0130465
0.0648203 0.0218051 0.0133669
0.0742657 0.0227665 0.0134737
0.0842908 0.0235447 0.0133516
0.0948348 0.0241398 0.0130617
0.105745 0.0245823 0.0126345
0.116884 0.0249485 0.0120851
0.128161 0.0252384 0.01149
0.139452 0.0255131 0.0108644
0.150774 0.0257725 0.0102235
0.162127 0.0260319 0.00956741
0.173404 0.0262913 0.00891127
0.184665 0.0265507 0.00825513
0.196033 0.0268254 0.00756847
0.207523 0.0270848 0.00688182
0.218875 0.0273136 0.0061799
0.230335 0.027512 0.00547799
0.242374 0.0277409 0.00469978
0.254658 0.0279393 0.00387579
0.267262 0.0281071 0.00299077
0.280217 0.0282292 0.00204471
0.293584 0.0282902 0.00102235
0.307424 0.0282902 0
0.321859 0.0281834 0
0.336538 0.0280919 0
0.351675 0.0279393 0
0.367269 0.0277256 0
0.383337 0.0274662 0
0.399878 0.0271611 0
0.416907 0.0267948 0
0.434501 0.0263828 0
0.453071 0.0258946 0
0.471824 0.0253758 0
0.491173 0.0248264 0
0.511116 0.0242161 0
0.531655 0.0235447 0
0.552773 0.0228428 0
0.574105 0.0222171 0
0.596338 0.0214542 0
0.619135 0.020676 0
0.642466 0.0198672 0
0.666362 0.0190433 0
0.690822 0.0181888 0
0.715785 0.0173342 0
0 0 0
0 0 0
0 0 0
0 0 0
0 0 0
0 0 0
0 0 0
0 0 0
0 0 0
0 0 0
0.00260929 0.00228885 0.00175479
0.00779736 0.00640879 0.00459297
0.0126497 0.0099031 0.00694286
0.0175479 0.0130007 0.00895705
0.0226596 0.0157931 0.0106966
0.0281224 0.0183108 0.0121767
0.033875 0.0204013 0.0133059
0.0404822 0.0223545 0.0142367
0.047776 0.024033 0.0148928
0.0557412 0.025452 0.0153048
0.0643015 0.0266728 0.0154726
0.0733806 0.0276799 0.0154574
0.082887 0.0285496 0.0153048
0.0930343 0.0292363 0.0149233
0.103853 0.0297093 0.0143435
0.115267 0.0300298 0.0135805
0.127123 0.0302129 0.0126802
0.139254 0.0303044 0.0116884
0.151537 0.0303655 0.0106355
0.163867 0.0304112 0.00958267
0.176181 0.0304723 0.00851453
0.188495 0.0305638 0.00746166
0.200778 0.0306706 0.00642405
0.212955 0.0307927 0.00538643
0.225254 0.0309453 0.00436408
0.237659 0.0311131 0.00331121
0.250217 0.031281 0.00225834
0.262974 0.0314488 0.00117494
0.275959 0.0316167 6.10361e-05
0.289219 0.031754 0
0.3028 0.0318761 0
0.316732 0.0319677 0
0.331106 0.0319982 0
0.345983 0.0319677 0
0.361471 0.0318456 0
0.377447 0.0316625 0
0.393744 0.0314794 0
0.410559 0.0312505 0
0.427924 0.0309758 0
0.445853 0.0306401 0
0.464363 0.0302739 0
0.483452 0.0298619 0
0.503563 0.0293889 0
0.523827 0.0288853 0
0.544472 0.028397 0
0.565713 0.0278782 0
0.58761 0.0272984 0
0.610117 0.026688 0
0.633097 0.0260624 0
0.656672 0.0254215 0
0.680766 0.0247654 0
0.705364 0.0241093 0
0.730449 0.0234531 0
0.755993 0.0228275 0
0.781964 0.0222019 0
0 0 0
0 0 0
0 0 0
0 0 0
0 0 0
0 0 0
0 0 0
0.00386053 0.00386053 0.00270085
0.00822461 0.00790417 0.00527962
0.0123903 0.0114443 0.00747692
0.0165103 0.0146792 0.00944533
0.0207065 0.0176852 0.0111849
0.0250706 0.0204623 0.0127413
0.0296788 0.0230411 0.0141146
0.0346532 0.0254215 0.0152895
0.0401312 0.0275731 0.0162509
0.0462196 0.0295109 0.0169833
0.0530556 0.0311742 0.0174258
0.0607309 0.032578 0.0176089
0.0692149 0.033753 0.0175174
0.0784314 0.0346838 0.0171969
0.0882887 0.0354467 0.0166934
0.0986343 0.0360571 0.016022
0.109483 0.0365454 0.015198
0.121126 0.03682 0.0141604
0.133501 0.0369268 0.0129091
0.146471 0.0368811 0.0115053
0.159838 0.0367437 0.00996414
0.173449 0.0365454 0.0083772
0.187137 0.0363622 0.00675975
0.200824 0.0361944 0.00515755
0.214466 0.0360723 0.00358587
0.228092 0.0360113 0.00201419
0.241566 0.0359808 0.000503548
0.255055 0.035996 0
0.26862 0.0360571 0
0.282307 0.0361334 0
0.296193 0.0362402 0
0.310307 0.0363317 0
0.324666 0.0364385 0
0.33933 0.0365301 0
0.354345 0.0366064 0
0.369787 0.0366522 0
0.385702 0.0366369 0
0.402243 0.0365606 0
0.419471 0.036408 0
0.437201 0.0362249 0
0.455421 0.0360266 0
0.474205 0.0357824 0
0.493553 0.0354925 0
0.513466 0.0351873 0
0.533593 0.0349279 0
0.554604 0.0345617 0
0.576638 0.034165 0
0.598733 0.0337682 0
0.621378 0.033341 0
0.644541 0.0329137 0
0.668223 0.0324865 0
0.692378 0.0320592 0
0.717021 0.031632 0
0.742107 0.0312352 0
0.767544 0.030869 0
0.793454 0.0305333 0
0.819699 0.0302434 0
0.846281 0.0300145 0
0 0 0
0 0 0
0 0 0
0.000640879 0.000671397 0.000610361
0.0047303 0.00564584 0.0037232
0.00836194 0.00967422 0.00616464
0.0119936 0.0132448 0.00825513
0.0157626 0.0164492 0.0100557
0.0195315 0.0195163 0.0117189
0.0233463 0.0224002 0.0132448
0.0272526 0.0251469 0.0146487
0.031342 0.0277409 0.0158999
0.0356756 0.0301976 0.0170291
0.0403601 0.0325017 0.0179904
0.0455024 0.0346227 0.0187686
0.0512398 0.0365606 0.0193484
0.0576944 0.0382696 0.0196841
0.0650034 0.0397345 0.0197452
0.0732891 0.0409247 0.0195163
0.0825208 0.0418555 0.0190127
0.0926223 0.0425727 0.0182345
0.103441 0.0430915 0.017258
0.114855 0.043473 0.0161135
0.126757 0.0437476 0.014847
0.139452 0.0438239 0.0133516
0.153017 0.0437171 0.0116426
0.167269 0.0434577 0.00973526
0.182025 0.0430915 0.00770581
0.197086 0.0426642 0.0055848
0.212284 0.042237 0.00344854
0.227451 0.0418708 0.00132753
0.242542 0.0415503 0
0.257588 0.0413214 0
0.272465 0.0411383 0
0.287266 0.0410315 0
0.302144 0.0409857 0
0.317082 0.0409857 0
0.332204 0.0410163 0
0.347524 0.041062 0
0.363088 0.0411383 0
0.378973 0.0411994 0
0.395254 0.0412757 0
0.411994 0.0413214 0
0.429282 0.0413367 0
0.447181 0.0413062 0
0.465721 0.0411994 0
0.485039 0.0410163 0
0.504494 0.0409094 0
0.524498 0.0407721 0
0.545159 0.040589 0
0.566384 0.0403906 0
0.588144 0.0401617 0
0.610422 0.0399329 0
0.633768 0.0396887 0
0.657069 0.0394446 0
0.680842 0.0392157 0
0.705074 0.0390021 0
0.729717 0.038819 0
0.754772 0.0386664 0
0.780224 0.0385443 0
0.806027 0.0384833 0
0.83212 0.0384833 0
0.858503 0.0385595 0
0.885145 0.0387121 0
0.911955 0.0389563 0
0.00198367 0.00274662 0.0018616
0.00523384 0.00738537 0.00462348
0.00828565 0.0113832 0.00694286
0.0113222 0.0150301 0.00898756
0.0144198 0.0184024 0.0108186
0.0176547 0.021561 0.0124514
0.021149 0.024506 0.0139162
0.0249638 0.0271916 0.0151369
0.0287175 0.0298772 0.0163424
0.0325322 0.0324559 0.0174563
0.0364843 0.0349432 0.0184939
0.0406653 0.0373388 0.0194095
0.0451514 0.0395972 0.0201877
0.0500343 0.0417334 0.0208438
0.0554665 0.0437171 0.0213016
0.0615854 0.0455024 0.021561
0.068513 0.0470741 0.021561
0.0764172 0.0483864 0.0212863
0.0854353 0.0494087 0.020676
0.0955673 0.0501564 0.0197604
0.106676 0.0506752 0.0185702
0.118624 0.0509804 0.0171359
0.131258 0.0511482 0.0155032
0.144381 0.0512245 0.0137636
0.158328 0.0511177 0.0118105
0.17322 0.0508125 0.00961318
0.188952 0.0503395 0.00720226
0.205234 0.0497444 0.00463874
0.221897 0.0491035 0.00198367
0.238758 0.0484474 0
0.255589 0.0478523 0
0.272297 0.0473487 0
0.288899 0.046952 0
0.305333 0.0466316 0
0.321569 0.0464027 0
0.33785 0.0462501 0
0.354162 0.0461738 0
0.370657 0.0461585 0
0.387381 0.0461738 0
0.404379 0.0462348 0
0.421714 0.0463111 0
0.439445 0.0464027 0
0.457588 0.046479 0
0.476265 0.0465553 0
0.495171 0.0466773 0
0.515023 0.0466773 0
0.535607 0.0466011 0
0.556619 0.04654 0
0.578042 0.0464942 0
0.599985 0.0464332 0
0.622431 0.0463874 0
0.645365 0.0463417 0
0.668742 0.0463111 0
0.692576 0.0462959 0
0.717418 0.0462959 0
0.742046 0.0463569 0
0.767056 0.0464485 0
0.792401 0.0466011 0
0.818067 0.0468299 0
0.843992 0.0471199 0
0.870146 0.0475013 0
0.896513 0.0479744 0
0.923018 0.0485695 0
0.949676 0.0492714 0
0.976394 0.0501106 0
0.010544 0.0168154 0.00962844
0.0131685 0.020264 0.0113985
0.0159152 0.0235142 0.0130007
0.0187839 0.0265965 0.0144656
0.0218051 0.0295262 0.0158083
0.0250706 0.0323186 0.0170138
0.0286717 0.0349584 0.0180514
0.0327306 0.0373541 0.0188754
0.0366369 0.0398108 0.0197452
0.0406043 0.0422217 0.0205539
0.0447089 0.0445716 0.0212863
0.0490883 0.0468452 0.0219272
0.0538186 0.049012 0.0224308
0.0590066 0.0510719 0.0228122
0.0648051 0.0529641 0.0229953
0.0713817 0.0546731 0.0229496
0.0788739 0.0561532 0.0226444
0.0874647 0.0573587 0.022034
0.0973068 0.0582742 0.0210574
0.108431 0.0588693 0.0197452
0.120684 0.059205 0.0181125
0.133913 0.0593271 0.0162051
0.147906 0.0592966 0.0141146
0.162463 0.0591745 0.0118563
0.177752 0.0588998 0.00941482
0.194141 0.0584115 0.00669871
0.211475 0.0577249 0.00373846
0.22948 0.0569162 0.00062562
0.247913 0.0560464 0
0.266575 0.0551766 0
0.285206 0.0543679 0
0.303685 0.053666 0
0.321996 0.0530861 0
0.340093 0.0526284 0
0.357961 0.0522927 0
0.375875 0.0520638 0
0.39382 0.0519417 0
0.411902 0.0518959 0
0.430167 0.0519112 0
0.448676 0.0519875 0
0.467338 0.0521401 0
0.486275 0.0523384 0
0.505745 0.0525216 0
0.525643 0.0527199 0
0.54609 0.0528878 0
0.567147 0.0530251 0
0.588907 0.0531167 0
0.611231 0.053193 0
0.633783 0.0533455 0
0.656794 0.0534981 0
0.680247 0.0536812 0
0.704097 0.0538949 0
0.728359 0.0541543 0
0.752911 0.0544594 0
0.778424 0.0548257 0
0.803632 0.0552529 0
0.829114 0.0557717 0
0.85481 0.0563668 0
0.88069 0.0570687 0
0.906706 0.0578927 0
0.932845 0.0588388 0
0.95903 0.0599222 0
0.985183 0.0611582 0
1 0.0625467 0
1 0.0641031 0
0.0164797 0.0286564 0.0148623
0.0190433 0.031693 0.0161593
0.0217746 0.0346227 0.0173648
0.0246738 0.0374304 0.0184482
0.0278019 0.0401465 0.01944
0.0312047 0.0427405 0.0203098
0.03505 0.045182 0.0210269
0.0394751 0.0474098 0.0215457
0.0436408 0.0497444 0.0221103
0.047837 0.0520638 0.0226596
0.0521859 0.0543526 0.0231327
0.0568399 0.0565805 0.0235142
0.0618753 0.0587167 0.0237888
0.0674296 0.0607462 0.0238956
0.0736706 0.0626078 0.0238193
0.080766 0.0642863 0.0234836
0.0888991 0.0657206 0.0228733
0.0982376 0.066865 0.021912
0.108995 0.067689 0.0205692
0.121202 0.0681773 0.0188449
0.134707 0.0683757 0.0167391
0.149325 0.0683299 0.0143587
0.164828 0.068101 0.0117342
0.180972 0.0677806 0.00895705
0.197803 0.0673533 0.00601205
0.215808 0.0666667 0.00274662
0.234897 0.0657816 0
0.254749 0.0647593 0
0.275074 0.0636759 0
0.295674 0.0625772 0
0.316304 0.0615549 0
0.336767 0.0606699 0
0.357031 0.0599527 0
0.377066 0.0593881 0
0.39675 0.0589609 0
0.416449 0.0586862 0
0.436072 0.0585336 0
0.455467 0.0585641 0
0.475212 0.0586252 0
0.495125 0.0587778 0
0.515251 0.0589914 0
0.535653 0.059266 0
0.556344 0.0596017 0
0.577447 0.0599527 0
0.599008 0.0603189 0
0.621118 0.0606699 0
0.643839 0.0610056 0
0.667216 0.0612955 0
0.690684 0.0617075 0
0.714519 0.0621653 0
0.738674 0.0626841 0
0.763149 0.0632639 0
0.787915 0.0639048 0
0.812894 0.0646525 0
0.838727 0.0654917 0
0.864103 0.0664225 0
0.889632 0.0674754 0
0.915267 0.0686656 0
0.940932 0.0699779 0
0.966552 0.0714427 0
0.992081 0.0730602 0
1 0.0748455 0
1 0.0767834 0
1 0.0789044 0
1 0.081178 0
0.0208896 0.0398871 0.018555
0.0235142 0.0427253 0.0195163
0.0263218 0.0454871 0.0203861
0.0293584 0.0481575 0.0211795
0.0326696 0.0507362 0.0218662
0.036286 0.0532387 0.0224613
0.0404669 0.0555886 0.0229038
0.0453193 0.0576944 0.0231479
0.0498207 0.0599832 0.0234684
0.0543069 0.0622873 0.0237583
0.0589761 0.0645609 0.0240024
0.0639506 0.066804 0.0241398
0.0693675 0.0689555 0.024155
0.075349 0.0710002 0.0240177
0.082063 0.0728771 0.0236515
0.0897536 0.0745708 0.0230411
0.0985885 0.0759899 0.0220951
0.108766 0.0771191 0.020798
0.120485 0.0778973 0.0190738
0.133867 0.0782788 0.0168917
0.14873 0.0783551 0.014313
0.164858 0.0781415 0.0113985
0.181994 0.0777447 0.00822461
0.199863 0.0772412 0.00486763
0.218357 0.0766308 0.00135805
0.238132 0.0757763 0
0.259113 0.0747082 0
0.28098 0.0734722 0
0.303456 0.0721904 0
0.326253 0.0708934 0
0.349111 0.069688 0
0.371756 0.0686503 0
0.394125 0.0677958 0
0.416052 0.067155 0
0.4374 0.0667277 0
0.458793 0.0664378 0
0.480034 0.0663157 0
0.501198 0.066331 0
0.522377 0.0664836 0
0.543664 0.066743 0
0.565057 0.0671092 0
0.586587 0.0675669 0
0.608408 0.068101 0
0.630503 0.0686809 0
0.652964 0.0693217 0
0.675883 0.0699779 0
0.699306 0.0706493 0
0.723461 0.0712596 0
0.747494 0.0720531 0
0.77174 0.0729381 0
0.796262 0.0738994 0
0.820996 0.0749523 0
0.845899 0.076112 0
0.870939 0.0773938 0
0.896666 0.0788281 0
0.921813 0.0803845 0
0.946899 0.0820783 0
0.971878 0.0839246 0
0.996643 0.0859236 0
1 0.0880903 0
1 0.0904097 0
1 0.0928969 0
1 0.0955367 0
1 0.0983749 0
1 0.101381 0
0.0239872 0.0510872 0.0208896
0.0267185 0.0538338 0.021561
0.0296941 0.0565194 0.0221714
0.0329137 0.059144 0.0226749
0.0364385 0.0616922 0.0231174
0.0403601 0.0641489 0.0234531
0.0449073 0.0664378 0.0236362
0.0502937 0.0684977 0.0236362
0.0551919 0.0707866 0.0236973
0.0600443 0.0731212 0.023743
0.0650645 0.0754406 0.023743
0.0704051 0.0777447 0.0236362
0.0762341 0.0799573 0.0234073
0.0826886 0.0820478 0.0229953
0.0899519 0.0840009 0.0223545
0.0982834 0.0857252 0.0214237
0.107866 0.0871901 0.0201419
0.118929 0.0883192 0.0184634
0.131701 0.0890669 0.0163272
0.146334 0.0893873 0.0136721
0.162631 0.0893416 0.0105745
0.180377 0.0890059 0.0071107
0.199268 0.0884413 0.00332647
0.218982 0.0877394 0
0.239353 0.0870069 0
0.261082 0.0860151 0
0.284184 0.0847791 0
0.308293 0.0833753 0
0.333074 0.0818952 0
0.358206 0.080415 0
0.383169 0.0790875 0
0.408026 0.0779126 0
0.432456 0.0769665 0
0.456413 0.0762493 0
0.479713 0.0757763 0
0.502831 0.0755016 0
0.525628 0.0754253 0
0.548211 0.0755627 0
0.570718 0.0758679 0
0.593179 0.0763104 0
0.615656 0.0768902 0
0.638132 0.0776226 0
0.660777 0.0784466 0
0.683589 0.0793774 0
0.706661 0.0803845 0
0.730053 0.0814374 0
0.753872 0.082536 0
0.77818 0.08365 0
0.80264 0.0848859 0
0.82707 0.0862745 0
0.851606 0.0878004 0
0.876219 0.0894331 0
0.900816 0.0912184 0
0.925368 0.0931258 0
0.950423 0.0952316 0
