lut/Mathieu-Le-Lay/MLL_Wildlife_SLogLUT.cube
TITLE "Generated by Resolve"
LUT_3D_SIZE 65
0 0 0
0.0934157 0 0.0171664
0.125261 0 0.0230259
0.148043 0 0.0272221
0.166323 0 0.0305791
0.181781 0 0.0334173
0.195254 0 0.0358892
0.207248 0 0.0381018
0.218067 0 0.0400854
0.228031 0 0.0419165
0.23772 0 0.0437018
0.247257 0 0.0454566
0.256641 0 0.0471809
0.265858 0 0.0488746
0.274937 0 0.0505379
0.283894 0 0.0521859
0.29276 0 0.0538186
0.30161 0 0.0554513
0.310567 0 0.0570993
0.31989 0 0.0588083
0.331258 0 0.0608988
0.341756 0 0.0628214
0.349981 0 0.064332
0.357565 0 0.0657359
0.364797 0 0.0670634
0.37171 0 0.0683299
0.378149 0 0.0695201
0.383963 0 0.0705882
0.389059 0 0.071519
0.393576 0 0.0723583
0.397513 0 0.0730755
0.400809 0 0.0736858
0.403418 0 0.0741588
0.40528 0 0.0745098
0.406409 0 0.0747082
0.406851 0 0.0747997
0.406638 0 0.0747539
0.405859 0 0.0746166
0.404623 0 0.0743877
0.402991 0 0.0740826
0.401038 0 0.0737316
0.398733 0 0.0733043
0.396185 0 0.0728313
0.393332 0 0.0723125
0.390188 0 0.0717327
0.38677 0 0.071107
0.383078 0 0.0704204
0.379126 0 0.0697032
0.374929 0 0.068925
0.370474 0 0.068101
0.365805 0 0.0672465
0.360906 0 0.0663462
0.355795 0 0.0654154
0.350484 0 0.0644388
0.344991 0 0.0634165
0.3393 0 0.0623789
0.333455 0 0.0612955
0.327443 0 0.0601968
0.321279 0 0.0590677
0.314977 0 0.057908
0.308537 0 0.0567178
0.302007 0 0.0555123
0.295354 0 0.0542916
0.288624 0 0.0530556
0.281804 0 0.0518044
0 0 0
0 0 0
0.0648203 0 0.0119173
0.107164 0 0.0196994
0.13312 0 0.0244755
0.152956 0 0.0281224
0.169314 0 0.0311284
0.183368 0 0.0337072
0.195727 0 0.0359808
0.206806 0 0.0380102
0.216831 0 0.0398566
0.226047 0 0.0415503
0.234974 0 0.0431983
0.243732 0 0.0448005
0.252354 0 0.0463874
0.260838 0 0.0479438
0.26923 0 0.0495003
0.277592 0 0.0510262
0.28603 0 0.0525826
0.294789 0 0.0542
0.305425 0 0.0561532
0.315236 0 0.0579538
0.322896 0 0.0593576
0.329931 0 0.0606546
0.336614 0 0.0618753
0.342992 0 0.0630503
0.348928 0 0.0641489
0.354269 0 0.0651255
0.358907 0 0.06598
0.362997 0 0.0667277
0.366522 0 0.0673838
0.369451 0 0.0679179
0.371725 0 0.0683299
0.373297 0 0.0686198
0.374182 0 0.0687877
0.374411 0 0.0688334
0.374029 0 0.0687572
0.373114 0 0.0685893
0.371771 0 0.0683452
0.370047 0 0.0680247
0.368017 0 0.0676585
0.365652 0 0.067216
0.363058 0 0.066743
0.360174 0 0.0662089
0.357015 0 0.0656291
0.353597 0 0.0650034
0.34992 0 0.064332
0.346014 0 0.0636149
0.341848 0 0.0628519
0.337484 0 0.0620432
0.332891 0 0.0612039
0.328099 0 0.0603189
0.32311 0 0.0594034
0.317937 0 0.0584421
0.312581 0 0.0574655
0.307073 0 0.0564584
0.301411 0 0.0554055
0.295613 0 0.0543526
0.289693 0 0.053254
0.28365 0 0.0521401
0.277501 0 0.0510109
0.27126 0 0.0498665
0.264942 0 0.0487068
0.258549 0 0.0475319
0.252125 0 0.0463569
0 0 0
0 0 0
0 0 0
0 0 0
0.085832 0 0.0157778
0.117052 0 0.0215152
0.13904 0 0.0255589
0.156542 0 0.0287785
0.171267 0 0.0314794
0.18407 0 0.0338445
0.195422 0 0.0359197
0.205646 0 0.0378119
0.214954 0 0.0395209
0.223499 0 0.0410925
0.231678 0 0.0425879
0.239719 0 0.0440681
0.247654 0 0.0455329
0.255543 0 0.0469825
0.263478 0 0.0484321
0.271702 0 0.0499428
0.281636 0 0.0517739
0.290761 0 0.0534524
0.297887 0 0.0547646
0.304387 0 0.0559548
0.310567 0 0.0570993
0.316442 0 0.0581674
0.321874 0 0.0591745
0.326757 0 0.0600748
0.330953 0 0.0608377
0.334646 0 0.0615244
0.337789 0 0.0621042
0.340368 0 0.0625772
0.342321 0 0.0629282
0.343618 0 0.0631723
0.344259 0 0.0632944
0.344289 0 0.0632944
0.343755 0 0.0632029
0.342733 0 0.0630045
0.341268 0 0.0627451
0.339467 0 0.0624094
0.337377 0 0.0620279
0.334981 0 0.0615854
0.332341 0 0.0610971
0.329442 0 0.0605631
0.326284 0 0.0599832
0.322881 0 0.0593576
0.319249 0 0.0586862
0.315373 0 0.0579843
0.311284 0 0.0572213
0.306996 0 0.0564431
0.30251 0 0.0556191
0.297826 0 0.0547494
0.292973 0 0.0538643
0.287968 0 0.0529335
0.282795 0 0.0519875
0.277485 0 0.0510109
0.272038 0 0.0500038
0.266484 0 0.0489815
0.260807 0 0.0479438
0.255055 0 0.046891
0.24921 0 0.0458076
0.243305 0 0.0447242
0.237354 0 0.0436408
0.231373 0 0.0425269
0.225376 0 0.0414282
0 0 0
0 0 0
0 0 0
0 0 0
0 0 0
0.0566415 0 0.0104067
0.0992447 0 0.0182498
0.124376 0 0.022858
0.143374 0 0.0263523
0.158953 0 0.029221
0.172274 0 0.0316625
0.183948 0 0.033814
0.194385 0 0.0357366
0.20383 0 0.0374762
0.212467 0 0.0390631
0.220447 0 0.040528
0.22797 0 0.0419013
0.235401 0 0.0432746
0.242847 0 0.0446479
0.250553 0 0.046067
0.259815 0 0.0477607
0.268299 0 0.0493172
0.274907 0 0.0505379
0.280919 0 0.0516365
0.28661 0 0.0526894
0.291981 0 0.0536812
0.296956 0 0.0545968
0.301381 0 0.0554055
0.30518 0 0.0561074
0.308476 0 0.0567025
0.311254 0 0.0572213
0.313497 0 0.0576333
0.315145 0 0.0579385
0.316182 0 0.0581216
0.316609 0 0.0582132
0.316472 0 0.0581826
0.315785 0 0.0580606
0.314656 0 0.057847
0.313115 0 0.057557
0.311254 0 0.0572213
0.309102 0 0.0568246
0.306676 0 0.0563821
0.304021 0 0.0558938
0.301122 0 0.0553597
0.297978 0 0.0547799
0.294591 0 0.0541543
0.291005 0 0.0534981
0.287205 0 0.0527962
0.283192 0 0.0520638
0.278996 0 0.0512856
0.274632 0 0.0504921
0.2701 0 0.0496529
0.2654 0 0.0487831
0.260563 0 0.0478981
0.255589 0 0.0469825
0.250492 0 0.0460517
0.245304 0 0.0450904
0.240009 0 0.0441138
0.234623 0 0.0431373
0.229191 0 0.0421302
0.223697 0 0.0411231
0.218097 0 0.0400854
0.212222 0 0.0390173
0.206104 0 0.0378882
0.199725 0 0.0367132
0 0 0
0 0 0
0 0 0
0 0 0
0 0 0
0 0 0
0 0 0
0.078172 0 0.014374
0.108644 0 0.0199741
0.129717 0 0.0238499
0.146365 0 0.0269017
0.160296 0 0.0294652
0.172366 0 0.031693
0.183047 0 0.0336461
0.19266 0 0.0354162
0.201404 0 0.0370184
0.209461 0 0.0384985
0.216968 0 0.0398871
0.224094 0 0.0411994
0.231296 0 0.0425269
0.239902 0 0.0440986
0.247776 0 0.0455482
0.253895 0 0.0466773
0.259434 0 0.0476997
0.264652 0 0.0486458
0.269566 0 0.0495613
0.274083 0 0.0503853
0.278096 0 0.0511177
0.281514 0 0.0517586
0.284428 0 0.0522927
0.28687 0 0.0527352
0.288777 0 0.0530861
0.29015 0 0.0533455
0.290944 0 0.0534829
0.291173 0 0.0535286
0.290867 0 0.0534676
0.290059 0 0.053315
0.288808 0 0.0531014
0.287205 0 0.0527962
0.285283 0 0.0524453
0.283101 0 0.0520485
0.280659 0 0.0515908
0.278004 0 0.0511025
0.275105 0 0.0505684
0.271992 0 0.0500038
0.268666 0 0.0493935
0.265126 0 0.0487373
0.261402 0 0.0480507
0.257511 0 0.0473335
0.253437 0 0.0465858
0.249195 0 0.0458076
0.244816 0 0.0450141
0.240299 0 0.0441749
0.235676 0 0.0433204
0.230915 0 0.0424506
0.226078 0 0.0415656
0.221149 0 0.04065
0.215991 0 0.039704
0.210575 0 0.0387121
0.204898 0 0.0376745
0.198947 0 0.0365759
0.192721 0 0.0354314
0.186206 0 0.034226
0.179431 0 0.03299
0.172427 0 0.031693
0 0 0
0 0 0
0 0 0
0 0 0
0 0 0
0 0 0
0 0 0
0 0 0
0.0483253 0 0.00888075
0.0911879 0 0.0167697
0.115358 0 0.02121
0.133425 0 0.0245212
0.148135 0 0.0272374
0.160678 0 0.0295415
0.171633 0 0.0315557
0.18143 0 0.0333562
0.190311 0 0.0349889
0.198474 0 0.0364843
0.206119 0 0.0378882
0.213535 0 0.0392615
0.221836 0 0.0407874
0.229129 0 0.0421149
0.23476 0 0.0431525
0.239857 0 0.0440986
0.244633 0 0.0449683
0.249104 0 0.0457923
0.253193 0 0.04654
0.256809 0 0.0472114
0.259846 0 0.047776
0.262409 0 0.048249
0.26453 0 0.0486305
0.266148 0 0.0489204
0.267247 0 0.049134
0.267826 0 0.0492409
0.267857 0 0.0492409
0.267399 0 0.0491493
0.266468 0 0.0489815
0.265141 0 0.0487373
0.263478 0 0.0484321
0.261524 0 0.0480812
0.259312 0 0.0476692
0.25687 0 0.0472267
0.254215 0 0.0467384
0.251347 0 0.0462043
0.24828 0 0.0456397
0.245014 0 0.0450446
0.241566 0 0.0444038
0.237949 0 0.0437476
0.234165 0 0.0430457
0.230228 0 0.0423285
0.226154 0 0.0415808
0.221958 0 0.0408026
0.217548 0 0.0399939
0.212879 0 0.0391394
0.207965 0 0.0382239
0.202762 0 0.0372778
0.197299 0 0.0362707
0.191546 0 0.0352178
0.185489 0 0.0341039
0.179126 0 0.032929
0.172473 0 0.0317082
0.16553 0 0.0304265
0.158434 0 0.0291295
0.151507 0 0.0278477
0.14493 0 0.0266423
0 0 0
0 0 0
0 0 0
0 0 0
0 0 0
0 0 0
0 0 0
0 0 0
0 0 0
0 0 0
0.0704356 0 0.0129549
0.0999924 0 0.0183871
0.120027 0 0.0220645
0.135744 0 0.0249485
0.148836 0 0.0273594
0.160143 0 0.0294347
0.170153 0 0.031281
0.179202 0 0.0329442
0.187549 0 0.0344854
0.195514 0 0.0359503
0.204318 0 0.0375677
0.211826 0 0.038941
0.217334 0 0.0399481
0.22211 0 0.0408331
0.226459 0 0.0416266
0.230518 0 0.0423743
0.234211 0 0.043061
0.237446 0 0.0436561
0.240131 0 0.0441444
0.242374 0 0.0445563
0.244175 0 0.044892
0.245518 0 0.0451362
0.246372 0 0.0452888
0.246723 0 0.0453651
0.246586 0 0.0453346
0.245991 0 0.0452277
0.244968 0 0.0450294
0.24358 0 0.04477
0.241856 0 0.0444648
0.239887 0 0.0440986
0.237675 0 0.0436866
0.235233 0 0.0432441
0.232609 0 0.0427558
0.229786 0 0.042237
0.22678 0 0.0416876
0.22359 0 0.0411078
0.220218 0 0.0404822
0.216587 0 0.0398108
0.212726 0 0.0391089
0.208606 0 0.0383459
0.204211 0 0.0375372
0.199542 0 0.0366827
0.194598 0 0.0357824
0.189364 0 0.0348058
0.183825 0 0.0337987
0.177981 0 0.0327153
0.171801 0 0.0315862
0.165301 0 0.0303807
0.158465 0 0.0291295
0.151354 0 0.0278325
0.144259 0 0.0265202
0.137453 0 0.0252689
0.131136 0 0.0241093
0.125505 0 0.0230716
0.120836 0 0.0222171
0 0 0
0 0 0
0 0 0
0 0 0
0 0 0
0 0 0
0 0 0
0 0 0
0 0 0
0 0 0
0 0 0
0.0396887 0 0.00729381
0.0829633 0 0.015259
0.10602 0 0.0194858
0.123049 0 0.0226139
0.136843 0 0.0251621
0.148577 0 0.0273136
0.158877 0 0.0292058
0.16817 0 0.0309148
0.176883 0 0.032517
0.186313 0 0.0342565
0.194263 0 0.0357061
0.200046 0 0.0367742
0.20502 0 0.0376898
0.209445 0 0.0384985
0.213428 0 0.0392309
0.216938 0 0.0398871
0.219898 0 0.0404212
0.222293 0 0.0408637
0.224216 0 0.0412146
0.225742 0 0.0415045
0.22681 0 0.0417029
0.227436 0 0.0418097
0.227604 0 0.0418402
0.227314 0 0.0417945
0.226581 0 0.0416571
0.225483 0 0.0414435
0.224033 0 0.0411841
0.222278 0 0.0408637
0.220264 0 0.0404974
0.218006 0 0.0400702
0.215473 0 0.0396124
0.212726 0 0.0391089
0.20972 0 0.0385595
0.206455 0 0.0379492
0.202914 0 0.0373083
0.199115 0 0.0366064
0.195041 0 0.0358587
0.190677 0 0.03505
0.186023 0 0.0341955
0.181048 0 0.0332799
0.175769 0 0.0323186
0.170138 0 0.031281
0.164187 0 0.0301823
0.157855 0 0.0290227
0.151186 0 0.0277867
0.144152 0 0.0265049
0.136919 0 0.0251774
0.12987 0 0.0238804
0.123278 0 0.0226596
0.117372 0 0.0215763
0.112444 0 0.020676
0.108782 0 0.0200046
0.106691 0 0.0196078
0.106432 0 0.0195621
0 0 0
0 0 0
0 0 0
0 0 0
0 0 0
0 0 0
0 0 0
0 0 0
0 0 0
0 0 0
0 0 0
0 0 0
0 0 0
0.0625925 0 0.0115053
0.0910658 0 0.0167391
0.109957 0 0.0202182
0.124681 0 0.0229191
0.13695 0 0.0251774
0.147646 0 0.0271458
0.157397 0 0.0289311
0.167681 0 0.0308232
0.176211 0 0.0323949
0.182361 0 0.0335241
0.187549 0 0.0344854
0.192157 0 0.0353246
0.196246 0 0.0360723
0.199802 0 0.0367285
0.202762 0 0.0372778
0.205142 0 0.037705
0.206989 0 0.038056
0.208392 0 0.0383154
0.209308 0 0.0384833
0.209766 0 0.0385595
0.209751 0 0.0385595
0.209262 0 0.038468
0.208347 0 0.0383001
0.207034 0 0.038056
0.205341 0 0.0377508
0.203326 0 0.0373846
0.201007 0 0.0369573
0.198413 0 0.0364691
0.195544 0 0.0359503
0.192401 0 0.0353704
0.188983 0 0.0347448
0.18526 0 0.0340581
0.181231 0 0.0333104
0.176898 0 0.032517
0.172244 0 0.0316625
0.167254 0 0.0307469
0.161913 0 0.0297704
0.156191 0 0.0287175
0.150103 0 0.0275883
0.143603 0 0.0263981
0.136706 0 0.0251316
0.129458 0 0.0238041
0.122179 0 0.0224613
0.115282 0 0.0211948
0.109041 0 0.0200504
0.103792 0 0.019089
0.0999161 0 0.0183719
0.0977493 0 0.0179751
0.097612 0 0.0179446
0.0996719 0 0.0183261
0.103883 0 0.0191043
0.110124 0 0.0202487
0 0 0
0 0 0
0 0 0
0 0 0
0 0 0
0 0 0
0 0 0
0 0 0
0 0 0
0 0 0
0 0 0
0 0 0
0 0 0
0 0 0
0.030396 0 0.0055848
0.0745403 0 0.0137026
0.0963455 0 0.0177157
0.112322 0 0.0206455
0.125322 0 0.0230411
0.13666 0 0.0251164
0.14818 0 0.0272374
0.157519 0 0.0289616
0.164126 0 0.0301671
0.16965 0 0.0311894
0.174456 0 0.0320745
0.178698 0 0.0328527
0.182315 0 0.0335241
0.185321 0 0.0340734
0.187655 0 0.0345006
0.189425 0 0.0348211
0.190707 0 0.0350652
0.191485 0 0.0352026
0.191775 0 0.0352483
0.191546 0 0.0352178
0.190829 0 0.0350805
0.189654 0 0.0348669
0.188052 0 0.0345769
0.186053 0 0.0342107
0.183703 0 0.0337682
0.181018 0 0.0332799
0.178027 0 0.0327306
0.174701 0 0.0321202
0.171084 0 0.0314488
0.167132 0 0.0307317
0.162844 0 0.0299382
0.15819 0 0.0290837
0.15317 0 0.0281529
0.147753 0 0.0271611
0.141924 0 0.0260929
0.135653 0 0.0249332
0.128939 0 0.0236973
0.121782 0 0.022385
0.114305 0 0.0210117
0.107088 0 0.0196841
0.100465 0 0.0184634
0.0948501 0 0.0174411
0.0906691 0 0.0166629
0.0884108 0 0.0162509
0.0884413 0 0.0162509
0.0909285 0 0.0167086
0.0957961 0 0.0176089
0.102831 0 0.0189059
0.118959 0 0.00701915
0.138033 0 0
0.174517 0 0
0 0 0
0 0 0
0 0 0
0 0 0
0 0 0
0 0 0
0 0 0
0 0 0
0 0 0
0 0 0
0 0 0
0 0 0
0 0 0
0 0 0
0 0 0
0 0 0
0.0547341 0 0.0100557
0.0819867 0 0.0150759
0.0998093 0 0.0183413
0.113924 0 0.0209506
0.127398 0 0.0234226
0.137911 0 0.0253452
0.14519 0 0.026688
0.151156 0 0.0277867
0.156268 0 0.0287327
0.160693 0 0.0295415
0.164431 0 0.0302281
0.167452 0 0.0307774
0.169772 0 0.0312047
0.171466 0 0.0315251
0.17261 0 0.0317388
0.17322 0 0.0318456
0.173281 0 0.0318608
0.172808 0 0.0317693
0.171817 0 0.0315862
0.170321 0 0.0313115
0.168368 0 0.0309453
0.165988 0 0.030518
0.16321 0 0.0299992
0.160067 0 0.0294194
0.156558 0 0.0287785
0.152682 0 0.0280613
0.148425 0 0.0272831
0.143786 0 0.0264286
0.13872 0 0.0254978
0.133196 0 0.0244907
0.127214 0 0.0233921
0.120729 0 0.0222019
0.113725 0 0.0209049
0.106233 0 0.0195315
0.0986343 0 0.0181277
0.0915694 0 0.0168307
0.0854658 0 0.0157168
0.0809186 0 0.0148775
0.0785229 0 0.014435
0.0787671 0 0.0144808
0.0818341 0 0.0150454
0.0875563 0 0.0160983
0.095552 0 0.0175631
0.114534 0 0
0.134234 0 0
0.186175 0 0
0.24593 0 0
0.304646 0 0
0.364004 0 0
0 0 0
0 0 0
0 0 0
0 0 0
0 0 0
0 0 0
0 0 0
0 0 0
0 0 0
0 0 0
0 0 0
0 0 0
0 0 0
0 0 0
0 0 0
0 0 0
0 0 0
0.0206149 0 0.00378424
0.0664378 0 0.0122072
0.0873121 0 0.0160525
0.104463 0 0.0192111
0.116915 0 0.0214847
0.125216 0 0.0230259
0.131838 0 0.0242313
0.137392 0 0.0252537
0.142092 0 0.0261234
0.145998 0 0.0268406
0.149081 0 0.0274052
0.151369 0 0.0278325
0.152956 0 0.0281224
0.153948 0 0.0283055
0.154345 0 0.0283818
0.154147 0 0.028336
0.153368 0 0.0281987
0.152026 0 0.0279545
0.150134 0 0.0276036
0.147738 0 0.0271611
0.144854 0 0.026627
0.141527 0 0.0260166
0.137758 0 0.02533
0.133562 0 0.0245518
0.128908 0 0.0236973
0.123781 0 0.0227512
0.118151 0 0.0217136
0.111955 0 0.0205844
0.105165 0 0.0193332
0.0977493 0 0.0179751
0.0898451 0 0.0165255
0.0822156 0 0.0151217
0.0755016 0 0.0138857
0.0704204 0 0.0129397
0.0678264 0 0.0124666
0.0683757 0 0.0125734
0.0722515 0 0.0132906
0.0790875 0 0.0145418
0.0884718 0 0.0160525
0.110185 0 0
0.132189 0 0
0.194308 0 0
0.250431 0 0
0.306371 0 0
0.363287 0 0
0.421668 0 0
0.481804 0 0
0.543908 0 0
0 0 0
0 0 0
0 0 0
0 0 0
0 0 0
0 0 0
0 0 0
0 0 0
0 0 0
0 0 0
0 0 0
0 0 0
0 0 0
0 0 0
0 0 0
0 0 0
0 0 0
0 0 0
0 0 0
0.0487984 0 0.0089723
0.0770886 0 0.0141756
0.0934768 0 0.0171817
0.103578 0 0.0190433
0.111284 0 0.0204623
0.117525 0 0.0216068
0.122667 0 0.0225528
0.126802 0 0.0233158
0.129992 0 0.0238956
0.13228 0 0.0243229
0.133761 0 0.0245823
0.134554 0 0.0247349
0.134691 0 0.0247654
0.134157 0 0.0246586
0.132982 0 0.024445
0.131167 0 0.0241093
0.12874 0 0.0236667
0.12575 0 0.0231174
0.122179 0 0.0224613
0.118074 0 0.0217136
0.11342 0 0.0208438
0.108202 0 0.0198978
0.102358 0 0.0188144
0.0958419 0 0.0176242
0.0885939 0 0.0162814
0.0805524 0 0.0148013
0.072221 0 0.0132753
0.0646067 0 0.0118715
0.0587015 0 0.0107881
0.0557412 0 0.0102541
0.0567941 0 0.0104372
0.0619516 0 0.0113832
0.0703593 0 0.0129397
0.0835889 0 0.0118257
0.105974 0 0
0.14461 0 0
0.199588 0 0
0.252522 0 0
0.305821 0.00735485 0
0.360296 0.0135042 0
0.416312 0.0166934 0
0.474128 0.0188754 0
0.533791 0.0203861 0
0.595682 0.0211795 0
0.659602 0.0211032 0
0.725643 0.0196841 0
0 0 0
0 0 0
0 0 0
0 0 0
0 0 0
0 0 0
0 0 0
0 0 0
0 0 0
0 0 0
0 0 0
0 0 0
0 0 0
0 0 0
0 0 0
0 0 0
0 0 0
0 0 0
0 0 0
0 0 0
0.0312657 0 0.00575265
0.0643778 0 0.011841
0.078706 0 0.0144656
0.0885328 0 0.0162814
0.096025 0 0.0176547
0.101915 0 0.0187381
0.106493 0 0.0195773
0.10988 0 0.0202029
0.112169 0 0.0206149
0.113527 0 0.0208743
0.114092 0 0.0209812
0.113863 0 0.0209354
0.112886 0 0.0207523
0.111147 0 0.0204318
0.108675 0 0.0199741
0.105486 0 0.0193942
0.101579 0 0.018677
0.0969711 0 0.0178225
0.0915999 0 0.016846
0.0854353 0 0.0157015
0.0783856 0 0.0144045
0.0702831 0 0.0129244
0.0611429 0 0.0112459
0.0520638 0 0.00956741
0.0445258 0 0.00817884
0.0407568 0 0.00749218
0.0428626 0 0.00787366
0.0503853 0 0.00926223
0.061265 0 0.0112612
0.0787366 0 0.00515755
0.102113 0 0
0.151476 0 0
0.202213 0.00978103 0
0.252232 0.0169223 0
0.302968 0.0209049 0
