lut/Mathieu-Le-Lay/MLL_Landscape_SLogLUT.cube
TITLE "Generated by Resolve"
LUT_3D_SIZE 5
0 0 0
0 0 0
0.0270085 0.00488289 0.00421149
0.19321 0.0154421 0.0109865
0.422797 0.00939956 0.000503548
0.0243229 0.0883955 0.0185702
0.131029 0.128862 0.00399786
0.548867 0.115572 0
0.942473 0.141848 0
1 0.209628 0
0 0.588846 0
0.0513924 0.649409 0
0.651301 0.631525 0
0.987106 0.676448 0
1 0.729458 0
0 1 0
0.192081 1 0
0.699748 0.998825 0
0.966339 0.959701 0.0873274
1 0.956634 0.334005
0.271916 1 0.255207
0.602609 1 0.472496
0.889342 1 0.686259
0.9944 1 0.945647
1 1 1
0 0 0
0 0 0
0.0742046 0.0101015 0.0311589
0.243046 0.0122377 0.0781415
0.496422 0 0.12604
0.0231479 0.100664 0.0972152
0.14229 0.139727 0.135576
0.603204 0.119356 0.11165
0.995789 0.149401 0.143938
1 0.224002 0.221973
0 0.608713 0
0.0764172 0.660182 0.0615702
0.66688 0.645747 0.0688792
1 0.681849 0.123171
1 0.726894 0.182406
0 1 0.162325
0.19176 1 0.184024
0.690425 0.992187 0.200305
0.958206 0.951934 0.345571
1 0.953429 0.536431
0.333867 1 0.486442
0.651194 1 0.648341
0.911681 1 0.818051
1 1 0.998779
1 1 1
0 0 0
0 0 0
0.113497 0.00927749 0.112428
0.290745 0.00106813 0.241611
0.568856 0 0.407813
0.0107424 0.104768 0.309087
0.139895 0.136797 0.484031
0.636378 0.104494 0.609522
1 0.138994 0.723873
1 0.216739 0.800488
0 0.600671 0.585214
0.0773327 0.652949 0.631144
0.662867 0.640818 0.618128
1 0.670222 0.64651
1 0.708293 0.683619
0 1 0.713222
0.17406 1 0.674174
0.680674 0.970184 0.637034
0.943328 0.937453 0.679606
1 0.947265 0.772381
0.387442 1 0.813382
0.698253 1 0.850706
0.939773 1 0.933181
1 1 1
1 1 1
0 0 0
0.0104067 0.00468452 0.0242008
0.153185 0.00848402 0.18024
0.348302 0 0.345998
0.658335 0 0.568002
0.00358587 0.116075 0.451057
0.149172 0.145403 0.714336
0.680903 0.109743 0.899657
1 0.153506 1
1 0.230991 1
0 0.616068 0.869581
0.0941329 0.664073 0.962417
0.671489 0.648692 0.970825
1 0.668498 1
1 0.698528 1
0 1 1
0.187091 1 1
0.682582 0.955032 0.949264
0.934188 0.928756 0.925475
1 0.94548 0.94342
0.448447 1 0.994141
0.748882 1 0.982895
0.97258 1 0.992264
1 1 1
1 1 1
0 0 0
0.033814 0.0130312 0.0910506
0.194614 0.00627146 0.259785
0.412436 0 0.466758
0.755154 0 0.745022
0 0.129824 0.599466
0.163958 0.159442 0.916762
0.726177 0.126024 1
1 0.178592 1
1 0.255406 1
0 0.638697 1
0.121798 0.687266 1
0.692088 0.668589 1
1 0.679484 1
1 0.707607 1
0 1 1
0.229587 1 1
0.702022 0.954299 1
0.937545 0.932631 1
0.999268 0.953063 0.993423
0.518044 1 1
0.808042 1 1
1 1 1
1 1 1
1 1 1
