lut/Sony/S-Gamut_Slog2/To_Cine+709.cube
TITLE 	
LUT_3D_SIZE 9
0.040157 0.038904 0.028316
0.116171 0.025553 0.027355
0.397034 0.000000 0.000000
0.555935 0.000000 0.000000
0.637014 0.000000 0.004813
0.683994 0.000000 0.302509
0.706783 0.000000 0.528304
0.760461 0.000000 0.685932
0.866195 0.094029 0.846279
0.039150 0.056268 0.028479
0.065256 0.061289 0.025960
0.351558 0.001708 0.000000
0.546356 0.000000 0.000000
0.622026 0.000000 0.000000
0.682537 0.000000 0.272368
0.705497 0.000000 0.519677
0.758458 0.000000 0.682183
0.865548 0.089274 0.845313
0.000000 0.249068 0.000000
0.000000 0.247074 0.000000
0.284640 0.319914 0.000000
0.692348 0.331475 0.000000
0.800489 0.209034 0.000000
0.770590 0.000000 0.001146
0.693932 0.000000 0.416097
0.754694 0.000000 0.675141
0.864348 0.080463 0.843522
0.000000 0.374363 0.000000
0.000000 0.374027 0.000000
0.000000 0.371066 0.000000
0.623113 0.621538 0.000000
0.924320 0.645071 0.000000
0.960831 0.495340 0.000000
0.912977 0.344822 0.203707
0.789459 0.000000 0.579747
0.861680 0.060872 0.839540
0.000000 0.436380 0.000000
0.000000 0.436271 0.000000
0.000000 0.436071 0.000000
0.000000 0.487739 0.000000
0.868780 0.771762 0.000000
1.000000 0.789510 0.000000
1.000000 0.712141 0.000000
0.999291 0.651629 0.462736
0.903881 0.309437 0.792184
0.000000 0.465614 0.000000
0.000000 0.465614 0.000000
0.000000 0.465614 0.000000
0.000000 0.465614 0.000000
0.336095 0.650386 0.000000
0.996765 0.830644 0.000000
1.000000 0.843565 0.000000
1.000000 0.857448 0.000000
1.000000 0.868294 0.698229
0.000000 0.465614 0.000000
0.000000 0.465614 0.000000
0.000000 0.465614 0.000000
0.000000 0.465614 0.000000
0.000000 0.465614 0.000000
0.613228 0.745972 0.000000
1.000000 0.853375 0.000000
1.000000 0.861518 0.000000
1.000000 0.953543 0.339936
0.000000 0.465614 0.000000
0.000000 0.465614 0.000000
0.000000 0.465614 0.000000
0.000000 0.465614 0.000000
0.000000 0.465614 0.000000
0.000000 0.465614 0.000000
0.833106 0.805060 0.000000
1.000000 0.859129 0.000000
1.000000 0.862323 0.000000
0.000000 0.465614 0.000000
0.000000 0.465614 0.000000
0.000000 0.465614 0.000000
0.000000 0.465614 0.000000
0.000000 0.465614 0.000000
0.000000 0.465614 0.000000
0.000000 0.465614 0.000000
0.969868 0.835020 0.000000
1.000000 0.862158 0.000000
0.027161 0.039700 0.101250
0.136401 0.014134 0.113423
0.426452 0.000000 0.126075
0.586513 0.000000 0.175031
0.660558 0.000000 0.285296
0.692991 0.000000 0.432256
0.714937 0.000000 0.573202
0.775628 0.000000 0.710765
0.870071 0.123267 0.852064
0.025564 0.060839 0.055495
0.058123 0.060080 0.053145
0.333832 0.000000 0.042846
0.530302 0.000000 0.042927
0.644287 0.000000 0.175801
0.691297 0.000000 0.416126
0.713658 0.000000 0.566926
0.773005 0.000000 0.706745
0.869467 0.118642 0.851163
0.000000 0.228299 0.000000
0.000000 0.221189 0.000000
0.280554 0.266645 0.000000
0.653270 0.235139 0.000000
0.769324 0.127736 0.000000
0.774214 0.000000 0.210694
0.698716 0.000000 0.465200
0.768090 0.000000 0.699212
0.868348 0.110075 0.849493
0.000000 0.375507 0.000000
0.000000 0.375176 0.000000
0.000000 0.371293 0.000000
0.625610 0.615606 0.000000
0.898089 0.560550 0.000000
0.938335 0.458796 0.000000
0.910153 0.345985 0.341201
0.795281 0.000000 0.609000
0.865821 0.091284 0.845721
0.000000 0.436753 0.000000
0.000000 0.436645 0.000000
0.000000 0.436446 0.000000
0.001104 0.493887 0.000000
0.869785 0.772380 0.000000
1.000000 0.767073 0.000000
1.000000 0.722720 0.000000
0.996428 0.651543 0.523979
0.905307 0.313716 0.801541
0.000000 0.465614 0.000000
0.000000 0.465614 0.000000
0.000000 0.465614 0.000000
0.000000 0.465614 0.000000
0.342851 0.652715 0.000000
0.996988 0.830760 0.000000
1.000000 0.843656 0.000000
1.000000 0.871306 0.030240
1.000000 0.869270 0.720932
0.000000 0.465614 0.000000
0.000000 0.465614 0.000000
0.000000 0.465614 0.000000
0.000000 0.465614 0.000000
0.000000 0.465614 0.000000
0.616176 0.746835 0.000000
1.000000 0.853385 0.000000
1.000000 0.861519 0.000000
1.000000 0.959655 0.408009
0.000000 0.465614 0.000000
0.000000 0.465614 0.000000
0.000000 0.465614 0.000000
0.000000 0.465614 0.000000
0.000000 0.465614 0.000000
0.000000 0.465614 0.000000
0.833987 0.805264 0.000000
1.000000 0.859131 0.000000
1.000000 0.862323 0.000000
0.000000 0.465614 0.000000
0.000000 0.465614 0.000000
0.000000 0.465614 0.000000
0.000000 0.465614 0.000000
0.000000 0.465614 0.000000
0.000000 0.465614 0.000000
0.000000 0.465614 0.000000
0.970090 0.835065 0.000000
1.000000 0.862158 0.000000
0.083363 0.000000 0.379205
0.204496 0.000000 0.426213
0.474308 0.000000 0.453545
0.615433 0.000000 0.460638
0.679375 0.000000 0.495907
0.709443 0.000000 0.556425
0.732945 0.000000 0.630679
0.803759 0.000000 0.753270
0.876691 0.173972 0.861946
0.001660 0.070715 0.334311
0.064718 0.041809 0.322589
0.359098 0.000000 0.333484
0.556549 0.000000 0.330127
0.656884 0.000000 0.394037
0.704821 0.000000 0.536769
0.731234 0.000000 0.626241
0.801469 0.000000 0.749874
0.876132 0.169696 0.861113
0.000000 0.239805 0.293416
0.000000 0.238386 0.302589
0.251939 0.262774 0.273045
0.652254 0.224048 0.266265
0.773642 0.100770 0.309467
0.780368 0.000000 0.415109
0.705949 0.000000 0.522713
0.797192 0.000000 0.743530
0.875099 0.161782 0.859570
0.000000 0.377946 0.103397
0.000000 0.378844 0.118210
0.000000 0.367965 0.125881
0.597954 0.546876 0.003020
0.878806 0.518948 0.000000
0.928887 0.457602 0.235923
0.907849 0.346757 0.493602
0.805464 0.000000 0.651991
0.872808 0.144233 0.856150
0.000000 0.433376 0.000000
0.000000 0.431534 0.000000
0.000000 0.428084 0.000000
0.013894 0.490316 0.000000
0.859696 0.725149 0.000000
1.000000 0.738369 0.000000
1.000000 0.740146 0.164135
0.992620 0.650674 0.609523
0.907992 0.322312 0.816896
0.000000 0.465614 0.000000
0.000000 0.465614 0.000000
0.000000 0.465614 0.000000
0.000000 0.465614 0.000000
0.355204 0.656946 0.000000
0.997396 0.830971 0.000000
1.000000 0.814205 0.000000
1.000000 0.888612 0.248421
1.000000 0.870815 0.757944
0.000000 0.465614 0.000000
0.000000 0.465614 0.000000
0.000000 0.465614 0.000000
0.000000 0.465614 0.000000
0.000000 0.465614 0.000000
0.621519 0.748401 0.000000
1.000000 0.853403 0.000000
1.000000 0.858748 0.000000
1.000000 0.968902 0.493551
0.000000 0.465614 0.000000
0.000000 0.465614 0.000000
0.000000 0.465614 0.000000
0.000000 0.465614 0.000000
0.000000 0.465614 0.000000
0.000000 0.465614 0.000000
0.835595 0.805635 0.000000
1.000000 0.859135 0.000000
1.000000 0.862323 0.000000
0.000000 0.465614 0.000000
0.000000 0.465614 0.000000
0.000000 0.465614 0.000000
0.000000 0.465614 0.000000
0.000000 0.465614 0.000000
0.000000 0.465614 0.000000
0.000000 0.465614 0.000000
0.970497 0.835147 0.000000
1.000000 0.862159 0.000000
0.024135 0.000000 0.484416
0.247030 0.000000 0.558647
0.495042 0.000000 0.598231
0.645800 0.000000 0.617162
0.725859 0.000000 0.656384
0.757997 0.000000 0.684650
0.792466 0.000000 0.736520
0.842621 0.003060 0.811098
0.880253 0.201258 0.867264
0.002996 0.066148 0.527102
0.120417 0.009037 0.532302
0.400848 0.000000 0.564965
0.599584 0.000000 0.554458
0.666851 0.000000 0.539207
0.724667 0.000000 0.622485
0.789943 0.000000 0.732706
0.841504 0.002487 0.809431
0.880253 0.201258 0.867264
0.000000 0.265173 0.570619
0.000000 0.257360 0.566136
0.278743 0.281039 0.599596
0.659298 0.230200 0.605089
0.783089 0.097068 0.598076
0.800406 0.000000 0.616497
0.719729 0.000000 0.590950
0.839426 0.001423 0.806331
0.880253 0.201258 0.867264
0.000000 0.439286 0.545268
0.000000 0.438748 0.548270
0.000000 0.413008 0.522693
0.583529 0.573947 0.549043
0.861784 0.522822 0.545210
0.918017 0.454202 0.585594
0.908696 0.350013 0.668644
0.826370 0.031607 0.718444
0.880253 0.201258 0.867264
0.000000 0.505902 0.403277
0.000000 0.506844 0.408645
0.000000 0.508398 0.418310
0.000000 0.588994 0.382831
0.839149 0.795684 0.310646
0.993197 0.778999 0.379195
1.000000 0.749252 0.542754
0.988166 0.648932 0.728584
0.914182 0.344340 0.843984
0.000000 0.454360 0.000000
0.000000 0.458653 0.000000
0.000000 0.466721 0.000000
0.000000 0.481540 0.000000
0.320946 0.679844 0.000000
0.993366 0.855295 0.000000
1.000000 0.892725 0.091267
1.000000 0.908255 0.522890
1.000000 0.871159 0.818192
0.000000 0.465614 0.000000
0.000000 0.465614 0.000000
0.000000 0.465614 0.000000
0.000000 0.465614 0.000000
0.000000 0.465614 0.000000
0.632872 0.751728 0.000000
1.000000 0.853443 0.000000
1.000000 0.910901 0.000000
1.000000 0.983161 0.625223
0.000000 0.465614 0.000000
0.000000 0.465614 0.000000
0.000000 0.465614 0.000000
0.000000 0.465614 0.000000
0.000000 0.465614 0.000000
0.000000 0.465614 0.000000
0.839054 0.806435 0.000000
1.000000 0.859142 0.000000
1.000000 0.862323 0.000000
0.000000 0.465614 0.000000
0.000000 0.465614 0.000000
0.000000 0.465614 0.000000
0.000000 0.465614 0.000000
0.000000 0.465614 0.000000
0.000000 0.465614 0.000000
0.000000 0.465614 0.000000
0.971377 0.835326 0.000000
1.000000 0.862162 0.000000
0.000000 0.000000 0.621599
0.287457 0.000000 0.671556
0.515222 0.000000 0.696620
0.669286 0.000000 0.707149
0.767617 0.000000 0.740243
0.841203 0.004364 0.813362
0.866483 0.096144 0.846709
0.880253 0.201258 0.867264
0.880253 0.201258 0.867264
0.000000 0.207592 0.644881
0.137634 0.172655 0.691279
0.468715 0.103801 0.733775
0.668967 0.009549 0.731583
0.743342 0.000000 0.710171
0.756403 0.000000 0.695676
0.857710 0.031718 0.833614
0.880253 0.201258 0.867264
0.880253 0.201258 0.867264
0.000000 0.310256 0.684296
0.000000 0.289326 0.675352
0.340858 0.325356 0.766145
0.683135 0.275591 0.790724
0.807393 0.172409 0.779396
0.837094 0.045663 0.773039
0.800546 0.000000 0.731338
0.880253 0.201258 0.867264
0.880253 0.201258 0.867264
0.000000 0.452344 0.713575
0.000000 0.451655 0.713979
0.000000 0.469953 0.726523
0.595946 0.571027 0.813412
0.856685 0.518931 0.812934
0.917194 0.458029 0.808741
0.917094 0.372410 0.817294
0.865099 0.145243 0.806527
0.880253 0.201258 0.867264
0.000000 0.550436 0.700194
0.000000 0.550365 0.700985
0.000000 0.550234 0.702427
0.000000 0.668280 0.733079
0.815773 0.813674 0.765737
0.972165 0.783140 0.767909
0.998773 0.747691 0.799949
0.984840 0.646401 0.853333
0.928843 0.403940 0.885675
0.000000 0.594263 0.642728
0.000000 0.594392 0.644005
0.000000 0.594629 0.646330
0.000000 0.595135 0.651309
0.055537 0.807303 0.641777
0.959836 0.938553 0.614578
1.000000 0.935258 0.661675
1.000000 0.921472 0.766472
1.000000 0.867641 0.894284
0.000000 0.545829 0.274335
0.000000 0.547439 0.284183
0.000000 0.550236 0.296274
0.000000 0.556003 0.321193
0.000000 0.567817 0.370365
0.605423 0.858192 0.193660
1.000000 0.951882 0.278182
1.000000 0.979978 0.554425
1.000000 0.996242 0.783461
0.000000 0.465614 0.000000
0.000000 0.465614 0.000000
0.000000 0.465614 0.000000
0.000000 0.465614 0.000000
0.000000 0.465614 0.000000
0.000000 0.465614 0.000000
0.846416 0.808137 0.000000
1.000000 0.859158 0.000000
1.000000 0.976402 0.387636
0.000000 0.465614 0.000000
0.000000 0.465614 0.000000
0.000000 0.465614 0.000000
0.000000 0.465614 0.000000
0.000000 0.465614 0.000000
0.000000 0.465614 0.000000
0.000000 0.465614 0.000000
0.973273 0.835710 0.000000
1.000000 0.862168 0.000000
0.118885 0.366465 0.802239
0.400832 0.370422 0.837967
0.612587 0.347223 0.862278
0.763350 0.272793 0.865982
0.835879 0.149671 0.853179
0.860401 0.084996 0.846782
0.880253 0.201258 0.867264
0.880253 0.201258 0.867264
0.880253 0.201258 0.867264
0.000000 0.393204 0.787201
0.285758 0.418172 0.834070
0.566685 0.414010 0.869425
0.759406 0.374490 0.882944
0.852605 0.305249 0.877588
0.879036 0.207624 0.868076
0.870027 0.078104 0.847658
0.880253 0.201258 0.867264
0.880253 0.201258 0.867264
0.000000 0.395860 0.738080
0.000000 0.466414 0.815008
0.453445 0.495926 0.872719
0.736009 0.468704 0.899240
0.859963 0.411958 0.897600
0.902669 0.375924 0.894126
0.908305 0.307952 0.886020
0.872809 0.144241 0.856152
0.880253 0.201258 0.867264
0.000000 0.494599 0.767232
0.000000 0.494208 0.767161
0.006471 0.584311 0.845079
0.649183 0.631795 0.916830
0.868064 0.587157 0.924827
0.933808 0.540700 0.920093
0.945686 0.493967 0.915631
0.926114 0.389767 0.903303
0.880253 0.201258 0.867264
0.000000 0.567681 0.782533
0.000000 0.567597 0.782581
0.000000 0.567443 0.782669
0.000000 0.730466 0.873343
0.823729 0.812417 0.939997
0.964391 0.779560 0.939824
0.994387 0.751111 0.940060
0.989093 0.676074 0.942574
0.958143 0.534439 0.935700
0.000000 0.613318 0.785482
0.000000 0.613304 0.785606
0.000000 0.613278 0.785833
0.000000 0.613181 0.786336
0.243539 0.861698 0.882305
0.945665 0.953306 0.915736
1.000000 0.942895 0.914488
1.000000 0.921992 0.930515
1.000000 0.868715 0.963241
0.000000 0.640622 0.771722
0.000000 0.640655 0.771969
0.000000 0.640715 0.772421
0.000000 0.640845 0.773398
0.000000 0.641122 0.775489
0.591503 0.946296 0.848294
1.000000 1.000000 0.843209
1.000000 1.000000 0.865144
1.000000 1.000000 0.920608
0.000000 0.598558 0.505420
0.000000 0.599079 0.507995
0.000000 0.600023 0.512664
0.000000 0.602031 0.522592
0.000000 0.605977 0.542679
0.000000 0.613026 0.580653
0.818804 0.959227 0.575179
1.000000 1.000000 0.660455
1.000000 1.000000 0.810435
0.000000 0.465614 0.000000
0.000000 0.465614 0.000000
0.000000 0.465614 0.000000
0.000000 0.465614 0.000000
0.000000 0.465614 0.000000
0.000000 0.465614 0.000000
0.000000 0.465614 0.000000
0.977308 0.836528 0.000000
1.000000 0.862180 0.000000
0.457562 0.557693 0.903565
0.578681 0.561697 0.919523
0.699310 0.558073 0.933446
0.815687 0.539646 0.942318
0.896577 0.508854 0.943971
0.934656 0.495847 0.945075
0.941947 0.453607 0.938158
0.891331 0.245485 0.880052
0.880253 0.201258 0.867264
0.374303 0.585716 0.900741
0.525483 0.594945 0.920626
0.673872 0.595636 0.938578
0.808614 0.580139 0.949980
0.898104 0.550405 0.952551
0.940820 0.535908 0.953087
0.951213 0.498086 0.948465
0.913766 0.335455 0.905899
0.880253 0.201258 0.867264
0.152076 0.614773 0.887240
0.395630 0.639163 0.915759
0.616307 0.652238 0.943211
0.791010 0.644121 0.960325
0.899576 0.616685 0.965327
0.949749 0.596422 0.964382
0.963898 0.567335 0.961109
0.943958 0.459536 0.939755
0.880253 0.201258 0.867264
0.000000 0.553995 0.806176
0.000000 0.654895 0.875105
0.386241 0.720674 0.932251
0.730311 0.739486 0.967803
0.891972 0.717827 0.976727
0.961516 0.692916 0.977380
0.980771 0.667486 0.974836
0.971895 0.594645 0.964402
0.923650 0.375421 0.917229
0.000000 0.583958 0.799844
0.000000 0.583848 0.799812
0.000000 0.577950 0.798106
0.419947 0.818498 0.947331
0.848749 0.851691 0.986748
0.970039 0.831125 0.990986
1.000000 0.812014 0.990649
1.000000 0.765896 0.986738
0.986239 0.668294 0.977515
0.000000 0.624870 0.812084
0.000000 0.624829 0.812079
0.000000 0.624752 0.812070
0.000000 0.624586 0.812051
0.519599 0.907552 0.960456
0.945475 0.952218 0.994038
1.000000 0.944706 0.995786
1.000000 0.928647 0.996507
1.000000 0.891534 0.998490
0.000000 0.657965 0.825556
0.000000 0.657963 0.825566
0.000000 0.657960 0.825585
0.000000 0.657949 0.825622
0.000000 0.657920 0.825700
0.671124 0.970562 0.970802
1.000000 1.000000 0.988255
1.000000 1.000000 0.988904
1.000000 1.000000 0.995114
0.000000 0.659192 0.818943
0.000000 0.659222 0.819016
0.000000 0.659277 0.819151
0.000000 0.659396 0.819443
0.000000 0.659653 0.820072
0.000000 0.660206 0.821388
0.816721 1.000000 0.958581
1.000000 1.000000 0.961699
1.000000 1.000000 0.973852
0.000000 0.627922 0.666522
0.000000 0.628043 0.667252
0.000000 0.628265 0.668584
0.000000 0.628743 0.671451
0.000000 0.629760 0.677555
0.000000 0.631796 0.689966
0.000000 0.635297 0.712670
0.934022 1.000000 0.761601
1.000000 1.000000 0.836484
0.717467 0.727428 0.966701
0.754745 0.726715 0.969995
0.805446 0.723697 0.973906
0.868114 0.714046 0.977736
0.930305 0.697458 0.980348
0.967536 0.687872 0.981671
0.982331 0.667411 0.979625
0.972828 0.597669 0.967258
0.934344 0.419052 0.929328
0.696300 0.743538 0.967039
0.738039 0.743732 0.970983
0.794167 0.741924 0.975581
0.863585 0.733809 0.980123
0.929922 0.717404 0.983027
0.969859 0.707171 0.984627
0.985561 0.687780 0.982991
0.977664 0.622415 0.971801
0.944463 0.461675 0.940299
0.652864 0.768777 0.966617
0.703914 0.770968 0.971909
0.772060 0.771605 0.978047
0.853843 0.765582 0.983704
0.927730 0.750445 0.987263
0.973260 0.739411 0.989190
0.990721 0.721545 0.988354
0.985392 0.663082 0.979070
0.957727 0.522268 0.953432
0.503143 0.799196 0.956419
0.597963 0.809415 0.967069
0.704872 0.817965 0.978434
0.824653 0.820137 0.988613
0.920563 0.808498 0.994158
0.977978 0.797162 0.996845
0.998978 0.781808 0.996843
0.998165 0.734974 0.990755
0.978510 0.626743 0.972596
0.000000 0.713185 0.873156
0.000000 0.778604 0.910686
0.381845 0.841333 0.952835
0.711265 0.883702 0.986816
0.890260 0.889647 1.000000
0.979601 0.880806 1.000000
1.000000 0.870673 1.000000
1.000000 0.840529 1.000000
1.000000 0.773215 0.996324
0.000000 0.626939 0.814720
0.000000 0.626898 0.814702
0.000000 0.626824 0.814670
0.000000 0.708365 0.858401
0.732955 0.946131 0.995083
0.958263 0.960921 1.000000
1.000000 0.958203 1.000000
1.000000 0.946890 1.000000
1.000000 0.920179 1.000000
0.000000 0.660389 0.831963
0.000000 0.660374 0.831955
0.000000 0.660347 0.831941
0.000000 0.660288 0.831910
0.000000 0.660160 0.831842
0.786945 0.991502 1.000000
1.000000 1.000000 1.000000
1.000000 1.000000 1.000000
1.000000 1.000000 1.000000
0.000000 0.676321 0.840441
0.000000 0.676321 0.840441
0.000000 0.676321 0.840441
0.000000 0.676321 0.840441
0.000000 0.676321 0.840441
0.000000 0.676321 0.840441
0.859318 1.000000 1.000000
1.000000 1.000000 1.000000
1.000000 1.000000 1.000000
0.000000 0.671170 0.834702
0.000000 0.671179 0.834713
0.000000 0.671197 0.834734
0.000000 0.671236 0.834777
0.000000 0.671319 0.834872
0.000000 0.671499 0.835077
0.000000 0.671883 0.835516
0.935811 1.000000 1.000000
1.000000 1.000000 1.000000
0.878241 0.876939 0.998872
0.888657 0.876239 0.999536
0.905351 0.874989 1.000000
0.932928 0.872447 1.000000
0.967545 0.868851 1.000000
0.994522 0.864250 1.000000
1.000000 0.854494 1.000000
1.000000 0.825599 1.000000
1.000000 0.767769 0.995585
0.873508 0.883283 0.999190
0.884189 0.882599 0.999870
0.901935 0.881397 1.000000
0.930638 0.878904 1.000000
0.966631 0.875230 1.000000
0.994924 0.871331 1.000000
1.000000 0.861608 1.000000
1.000000 0.834106 1.000000
1.000000 0.778840 0.997080
0.863856 0.894280 0.999635
0.875764 0.893752 1.000000
0.894565 0.892608 1.000000
0.925683 0.890256 1.000000
0.964894 0.886467 1.000000
0.995436 0.882828 1.000000
1.000000 0.874108 1.000000
1.000000 0.848967 1.000000
1.000000 0.797942 0.999645
0.837574 0.911122 0.999432
0.852735 0.911348 1.000000
0.876477 0.911389 1.000000
0.913205 0.910240 1.000000
0.960557 0.907794 1.000000
0.995839 0.904567 1.000000
1.000000 0.897362 1.000000
1.000000 0.875928 1.000000
1.000000 0.833653 1.000000
0.749613 0.930731 0.994892
0.779177 0.933869 0.997489
0.820177 0.937224 1.000000
0.878133 0.940039 1.000000
0.943549 0.939665 1.000000
0.994425 0.938112 1.000000
1.000000 0.933692 1.000000
1.000000 0.919881 1.000000
1.000000 0.891032 1.000000
0.002860 0.845210 0.927642
0.204804 0.880310 0.947597
0.490358 0.920664 0.971795
0.718055 0.957738 0.995076
0.882990 0.975595 1.000000
0.980619 0.978971 1.000000
1.000000 0.977608 1.000000
1.000000 0.970913 1.000000
1.000000 0.956176 1.000000
0.000000 0.661064 0.832318
0.000000 0.661054 0.832313
0.000000 0.661037 0.832304
0.000000 0.660999 0.832284
0.000000 0.859558 0.930398
0.895032 1.000000 1.000000
1.000000 1.000000 1.000000
1.000000 1.000000 1.000000
1.000000 1.000000 1.000000
0.000000 0.676321 0.840441
0.000000 0.676321 0.840441
0.000000 0.676321 0.840441
0.000000 0.676321 0.840441
0.000000 0.676321 0.840441
0.000000 0.676321 0.840441
0.919996 1.000000 1.000000
1.000000 1.000000 1.000000
1.000000 1.000000 1.000000
0.000000 0.676321 0.840441
0.000000 0.676321 0.840441
0.000000 0.676321 0.840441
0.000000 0.676321 0.840441
0.000000 0.676321 0.840441
0.000000 0.676321 0.840441
0.000000 0.676321 0.840441
0.961464 1.000000 1.000000
1.000000 1.000000 1.000000
