lut/Sony/S-Gamut_Slog2/To_Cine+709.cube
TITLE 	
LUT_3D_SIZE 65
0.040157 0.038904 0.028316
0.040157 0.038904 0.028316
0.040157 0.038904 0.028316
0.042395 0.038913 0.028316
0.047741 0.039257 0.028314
0.054265 0.039257 0.028151
0.064965 0.039026 0.027862
0.082503 0.036239 0.027622
0.116171 0.025553 0.027355
0.152630 0.012700 0.026409
0.186797 0.003365 0.024277
0.222370 0.000065 0.019980
0.263190 0.000000 0.012187
0.302572 0.000000 0.005632
0.338070 0.000000 0.001533
0.369218 0.000000 0.000000
0.397034 0.000000 0.000000
0.424202 0.000000 0.000000
0.450770 0.000000 0.000000
0.474470 0.000000 0.000000
0.495409 0.000000 0.000000
0.512935 0.000000 0.000000
0.528110 0.000000 0.000000
0.542410 0.000000 0.000000
0.555935 0.000000 0.000000
0.568936 0.000000 0.000000
0.581077 0.000000 0.000000
0.591928 0.000000 0.000000
0.602416 0.000000 0.000000
0.611873 0.000000 0.000000
0.621108 0.000000 0.000000
0.628741 0.000000 0.000000
0.637014 0.000000 0.004813
0.646038 0.000000 0.025489
0.654447 0.000000 0.058558
0.660684 0.000000 0.103220
0.666329 0.000000 0.149090
0.671613 0.000000 0.190851
0.676317 0.000000 0.229444
0.680367 0.000000 0.266337
0.683994 0.000000 0.302509
0.687612 0.000000 0.336750
0.690176 0.000000 0.368337
0.692331 0.000000 0.397965
0.694820 0.000000 0.426166
0.697553 0.000000 0.453712
0.700430 0.000000 0.480277
0.703470 0.000000 0.505655
0.706783 0.000000 0.528304
0.710340 0.000000 0.549732
0.714226 0.000000 0.569865
0.719065 0.000000 0.588489
0.724471 0.000000 0.606789
0.730792 0.000000 0.624970
0.739408 0.000000 0.644501
0.749088 0.000000 0.664650
0.760461 0.000000 0.685932
0.774749 0.000000 0.709419
0.791067 0.000000 0.734429
0.807743 0.000000 0.759180
0.822685 0.000067 0.781375
0.835303 0.000260 0.800183
0.847056 0.005332 0.817716
0.857610 0.030977 0.833463
0.866195 0.094029 0.846279
0.040157 0.038904 0.028316
0.040157 0.038904 0.028316
0.040157 0.038904 0.028316
0.040157 0.038904 0.028316
0.045568 0.039240 0.028316
0.051438 0.039257 0.028250
0.060172 0.039188 0.027962
0.076060 0.037472 0.027698
0.105679 0.029040 0.027475
0.142904 0.015877 0.026793
0.178143 0.005081 0.025026
0.214550 0.000790 0.020924
0.254994 0.000000 0.013762
0.295369 0.000000 0.006770
0.332681 0.000000 0.001808
0.364620 0.000000 0.000175
0.393238 0.000000 0.000000
0.420811 0.000000 0.000000
0.447793 0.000000 0.000000
0.471975 0.000000 0.000000
0.493695 0.000000 0.000000
0.511402 0.000000 0.000000
0.526948 0.000000 0.000000
0.541413 0.000000 0.000000
0.555037 0.000000 0.000000
0.568192 0.000000 0.000000
0.580405 0.000000 0.000000
0.591147 0.000000 0.000000
0.601639 0.000000 0.000000
0.611182 0.000000 0.000000
0.620476 0.000000 0.000000
0.628022 0.000000 0.000000
0.636257 0.000000 0.003642
0.645079 0.000000 0.021181
0.653656 0.000000 0.052734
0.660148 0.000000 0.096183
0.665913 0.000000 0.142573
0.671257 0.000000 0.185630
0.676045 0.000000 0.225027
0.680169 0.000000 0.262398
0.683825 0.000000 0.299028
0.687453 0.000000 0.333757
0.690009 0.000000 0.365859
0.692145 0.000000 0.395849
0.694653 0.000000 0.424277
0.697384 0.000000 0.452038
0.700259 0.000000 0.478855
0.703317 0.000000 0.504380
0.706631 0.000000 0.527281
0.710178 0.000000 0.548890
0.714079 0.000000 0.569107
0.718894 0.000000 0.587859
0.724274 0.000000 0.606221
0.730614 0.000000 0.624458
0.739169 0.000000 0.643989
0.748822 0.000000 0.664153
0.760221 0.000000 0.685484
0.774436 0.000000 0.708938
0.790783 0.000000 0.733994
0.807480 0.000000 0.758790
0.822515 0.000064 0.781122
0.835150 0.000257 0.799955
0.846929 0.005267 0.817525
0.857524 0.030346 0.833335
0.866117 0.093457 0.846163
0.040157 0.038904 0.028316
0.040157 0.038904 0.028316
0.040157 0.038904 0.028316
0.040157 0.038904 0.028316
0.043726 0.039074 0.028316
0.049166 0.039257 0.028300
0.056644 0.039232 0.028074
0.069032 0.038817 0.027781
0.095120 0.032378 0.027539
0.132725 0.019561 0.027007
0.169645 0.007619 0.025487
0.206428 0.001544 0.021905
0.246529 0.000000 0.015388
0.287964 0.000000 0.007940
0.327161 0.000000 0.002091
0.359829 0.000000 0.000420
0.389372 0.000000 0.000000
0.417366 0.000000 0.000000
0.444757 0.000000 0.000000
0.469468 0.000000 0.000000
0.491963 0.000000 0.000000
0.509855 0.000000 0.000000
0.525777 0.000000 0.000000
0.540362 0.000000 0.000000
0.554134 0.000000 0.000000
0.567445 0.000000 0.000000
0.579729 0.000000 0.000000
0.590670 0.000000 0.000000
0.600835 0.000000 0.000000
0.610535 0.000000 0.000000
0.619818 0.000000 0.000000
0.627303 0.000000 0.000000
0.635477 0.000000 0.002409
0.644091 0.000000 0.016749
0.652845 0.000000 0.046766
0.659601 0.000000 0.088991
0.665490 0.000000 0.135929
0.670897 0.000000 0.180322
0.675769 0.000000 0.220544
0.679969 0.000000 0.258407
0.683654 0.000000 0.295506
0.687292 0.000000 0.330734
0.689840 0.000000 0.363358
0.691956 0.000000 0.393715
0.694485 0.000000 0.422374
0.697213 0.000000 0.450353
0.700088 0.000000 0.477425
0.703163 0.000000 0.503099
0.706477 0.000000 0.526254
0.710015 0.000000 0.548044
0.713933 0.000000 0.568346
0.718724 0.000000 0.587227
0.724075 0.000000 0.605651
0.730435 0.000000 0.623944
0.738929 0.000000 0.643477
0.748556 0.000000 0.663655
0.759981 0.000000 0.685034
0.774121 0.000000 0.708456
0.790499 0.000000 0.733559
0.807216 0.000000 0.758399
0.822346 0.000062 0.780870
0.834997 0.000255 0.799726
0.846801 0.005201 0.817334
0.857438 0.029714 0.833206
0.866039 0.092885 0.846047
0.040157 0.038904 0.028316
0.040157 0.038904 0.028316
0.040157 0.038904 0.028316
0.040157 0.038904 0.028316
0.040811 0.038904 0.028316
0.046380 0.039247 0.028316
0.052509 0.039257 0.028213
0.062852 0.039097 0.027906
0.080895 0.036547 0.027641
0.115833 0.025675 0.027363
0.154862 0.012033 0.026288
0.191681 0.002912 0.023687
0.230605 0.000000 0.018447
0.273667 0.000000 0.010199
0.315172 0.000000 0.003642
0.350485 0.000000 0.000898
0.382032 0.000000 0.000000
0.411202 0.000000 0.000000
0.439891 0.000000 0.000000
0.466246 0.000000 0.000000
0.490212 0.000000 0.000000
0.508293 0.000000 0.000000
0.524596 0.000000 0.000000
0.539303 0.000000 0.000000
0.553224 0.000000 0.000000
0.566692 0.000000 0.000000
0.579050 0.000000 0.000000
0.590190 0.000000 0.000000
0.599992 0.000000 0.000000
0.609871 0.000000 0.000000
0.619187 0.000000 0.000000
0.626583 0.000000 0.000000
0.634670 0.000000 0.001111
0.643075 0.000000 0.012185
0.652014 0.000000 0.040645
0.659042 0.000000 0.081635
0.665060 0.000000 0.129155
0.670530 0.000000 0.174922
0.675489 0.000000 0.215995
0.679750 0.000000 0.254380
0.683482 0.000000 0.291943
0.687130 0.000000 0.327679
0.689670 0.000000 0.360834
0.691766 0.000000 0.391564
0.694316 0.000000 0.420457
0.697041 0.000000 0.448656
0.699916 0.000000 0.475987
0.703009 0.000000 0.501810
0.706323 0.000000 0.525221
0.709851 0.000000 0.547195
0.713785 0.000000 0.567583
0.718552 0.000000 0.586592
0.723877 0.000000 0.605079
0.730256 0.000000 0.623429
0.738689 0.000000 0.642963
0.748289 0.000000 0.663156
0.759740 0.000000 0.684583
0.773807 0.000000 0.707974
0.790215 0.000000 0.733122
0.806952 0.000000 0.758007
0.822176 0.000059 0.780617
0.834844 0.000253 0.799498
0.846673 0.005136 0.817143
0.857351 0.029082 0.833078
0.865961 0.092312 0.845930
0.040157 0.038926 0.028316
0.040157 0.038904 0.028316
0.040157 0.038904 0.028316
0.040157 0.038904 0.028316
0.040157 0.038904 0.028316
0.043688 0.039069 0.028316
0.049176 0.039257 0.028300
0.057365 0.039223 0.028051
0.070813 0.038476 0.027760
0.098463 0.031321 0.027519
0.136787 0.018091 0.026921
0.173942 0.006336 0.025254
0.211640 0.001060 0.021276
0.253422 0.000000 0.014064
0.295606 0.000000 0.006733
0.334365 0.000000 0.001722
0.367719 0.000000 0.000017
0.397381 0.000000 0.000000
0.426324 0.000000 0.000000
0.454236 0.000000 0.000000
0.479391 0.000000 0.000000
0.500381 0.000000 0.000000
0.518815 0.000000 0.000000
0.534489 0.000000 0.000000
0.549617 0.000000 0.000000
0.564321 0.000000 0.000000
0.577786 0.000000 0.000000
0.589709 0.000000 0.000000
0.599197 0.000000 0.000000
0.609178 0.000000 0.000000
0.618547 0.000000 0.000000
0.626057 0.000000 0.000000
0.633852 0.000000 0.000000
0.642028 0.000000 0.007479
0.651161 0.000000 0.034365
0.658472 0.000000 0.074109
0.664622 0.000000 0.122243
0.670158 0.000000 0.169428
0.675205 0.000000 0.211376
0.679506 0.000000 0.250325
0.683308 0.000000 0.288337
0.686966 0.000000 0.324592
0.689498 0.000000 0.358286
0.691594 0.000000 0.389351
0.694146 0.000000 0.418527
0.696868 0.000000 0.446949
0.699743 0.000000 0.474540
0.702854 0.000000 0.500515
0.706169 0.000000 0.524184
0.709686 0.000000 0.546342
0.713637 0.000000 0.566816
0.718381 0.000000 0.585956
0.723677 0.000000 0.604506
0.730077 0.000000 0.622912
0.738448 0.000000 0.642447
0.748022 0.000000 0.662656
0.759499 0.000000 0.684131
0.773491 0.000000 0.707490
0.789930 0.000000 0.732686
0.806688 0.000000 0.757615
0.822007 0.000057 0.780364
0.834690 0.000250 0.799269
0.846545 0.005070 0.816952
0.857265 0.028449 0.832949
0.865883 0.091739 0.845814
0.040157 0.042741 0.028324
0.040157 0.042649 0.028323
0.040157 0.042556 0.028322
0.040157 0.042460 0.028321
0.040157 0.041929 0.028316
0.041239 0.041652 0.028252
0.049893 0.042704 0.027892
0.055294 0.041696 0.027774
0.064874 0.040025 0.027707
0.082230 0.036292 0.027625
0.118355 0.024762 0.027309
0.157022 0.011388 0.026171
0.193829 0.002713 0.023427
0.232963 0.000000 0.017994
0.275867 0.000000 0.009851
0.317223 0.000000 0.003318
0.352171 0.000000 0.000812
0.383541 0.000000 0.000000
0.412712 0.000000 0.000000
0.441404 0.000000 0.000000
0.467644 0.000000 0.000000
0.491473 0.000000 0.000000
0.510423 0.000000 0.000000
0.527221 0.000000 0.000000
0.542780 0.000000 0.000000
0.557576 0.000000 0.000000
0.571670 0.000000 0.000000
0.585116 0.000000 0.000000
0.595859 0.000000 0.000000
0.606531 0.000000 0.000000
0.617161 0.000000 0.000000
0.625513 0.000000 0.000000
0.633155 0.000000 0.000000
0.641062 0.000000 0.003853
0.650284 0.000000 0.027915
0.657889 0.000000 0.066405
0.664176 0.000000 0.115190
0.669779 0.000000 0.163836
0.674901 0.000000 0.206572
0.679259 0.000000 0.246214
0.683131 0.000000 0.284689
0.686801 0.000000 0.321472
0.689324 0.000000 0.355715
0.691440 0.000000 0.387069
0.693974 0.000000 0.416582
0.696694 0.000000 0.445231
0.699568 0.000000 0.473084
0.702698 0.000000 0.499213
0.706013 0.000000 0.523142
0.709521 0.000000 0.545485
0.713489 0.000000 0.566047
0.718208 0.000000 0.585317
0.723477 0.000000 0.603930
0.729897 0.000000 0.622394
0.738206 0.000000 0.641931
0.747754 0.000000 0.662154
0.759257 0.000000 0.683679
0.773175 0.000000 0.707006
0.789644 0.000000 0.732248
0.806423 0.000000 0.757222
0.821837 0.000054 0.780111
0.834536 0.000248 0.799039
0.846416 0.005004 0.816761
0.857179 0.027815 0.832820
0.865805 0.091165 0.845697
0.040150 0.046283 0.028534
0.040151 0.046190 0.028529
0.040152 0.046097 0.028523
0.040153 0.046002 0.028517
0.040156 0.045671 0.028496
0.040157 0.045110 0.028454
0.049184 0.047349 0.027675
0.058466 0.048588 0.026931
0.067170 0.047884 0.026627
0.082973 0.046745 0.025860
0.113193 0.040721 0.024126
0.152305 0.029315 0.013645
0.188417 0.014594 0.004394
0.224491 0.003532 0.000943
0.264514 0.000285 0.000243
0.303750 0.000000 0.000729
0.338428 0.000000 0.001125
0.369557 0.000000 0.000000
0.399124 0.000000 0.000000
0.428056 0.000000 0.000000
0.455801 0.000000 0.000000
0.480970 0.000000 0.000000
0.501611 0.000000 0.000000
0.519901 0.000000 0.000000
0.535636 0.000000 0.000000
0.550784 0.000000 0.000000
0.565514 0.000000 0.000000
0.579027 0.000000 0.000000
0.591157 0.000000 0.000000
0.601677 0.000000 0.000000
0.612213 0.000000 0.000000
0.622202 0.000000 0.000000
0.630536 0.000000 0.000000
0.639663 0.000000 0.002612
0.649390 0.000000 0.022711
0.657254 0.000000 0.058962
0.663709 0.000000 0.108022
0.669388 0.000000 0.157785
0.674580 0.000000 0.201596
0.679007 0.000000 0.242022
0.682952 0.000000 0.280974
0.686633 0.000000 0.318300
0.689148 0.000000 0.353104
0.691284 0.000000 0.384755
0.693800 0.000000 0.414611
0.696518 0.000000 0.443490
0.699392 0.000000 0.471612
0.702540 0.000000 0.497897
0.705856 0.000000 0.522088
0.709354 0.000000 0.544620
0.713339 0.000000 0.565270
0.718034 0.000000 0.584672
0.723275 0.000000 0.603350
0.729715 0.000000 0.621871
0.737963 0.000000 0.641410
0.747484 0.000000 0.661649
0.759013 0.000000 0.683223
0.772856 0.000000 0.706518
0.789356 0.000000 0.731807
0.806156 0.000000 0.756826
0.821665 0.000051 0.779855
0.834381 0.000246 0.798808
0.846287 0.004938 0.816568
0.857092 0.027177 0.832691
0.865727 0.090588 0.845580
0.040035 0.050384 0.028660
0.040039 0.050269 0.028660
0.040044 0.050154 0.028659
0.040049 0.050039 0.028658
0.040054 0.049895 0.028657
0.040083 0.049171 0.028651
0.040112 0.048443 0.028645
0.056488 0.053019 0.026997
0.069038 0.055275 0.026059
0.083099 0.055535 0.025088
0.106355 0.054780 0.022844
0.148097 0.049460 0.016154
0.189218 0.040256 0.004532
0.226784 0.025140 0.000000
0.265464 0.007999 0.000000
0.306586 0.000000 0.000000
0.346393 0.000000 0.000000
0.379341 0.000000 0.000000
0.408158 0.000000 0.000000
0.434321 0.000000 0.000000
0.459230 0.000000 0.000000
0.481101 0.000000 0.000000
0.500161 0.000000 0.000000
0.511089 0.000000 0.000000
0.527842 0.000000 0.000000
0.543443 0.000000 0.000000
0.558323 0.000000 0.000000
0.572447 0.000000 0.000000
0.585998 0.000000 0.000000
0.596640 0.000000 0.000000
0.606601 0.000000 0.000000
0.617724 0.000000 0.000000
0.626419 0.000000 0.000000
0.635242 0.000000 0.000000
0.644884 0.000000 0.009335
0.654890 0.000000 0.045400
0.663152 0.000000 0.100475
0.668956 0.000000 0.150899
0.674228 0.000000 0.196130
0.678732 0.000000 0.237428
0.682756 0.000000 0.276910
0.686450 0.000000 0.314835
0.688956 0.000000 0.350255
0.691114 0.000000 0.382233
0.693611 0.000000 0.412465
0.696326 0.000000 0.441597
0.699203 0.000000 0.470000
0.702369 0.000000 0.496467
0.705686 0.000000 0.520944
0.709172 0.000000 0.543681
0.713176 0.000000 0.564427
0.717845 0.000000 0.583973
0.723057 0.000000 0.602721
0.729518 0.000000 0.621305
0.737699 0.000000 0.640845
0.747191 0.000000 0.661101
0.758749 0.000000 0.682729
0.772512 0.000000 0.705989
0.789045 0.000000 0.731330
0.805867 0.000000 0.756398
0.821480 0.000049 0.779579
0.834214 0.000243 0.798559
0.846147 0.004866 0.816359
0.856998 0.026487 0.832550
0.865642 0.089963 0.845453
0.039150 0.056268 0.028479
0.039205 0.056116 0.028494
0.039259 0.055963 0.028508
0.039313 0.055811 0.028522
0.039367 0.055658 0.028537
0.039515 0.055069 0.028573
0.039624 0.054240 0.028595
0.048385 0.056872 0.027371
0.065256 0.061289 0.025960
0.083029 0.064500 0.024515
0.105373 0.066050 0.021679
0.141561 0.065951 0.013739
0.186278 0.063100 0.005003
0.227347 0.056184 0.000695
0.267064 0.034356 0.000000
0.309501 0.011526 0.000000
0.351558 0.001708 0.000000
0.389340 0.000000 0.000000
0.421232 0.000000 0.000000
0.448460 0.000000 0.000000
0.474181 0.000000 0.000000
0.498419 0.000000 0.000000
0.519024 0.000000 0.000000
0.534201 0.000000 0.000000
0.546356 0.000000 0.000000
0.554293 0.000000 0.000000
0.560420 0.000000 0.000000
0.565191 0.000000 0.000000
0.578815 0.000000 0.000000
0.591089 0.000000 0.000000
0.601718 0.000000 0.000000
0.611713 0.000000 0.000000
0.622026 0.000000 0.000000
0.630559 0.000000 0.000000
0.639647 0.000000 0.002018
0.649822 0.000000 0.021646
0.659116 0.000000 0.066220
0.666770 0.000000 0.128156
0.673716 0.000000 0.188902
0.678423 0.000000 0.232283
0.682537 0.000000 0.272368
0.686245 0.000000 0.310970
0.688775 0.000000 0.346972
0.690924 0.000000 0.379428
0.693400 0.000000 0.410079
0.696114 0.000000 0.439495
0.699013 0.000000 0.468127
0.702179 0.000000 0.494881
0.705497 0.000000 0.519677
0.708972 0.000000 0.542641
0.712996 0.000000 0.563495
0.717636 0.000000 0.583199
0.722815 0.000000 0.602025
0.729300 0.000000 0.620679
0.737407 0.000000 0.640222
0.746898 0.000000 0.660517
0.758458 0.000000 0.682183
0.772131 0.000000 0.705406
0.788701 0.000000 0.730803
0.805549 0.000000 0.755925
0.821275 0.000045 0.779274
0.834029 0.000240 0.798283
0.845993 0.004787 0.816129
0.856894 0.025725 0.832396
0.865548 0.089274 0.845313
0.032947 0.065669 0.027154
0.033132 0.065451 0.027191
0.033319 0.065232 0.027228
0.033506 0.065012 0.027266
0.033694 0.064791 0.027304
0.034007 0.064423 0.027366
0.035439 0.062742 0.027654
0.036986 0.060927 0.027964
0.056809 0.067336 0.024637
0.077886 0.073976 0.022038
0.102681 0.079090 0.016761
0.132815 0.081561 0.009161
0.179657 0.083591 0.001993
0.227138 0.083511 0.000082
0.270783 0.079529 0.000000
0.314152 0.068248 0.000000
0.359309 0.047659 0.000000
0.401208 0.025332 0.000000
0.436205 0.007551 0.000000
0.466397 0.000000 0.000000
0.493109 0.000000 0.000000
0.517913 0.000000 0.000000
0.539739 0.000000 0.000000
0.558805 0.000000 0.000000
0.571962 0.000000 0.000000
0.581362 0.000000 0.000000
0.587974 0.000000 0.000000
0.592146 0.000000 0.000000
0.596833 0.000000 0.000000
0.599246 0.000000 0.000000
0.596807 0.000000 0.000000
0.605866 0.000000 0.000000
0.616492 0.000000 0.000000
0.625658 0.000000 0.000000
0.634533 0.000000 0.000000
0.643692 0.000000 0.003679
0.653834 0.000000 0.036618
0.662537 0.000000 0.089540
0.669959 0.000000 0.152635
0.676496 0.000000 0.211304
0.682262 0.000000 0.266939
0.686017 0.000000 0.306650
0.688610 0.000000 0.343186
0.690713 0.000000 0.376302
0.693166 0.000000 0.407426
0.695877 0.000000 0.437158
0.698802 0.000000 0.466047
0.701968 0.000000 0.493122
0.705287 0.000000 0.518272
0.708750 0.000000 0.541488
0.712797 0.000000 0.562462
0.717405 0.000000 0.582343
0.722547 0.000000 0.601255
0.729060 0.000000 0.619987
0.737085 0.000000 0.639532
0.746607 0.000000 0.659896
0.758136 0.000000 0.681581
0.771710 0.000000 0.704761
0.788322 0.000000 0.730221
0.805197 0.000000 0.755403
0.821050 0.000042 0.778938
0.833825 0.000237 0.797979
0.845823 0.004700 0.815875
0.856780 0.024885 0.832225
0.865444 0.088514 0.845158
0.011379 0.084995 0.023081
0.011629 0.084563 0.023208
0.012046 0.084206 0.023285
0.012464 0.083848 0.023361
0.012884 0.083489 0.023438
0.013305 0.083128 0.023515
0.015665 0.081107 0.023948
0.019879 0.077499 0.024721
0.034633 0.077933 0.014398
0.065678 0.085030 0.006517
0.093846 0.093301 0.006930
0.124035 0.098071 0.002794
0.165825 0.102063 0.000693
0.216413 0.105665 0.000095
0.264634 0.106604 0.000000
0.311439 0.105121 0.000000
0.359510 0.101711 0.000000
0.406225 0.095419 0.000000
0.448497 0.086709 0.000000
0.483440 0.076929 0.000000
0.513390 0.065992 0.000000
0.540889 0.053921 0.000000
0.566254 0.039732 0.000000
0.586953 0.025669 0.000000
0.603830 0.014214 0.000000
0.614123 0.003260 0.000000
0.619972 0.000000 0.000000
0.624075 0.000000 0.000000
0.627147 0.000000 0.000000
0.630022 0.000000 0.000000
0.630221 0.000000 0.000000
0.627922 0.000000 0.000000
0.623394 0.000000 0.000000
0.620430 0.000000 0.000000
0.629091 0.000000 0.000000
0.637920 0.000000 0.000384
0.647804 0.000000 0.013058
0.657360 0.000000 0.051464
0.665535 0.000000 0.109832
0.672697 0.000000 0.173109
0.678930 0.000000 0.230645
0.684498 0.000000 0.287153
0.688426 0.000000 0.338956
0.690478 0.000000 0.372816
0.692905 0.000000 0.404470
0.695614 0.000000 0.434559
0.698568 0.000000 0.463736
0.701734 0.000000 0.491169
0.705055 0.000000 0.516714
0.708542 0.000000 0.540094
0.712576 0.000000 0.561318
0.717149 0.000000 0.581395
0.722281 0.000000 0.600404
0.728793 0.000000 0.619221
0.736728 0.000000 0.638770
0.746286 0.000000 0.659210
0.757780 0.000000 0.680915
0.771246 0.000000 0.704049
0.787903 0.000000 0.729579
0.804808 0.000000 0.754827
0.820800 0.000038 0.778566
0.833599 0.000234 0.797643
0.845635 0.004604 0.815595
0.856654 0.023958 0.832036
0.865330 0.087675 0.844988
0.000898 0.109511 0.014977
0.000917 0.109119 0.015158
0.000937 0.108725 0.015339
0.000956 0.108330 0.015521
0.000976 0.107934 0.015703
0.000995 0.107537 0.015886
0.001015 0.107136 0.016071
0.002412 0.102735 0.017693
0.004877 0.097858 0.019174
0.029525 0.104602 0.000402
0.075775 0.115036 0.000000
0.114219 0.123121 0.000251
0.151186 0.127296 0.000031
0.202061 0.132172 0.000000
0.254481 0.135481 0.000000
0.303350 0.135968 0.000000
0.352136 0.134266 0.000000
0.403169 0.130737 0.000000
0.450508 0.126494 0.000000
0.490455 0.120719 0.000000
0.524756 0.113347 0.000000
0.554727 0.104249 0.000000
0.582033 0.092576 0.000000
0.606420 0.079628 0.000000
0.627916 0.065333 0.000000
0.642307 0.050255 0.000000
0.652101 0.030513 0.000000
0.658991 0.010391 0.000000
0.662376 0.002553 0.000000
0.664076 0.000000 0.000000
0.663724 0.000000 0.000000
0.660631 0.000000 0.000000
0.658834 0.000000 0.000000
0.653490 0.000000 0.000000
0.648481 0.000000 0.000000
0.638294 0.000000 0.000000
0.641064 0.000000 0.001827
0.650891 0.000000 0.020952
0.660308 0.000000 0.065278
0.668070 0.000000 0.128002
0.674940 0.000000 0.190022
0.681117 0.000000 0.247643
0.686543 0.000000 0.305190
0.689605 0.000000 0.359868
0.692615 0.000000 0.401174
0.695321 0.000000 0.431665
0.698308 0.000000 0.461165
0.701474 0.000000 0.488998
0.704797 0.000000 0.514984
0.708311 0.000000 0.538547
0.712331 0.000000 0.560049
0.716866 0.000000 0.580345
0.722027 0.000000 0.599461
0.728499 0.000000 0.618374
0.736334 0.000000 0.637926
0.745931 0.000000 0.658450
0.757386 0.000000 0.680179
0.770733 0.000000 0.703262
0.787439 0.000000 0.728869
0.804379 0.000000 0.754191
0.820525 0.000034 0.778156
0.833351 0.000230 0.797272
0.845428 0.004498 0.815286
0.856514 0.022935 0.831829
0.865204 0.086750 0.844800
0.000000 0.134414 0.005107
0.000000 0.134024 0.005194
0.000000 0.133632 0.005281
0.000000 0.133239 0.005369
0.000000 0.132845 0.005456
0.000000 0.132450 0.005544
0.000000 0.132052 0.005633
0.000000 0.129802 0.006135
0.000168 0.124266 0.008178
0.001133 0.120595 0.004375
0.024397 0.136533 0.000000
0.090799 0.150071 0.000000
0.139622 0.158013 0.000000
0.187539 0.163822 0.000000
0.242332 0.169265 0.000000
0.294523 0.172440 0.000000
0.345403 0.173198 0.000000
0.397903 0.171899 0.000000
0.448942 0.168690 0.000000
0.495042 0.164143 0.000000
0.532899 0.157947 0.000000
0.565069 0.149674 0.000000
0.594449 0.139788 0.000000
0.621712 0.128292 0.000000
0.644087 0.115698 0.000000
0.662597 0.102704 0.000000
0.675768 0.087927 0.000000
0.683746 0.066503 0.000000
0.690189 0.039531 0.000000
0.694795 0.015609 0.000000
0.697532 0.002230 0.000000
0.697446 0.000000 0.000000
0.693061 0.000000 0.000000
0.686959 0.000000 0.000000
0.681568 0.000000 0.000000
0.676628 0.000000 0.000000
0.668344 0.000000 0.000000
0.659549 0.000000 0.005388
0.653452 0.000000 0.028305
0.662530 0.000000 0.078904
0.670273 0.000000 0.142803
0.676909 0.000000 0.204160
0.683003 0.000000 0.262268
0.687613 0.000000 0.320285
0.690635 0.000000 0.375140
0.694948 0.000000 0.427612
0.698018 0.000000 0.458302
0.701185 0.000000 0.486584
0.704510 0.000000 0.513061
0.708055 0.000000 0.536830
0.712060 0.000000 0.558642
0.716551 0.000000 0.579181
0.721745 0.000000 0.598417
0.728172 0.000000 0.617435
0.735898 0.000000 0.636993
0.745538 0.000000 0.657611
0.756951 0.000000 0.679364
0.770165 0.000000 0.702392
0.786928 0.000000 0.728084
0.803905 0.000000 0.753487
0.820221 0.000029 0.777703
0.833076 0.000226 0.796863
0.845199 0.004381 0.814944
0.856361 0.021806 0.831599
0.865065 0.085728 0.844592
0.000000 0.162387 0.000501
0.000000 0.161971 0.000509
0.000000 0.161554 0.000518
0.000000 0.161136 0.000526
0.000000 0.160717 0.000534
0.000000 0.160297 0.000542
0.000000 0.159874 0.000550
0.000000 0.159415 0.000559
0.000000 0.153924 0.000758
0.000000 0.147171 0.002263
0.000000 0.153534 0.000000
0.026929 0.170808 0.000000
0.116799 0.185616 0.000000
0.168645 0.193948 0.000000
0.225334 0.201773 0.000000
0.282556 0.207908 0.000000
0.335928 0.211508 0.000000
0.389226 0.212978 0.000000
0.444640 0.212550 0.000000
0.495501 0.209933 0.000000
0.537757 0.205736 0.000000
0.573875 0.199831 0.000000
0.605473 0.192297 0.000000
0.634137 0.182511 0.000000
0.659528 0.171859 0.000000
0.681986 0.160322 0.000000
0.697063 0.149034 0.000000
0.707313 0.131342 0.000000
0.713870 0.109144 0.000000
0.718541 0.080662 0.000000
0.722752 0.049061 0.000000
0.725016 0.013890 0.000000
0.724694 0.000882 0.000000
0.722122 0.000006 0.000000
0.715137 0.000000 0.000000
0.709411 0.000000 0.000000
0.701729 0.000000 0.000000
0.695918 0.000000 0.000000
0.687760 0.000000 0.002361
0.678700 0.000000 0.042824
0.664390 0.000000 0.089345
0.671912 0.000000 0.154058
0.678564 0.000000 0.215236
